;FLAVOR:Marlin
;TIME:3117
;Filament used: 2.00755m
;Layer height: 0.2
;MINX:95.483
;MINY:80.385
;MINZ:0.2
;MAXX:124.517
;MAXY:130.665
;MAXZ:25.6
;TARGET_MACHINE.NAME:Creality Ender-3 S1 Pro
;Generated with Cura_SteamEngine 5.10.2
; Ender 3 S1 Pro Start G-code
; M413 S0 ; Disable power loss recovery
G92 E0 ; Reset Extruder

; Prep surfaces before auto home for better accuracy
M140 S60
M104 S200

G28 ; Home all axes
G1 Z10.0 F3000 ; Move Z Axis up little to prevent scratching of Heat Bed
G1 X0 Y0

M190 S60
M109 S200

G1 X0.1 Y20 Z0.3 F5000.0 ; Move to start position
G1 X0.1 Y200.0 Z0.3 F1500.0 E15 ; Draw the first line
G1 X0.4 Y200.0 Z0.3 F5000.0 ; Move to side a little
G1 X0.4 Y20 Z0.3 F1500.0 E30 ; Draw the second line
G92 E0 ; Reset Extruder
G1 Z2.0 F3000 ; Move Z Axis up little to prevent scratching of Heat Bed
G1 X5 Y20 Z0.3 F5000.0 ; Move over to prevent blob squish

M82 ;absolute extrusion mode
G92 E0
G92 E0
G1 F2400 E-0.8
;LAYER_COUNT:128
;LAYER:0
M107
M204 S2000
G0 F7500 X98.247 Y85.392 Z0.2
M204 S500
;TYPE:SKIRT
G1 F2400 E0
G1 F1500 X98.956 Y84.638 E0.03442
G1 X99.689 Y83.946 E0.06795
G1 X100.431 Y83.33 E0.10003
G1 X101.249 Y82.766 E0.13307
G1 X101.722 Y82.487 E0.15134
G1 X102.794 Y81.904 E0.19193
G1 X103.692 Y81.491 E0.2248
G1 X104.982 Y81.055 E0.27009
G1 X105.883 Y80.837 E0.30092
G1 X106.737 Y80.662 E0.32992
G1 X107.918 Y80.491 E0.36961
G1 X108.814 Y80.418 E0.39951
G1 X109.379 Y80.386 E0.41833
G1 X110.541 Y80.385 E0.45698
G1 X111.281 Y80.425 E0.48162
G1 X112.104 Y80.494 E0.50909
G1 X113.294 Y80.667 E0.54909
G1 X114.154 Y80.847 E0.57831
G1 X115.047 Y81.064 E0.60888
G1 X116.007 Y81.373 E0.64242
G1 X116.951 Y81.778 E0.67659
G1 X117.601 Y82.109 E0.70085
G1 X118.383 Y82.541 E0.73056
G1 X119.181 Y83.048 E0.76201
G1 X120.244 Y83.892 E0.80715
G1 X121.042 Y84.632 E0.84335
G1 X121.712 Y85.34 E0.87577
G1 X122.314 Y86.104 E0.90812
G1 X122.846 Y86.914 E0.94035
G1 X123.214 Y87.587 E0.96587
G1 X123.64 Y88.544 E1.00071
G1 X123.989 Y89.594 E1.03751
G1 X124.211 Y90.449 E1.06689
G1 X124.394 Y91.405 E1.09926
G1 X124.491 Y92.331 E1.13023
G1 X124.511 Y92.912 E1.14957
G1 X124.517 Y93.801 E1.17913
G1 X124.485 Y99.353 E1.3638
G1 X124.467 Y100.238 E1.39324
G1 X124.401 Y101.209 E1.42561
G1 X124.25 Y102.171 E1.458
G1 X124.014 Y103.116 E1.49039
G1 X123.695 Y104.037 E1.52281
G1 X123.297 Y104.925 E1.55518
G1 X122.822 Y105.774 E1.58753
G1 X122.273 Y106.579 E1.61994
G1 X121.68 Y107.305 E1.65112
G1 X120.974 Y108.028 E1.68473
G1 X120.289 Y108.616 E1.71476
G1 X119.438 Y109.223 E1.74952
G1 X118.597 Y109.714 E1.78191
G1 X117.716 Y110.13 E1.81432
G1 X116.802 Y110.466 E1.84671
G1 X115.863 Y110.72 E1.87906
G1 X114.974 Y110.88 E1.9091
G1 X113.674 Y110.981 E1.95247
G1 X112.555 Y111 E1.9897
G1 X107.067 Y110.999 E2.17223
G1 X106.359 Y110.988 E2.19578
G1 X105.369 Y110.928 E2.22877
G1 X104.407 Y110.781 E2.26113
G1 X103.46 Y110.55 E2.29355
G1 X102.604 Y110.262 E2.32359
G1 X101.648 Y109.843 E2.35831
G1 X100.795 Y109.372 E2.39072
G1 X99.989 Y108.827 E2.42308
G1 X99.232 Y108.213 E2.4555
G1 X98.533 Y107.535 E2.48789
G1 X97.897 Y106.797 E2.52029
G1 X97.33 Y106.007 E2.55263
G1 X96.833 Y105.169 E2.58504
G1 X96.427 Y104.322 E2.61628
G1 X96.073 Y103.378 E2.64981
G1 X95.814 Y102.438 E2.68224
G1 X95.638 Y101.47 E2.71496
G1 X95.54 Y100.25 E2.75567
G1 X95.514 Y99.083 E2.7945
G1 X95.483 Y93.648 E2.97527
G1 X95.491 Y92.872 E3.00108
G1 X95.545 Y91.901 E3.03343
G1 X95.671 Y91.011 E3.06332
G1 X95.782 Y90.469 E3.08172
G1 X95.975 Y89.71 E3.10777
G1 X96.285 Y88.739 E3.14167
G1 X96.662 Y87.841 E3.17407
G1 X97.117 Y86.98 E3.20646
G1 X97.646 Y86.162 E3.23886
G1 X98.247 Y85.392 E3.27134
M204 S2000
G0 F7500 X98.539 Y85.666
M204 S500
G1 F1500 X99.231 Y84.929 E3.30497
G1 X99.945 Y84.254 E3.33765
G1 X100.687 Y83.638 E3.36972
G1 X101.453 Y83.11 E3.40067
G1 X101.913 Y82.838 E3.41844
G1 X102.962 Y82.267 E3.45816
G1 X103.821 Y81.87 E3.48964
G1 X105.076 Y81.444 E3.53372
G1 X105.964 Y81.229 E3.56411
G1 X106.794 Y81.058 E3.59229
G1 X107.951 Y80.89 E3.63118
G1 X108.837 Y80.817 E3.66075
G1 X109.379 Y80.786 E3.6788
G1 X110.541 Y80.785 E3.71745
G1 X111.248 Y80.824 E3.741
G1 X112.047 Y80.89 E3.76767
G1 X113.212 Y81.059 E3.80682
G1 X114.06 Y81.236 E3.83563
G1 X114.953 Y81.453 E3.8662
G1 X115.849 Y81.741 E3.8975
G1 X116.793 Y82.146 E3.93167
G1 X117.408 Y82.459 E3.95462
G1 X118.168 Y82.879 E3.9835
G1 X118.966 Y83.386 E4.01495
G1 X119.995 Y84.205 E4.05869
G1 X120.752 Y84.907 E4.09303
G1 X121.398 Y85.588 E4.12425
G1 X121.98 Y86.324 E4.15545
G1 X122.495 Y87.106 E4.1866
G1 X122.863 Y87.779 E4.21211
G1 X123.26 Y88.67 E4.24455
G1 X123.609 Y89.72 E4.28135
G1 X123.818 Y90.525 E4.30902
G1 X123.996 Y91.447 E4.34025
G1 X124.093 Y92.373 E4.37122
G1 X124.111 Y92.915 E4.38925
G1 X124.117 Y93.799 E4.41865
G1 X124.085 Y99.345 E4.60312
G1 X124.068 Y100.212 E4.63196
G1 X124.006 Y101.148 E4.66316
G1 X123.862 Y102.075 E4.69436
G1 X123.636 Y102.986 E4.72558
G1 X123.33 Y103.874 E4.75682
G1 X122.948 Y104.73 E4.788
G1 X122.491 Y105.549 E4.81919
G1 X121.963 Y106.326 E4.85044
G1 X121.393 Y107.026 E4.88046
G1 X120.713 Y107.724 E4.91287
G1 X120.028 Y108.312 E4.9429
G1 X119.236 Y108.878 E4.97528
G1 X118.426 Y109.353 E5.00651
G1 X117.578 Y109.755 E5.03772
G1 X116.697 Y110.08 E5.06895
G1 X115.792 Y110.326 E5.10014
G1 X114.903 Y110.486 E5.13019
G1 X113.667 Y110.581 E5.17142
G1 X112.555 Y110.6 E5.20841
G1 X107.073 Y110.599 E5.39074
G1 X106.383 Y110.589 E5.41369
G1 X105.429 Y110.532 E5.44548
G1 X104.501 Y110.392 E5.47669
G1 X103.588 Y110.171 E5.50794
G1 X102.732 Y109.883 E5.53798
G1 X101.841 Y109.493 E5.57033
G1 X101.018 Y109.04 E5.60157
G1 X100.24 Y108.516 E5.63277
G1 X99.51 Y107.926 E5.66399
G1 X98.836 Y107.273 E5.6952
G1 X98.222 Y106.563 E5.72642
G1 X97.674 Y105.802 E5.75761
G1 X97.194 Y104.996 E5.78881
G1 X96.788 Y104.149 E5.82005
G1 X96.458 Y103.271 E5.85125
G1 X96.207 Y102.366 E5.88249
G1 X96.037 Y101.438 E5.91387
G1 X95.94 Y100.241 E5.95381
G1 X95.914 Y99.081 E5.9924
G1 X95.883 Y93.652 E6.17297
G1 X95.89 Y92.894 E6.19819
G1 X95.941 Y91.957 E6.2294
G1 X96.063 Y91.091 E6.25848
G1 X96.17 Y90.568 E6.27624
G1 X96.363 Y89.809 E6.30229
G1 X96.654 Y88.893 E6.33425
G1 X97.016 Y88.027 E6.36547
G1 X97.453 Y87.197 E6.39667
G1 X97.962 Y86.408 E6.4279
G1 X98.539 Y85.666 E6.45916
M204 S2000
G0 F7500 X98.831 Y85.94
M204 S500
G1 F1500 X99.506 Y85.22 E6.49199
G1 X100.22 Y84.545 E6.52467
G1 X100.914 Y83.967 E6.55471
G1 X101.657 Y83.454 E6.58474
G1 X102.104 Y83.189 E6.60202
G1 X103.131 Y82.63 E6.64091
G1 X103.95 Y82.249 E6.67096
G1 X105.17 Y81.833 E6.71383
G1 X106.045 Y81.621 E6.74377
G1 X106.852 Y81.454 E6.77118
G1 X107.984 Y81.289 E6.80923
G1 X108.86 Y81.216 E6.83847
G1 X109.379 Y81.186 E6.85576
G1 X110.541 Y81.185 E6.89441
G1 X111.216 Y81.223 E6.91689
G1 X111.99 Y81.286 E6.94272
G1 X113.13 Y81.451 E6.98103
G1 X113.978 Y81.628 E7.00984
G1 X114.831 Y81.834 E7.03903
G1 X115.691 Y82.109 E7.06906
G1 X116.635 Y82.514 E7.10323
G1 X117.215 Y82.809 E7.12487
G1 X117.954 Y83.217 E7.15295
G1 X118.717 Y83.699 E7.18296
G1 X119.746 Y84.518 E7.22671
G1 X120.462 Y85.183 E7.25921
G1 X121.085 Y85.837 E7.28925
G1 X121.646 Y86.544 E7.31927
G1 X122.144 Y87.298 E7.34932
G1 X122.512 Y87.971 E7.37483
G1 X122.88 Y88.796 E7.40488
G1 X123.229 Y89.846 E7.44168
G1 X123.425 Y90.602 E7.46766
G1 X123.598 Y91.489 E7.49771
G1 X123.693 Y92.387 E7.52775
G1 X123.711 Y92.918 E7.54542
G1 X123.717 Y93.797 E7.57466
G1 X123.685 Y99.337 E7.75892
G1 X123.669 Y100.186 E7.78716
G1 X123.611 Y101.087 E7.81719
G1 X123.474 Y101.979 E7.84721
G1 X123.258 Y102.856 E7.87725
G1 X122.965 Y103.711 E7.90731
G1 X122.598 Y104.536 E7.93734
G1 X122.16 Y105.325 E7.96736
G1 X121.653 Y106.073 E7.99741
G1 X121.083 Y106.773 E8.02744
G1 X120.452 Y107.42 E8.0575
G1 X119.767 Y108.008 E8.08752
G1 X119.033 Y108.533 E8.11754
G1 X118.254 Y108.992 E8.14761
G1 X117.439 Y109.38 E8.17763
G1 X116.592 Y109.694 E8.20768
G1 X115.721 Y109.932 E8.23771
G1 X114.832 Y110.092 E8.26775
G1 X113.66 Y110.181 E8.30684
G1 X112.555 Y110.2 E8.3436
G1 X107.079 Y110.199 E8.52573
G1 X106.389 Y110.189 E8.54869
G1 X105.488 Y110.136 E8.57871
G1 X104.594 Y110.003 E8.60877
G1 X103.716 Y109.792 E8.6388
G1 X102.86 Y109.504 E8.66884
G1 X102.033 Y109.142 E8.69887
G1 X101.241 Y108.708 E8.7289
G1 X100.491 Y108.205 E8.75894
G1 X99.788 Y107.638 E8.78898
G1 X99.138 Y107.011 E8.81902
G1 X98.546 Y106.329 E8.84905
G1 X98.017 Y105.597 E8.87909
G1 X97.554 Y104.822 E8.90912
G1 X97.162 Y104.008 E8.93917
G1 X96.843 Y103.163 E8.96921
G1 X96.6 Y102.293 E8.99925
G1 X96.436 Y101.405 E9.02929
G1 X96.34 Y100.232 E9.06843
G1 X96.314 Y99.079 E9.10679
G1 X96.283 Y93.655 E9.2872
G1 X96.289 Y92.915 E9.31181
G1 X96.337 Y92.013 E9.34185
G1 X96.455 Y91.171 E9.37013
G1 X96.558 Y90.667 E9.38724
G1 X96.751 Y89.908 E9.41329
G1 X97.023 Y89.047 E9.44332
G1 X97.37 Y88.213 E9.47336
G1 X97.789 Y87.413 E9.5034
G1 X98.278 Y86.653 E9.53346
G1 X98.831 Y85.94 E9.56347
M204 S2000
G1 F2400 E8.76347
;MESH:mouthpiece_connector.STL
G0 F7500 X107.979 Y92.471
G0 X110 Y99.399
M204 S500
;TYPE:WALL-INNER
G1 F2400 E9.56347
G1 F1500 X110.984 Y99.399 E9.5962
G1 X110.991 Y93.202 E9.80231
G1 X110.865 Y93.04 E9.80914
G1 X109.998 Y92.879 E9.83847
G1 X109.142 Y93.038 E9.86743
G1 X109.004 Y93.21 E9.87476
G1 X109.005 Y99.399 E10.08061
G1 X110 Y99.399 E10.1137
M204 S2000
G0 F7500 X110 Y99.799
M204 S500
;TYPE:WALL-OUTER
G1 F1500 X111.384 Y99.799 E10.15973
G1 X111.391 Y93.065 E10.38371
G1 X111.087 Y92.674 E10.40018
G1 X109.999 Y92.472 E10.43698
G1 X108.922 Y92.672 E10.47342
G1 X108.604 Y93.07 E10.49036
G1 X108.605 Y99.799 E10.71417
G1 X110 Y99.799 E10.76057
M204 S2000
G0 F7500 X110 Y99.036
M204 S500
;TYPE:SKIN
G1 F1500 X109.364 Y99.036 E10.78172
G1 X109.365 Y93.36 E10.97051
G1 X109.996 Y93.244 E10.99184
G1 X110.627 Y93.36 E11.01318
G1 X110.624 Y99.036 E11.20197
G1 X110 Y99.036 E11.22272
M204 S2000
G0 F7500 X110.15 Y98.836
M204 S500
G1 F1500 X109.564 Y98.25 E11.25029
M204 S2000
G0 F7500 X109.564 Y97.685
M204 S500
G1 F1500 X110.425 Y98.545 E11.29076
M204 S2000
G0 F7500 X110.425 Y97.98
M204 S500
G1 F1500 X109.564 Y97.119 E11.33126
M204 S2000
G0 F7500 X109.564 Y96.553
M204 S500
G1 F1500 X110.425 Y97.415 E11.37178
M204 S2000
G0 F7500 X110.425 Y96.849
M204 S500
G1 F1500 X109.565 Y95.988 E11.41226
M204 S2000
G0 F7500 X109.565 Y95.423
M204 S500
G1 F1500 X110.425 Y96.283 E11.45271
M204 S2000
G0 F7500 X110.426 Y95.718
M204 S500
G1 F1500 X109.565 Y94.857 E11.49321
M204 S2000
G0 F7500 X109.565 Y94.291
M204 S500
G1 F1500 X110.426 Y95.153 E11.53373
M204 S2000
G0 F7500 X110.427 Y94.588
M204 S500
G1 F1500 X109.565 Y93.726 E11.57428
M204 S2000
G0 F7500 X109.876 Y93.471
M204 S500
G1 F1500 X110.427 Y94.022 E11.60019
M104 S200
M204 S2000
G1 F2400 E10.80019
;MESH:NONMESH
G0 F300 X110.427 Y94.022 Z0.4
G0 F7500 X110.89 Y94.023
G0 X110.828 Y93.258
G0 X110.145 Y93.071
G0 X108.835 Y93.149
G0 X107.979 Y92.471
G0 X98.831 Y85.94
;TIME_ELAPSED:20.738047
;LAYER:1
;note -- min layer time used
M106 S85
M204 S500
;TYPE:SKIRT
G1 F2400 E11.60019
G1 F1260.6 X99.506 Y85.22 E11.63302
G1 X100.22 Y84.545 E11.6657
G1 X100.914 Y83.967 E11.69574
G1 X101.657 Y83.454 E11.72577
G1 X102.104 Y83.189 E11.74305
G1 X103.131 Y82.63 E11.78194
G1 X103.95 Y82.249 E11.81199
G1 X105.17 Y81.833 E11.85486
G1 X106.045 Y81.621 E11.8848
G1 X106.852 Y81.454 E11.91221
G1 X107.984 Y81.289 E11.95026
G1 X108.86 Y81.216 E11.9795
G1 X109.379 Y81.186 E11.99679
G1 X110.541 Y81.185 E12.03544
G1 X111.216 Y81.223 E12.05792
G1 X111.99 Y81.286 E12.08375
G1 X113.13 Y81.451 E12.12206
G1 X113.978 Y81.628 E12.15087
G1 X114.831 Y81.834 E12.18006
G1 X115.691 Y82.109 E12.21009
G1 X116.635 Y82.514 E12.24426
G1 X117.215 Y82.809 E12.2659
G1 X117.954 Y83.217 E12.29398
G1 X118.717 Y83.699 E12.32399
G1 X119.746 Y84.518 E12.36774
G1 X120.462 Y85.183 E12.40024
G1 X121.085 Y85.837 E12.43028
G1 X121.646 Y86.544 E12.4603
G1 X122.144 Y87.298 E12.49035
G1 X122.512 Y87.971 E12.51586
G1 X122.88 Y88.796 E12.54591
G1 X123.229 Y89.846 E12.58271
G1 X123.425 Y90.602 E12.60869
G1 X123.598 Y91.489 E12.63874
G1 X123.693 Y92.387 E12.66878
G1 X123.711 Y92.918 E12.68645
G1 X123.717 Y93.797 E12.71569
G1 X123.685 Y99.337 E12.89995
G1 X123.669 Y100.186 E12.92819
G1 X123.611 Y101.087 E12.95822
G1 X123.474 Y101.979 E12.98824
G1 X123.258 Y102.856 E13.01828
G1 X122.965 Y103.711 E13.04834
G1 X122.598 Y104.536 E13.07837
G1 X122.16 Y105.325 E13.10839
G1 X121.653 Y106.073 E13.13844
G1 X121.083 Y106.773 E13.16847
G1 X120.452 Y107.42 E13.19853
G1 X119.767 Y108.008 E13.22855
G1 X119.033 Y108.533 E13.25857
G1 X118.254 Y108.992 E13.28864
G1 X117.439 Y109.38 E13.31866
G1 X116.592 Y109.694 E13.34871
G1 X115.721 Y109.932 E13.37874
G1 X114.832 Y110.092 E13.40878
G1 X113.66 Y110.181 E13.44787
G1 X112.555 Y110.2 E13.48463
G1 X107.079 Y110.199 E13.66676
G1 X106.389 Y110.189 E13.68972
G1 X105.488 Y110.136 E13.71974
G1 X104.594 Y110.003 E13.7498
G1 X103.716 Y109.792 E13.77983
G1 X102.86 Y109.504 E13.80987
G1 X102.033 Y109.142 E13.8399
G1 X101.241 Y108.708 E13.86993
G1 X100.491 Y108.205 E13.89997
G1 X99.788 Y107.638 E13.93001
G1 X99.138 Y107.011 E13.96005
G1 X98.546 Y106.329 E13.99008
G1 X98.017 Y105.597 E14.02012
G1 X97.554 Y104.822 E14.05015
G1 X97.162 Y104.008 E14.0802
G1 X96.843 Y103.163 E14.11024
G1 X96.6 Y102.293 E14.14028
G1 X96.436 Y101.405 E14.17032
G1 X96.34 Y100.232 E14.20946
G1 X96.314 Y99.079 E14.24782
G1 X96.283 Y93.655 E14.42823
G1 X96.289 Y92.915 E14.45284
G1 X96.337 Y92.013 E14.48288
G1 X96.455 Y91.171 E14.51116
G1 X96.558 Y90.667 E14.52827
G1 X96.751 Y89.908 E14.55432
G1 X97.023 Y89.047 E14.58435
G1 X97.37 Y88.213 E14.6144
G1 X97.789 Y87.413 E14.64443
G1 X98.278 Y86.653 E14.67449
G1 X98.831 Y85.94 E14.7045
M204 S2000
G1 F2400 E13.9045
;MESH:mouthpiece_connector.STL
G0 F8250 X106.69 Y92.695
G0 X110 Y99.399
M204 S500
;TYPE:WALL-INNER
G1 F2400 E14.7045
G1 F1260.6 X112.055 Y99.399 E14.77285
G1 X112.111 Y96.348 E14.87434
G1 X112.112 Y93.111 E14.98201
G1 X112.019 Y92.878 E14.99035
G1 X111.902 Y92.768 E14.99569
G1 X111.647 Y92.625 E15.00542
G1 X110.993 Y92.414 E15.02827
G1 X109.999 Y92.304 E15.06154
G1 X109.003 Y92.414 E15.09486
G1 X108.355 Y92.625 E15.11753
G1 X108.093 Y92.772 E15.12752
G1 X107.966 Y92.891 E15.13331
G1 X107.884 Y93.108 E15.14103
G1 X107.885 Y96.389 E15.25015
G1 X107.945 Y99.399 E15.35029
G1 X110 Y99.399 E15.41864
M204 S2000
G0 F8250 X110 Y99.799
M204 S500
;TYPE:WALL-OUTER
G1 F1260.6 X112.447 Y99.799 E15.50002
G1 X112.511 Y96.348 E15.61482
G1 X112.512 Y93.035 E15.72501
G1 X112.358 Y92.648 E15.73887
G1 X112.14 Y92.443 E15.74882
G1 X111.807 Y92.257 E15.76151
G1 X111.077 Y92.021 E15.78702
G1 X109.999 Y91.902 E15.8231
G1 X108.919 Y92.021 E15.85923
G1 X108.193 Y92.257 E15.88463
G1 X107.855 Y92.447 E15.89752
G1 X107.624 Y92.663 E15.90804
G1 X107.484 Y93.036 E15.92129
G1 X107.485 Y96.397 E16.03308
G1 X107.553 Y99.799 E16.14625
G1 X110 Y99.799 E16.22764
M204 S2000
G0 F8250 X110 Y99.036
M204 S500
;TYPE:SKIN
G1 F1260.6 X108.297 Y99.036 E16.28428
G1 X108.245 Y96.402 E16.37191
G1 X108.244 Y93.172 E16.47934
G1 X108.279 Y93.079 E16.48264
G1 X108.501 Y92.957 E16.49107
G1 X109.079 Y92.769 E16.51128
G1 X109.997 Y92.666 E16.54201
G1 X110.914 Y92.769 E16.5727
G1 X111.496 Y92.955 E16.59302
G1 X111.715 Y93.099 E16.60174
G1 X111.751 Y93.182 E16.60475
G1 X111.748 Y96.327 E16.70935
G1 X111.699 Y99.036 E16.79947
G1 X110 Y99.036 E16.85598
M204 S2000
G0 F8250 X110 Y99.299
G0 X111.033 Y99.299
G0 X111.033 Y98.836
M204 S500
G1 F1260.6 X111.511 Y98.358 E16.87846
M204 S2000
G0 F8250 X111.521 Y97.782
M204 S500
G1 F1260.6 X110.468 Y98.836 E16.92801
M204 S2000
G0 F8250 X109.902 Y98.836
M204 S500
G1 F1260.6 X111.532 Y97.206 E17.00468
M204 S2000
