;FLAVOR:Marlin
;TIME:5501
;Filament used: 3.56738m
;Layer height: 0.2
;MINX:94.964
;MINY:82.7
;MINZ:0.2
;MAXX:125.029
;MAXY:138.161
;MAXZ:27
;TARGET_MACHINE.NAME:Creality Ender-3 S1 Pro
;Generated with Cura_SteamEngine 5.10.2
; Ender 3 S1 Pro Start G-code
; M413 S0 ; Disable power loss recovery
G92 E0 ; Reset Extruder

; Prep surfaces before auto home for better accuracy
M140 S60
M104 S200

G28 ; Home all axes
G1 Z10.0 F3000 ; Move Z Axis up little to prevent scratching of Heat Bed
G1 X0 Y0

M190 S60
M109 S200

G1 X0.1 Y20 Z0.3 F5000.0 ; Move to start position
G1 X0.1 Y200.0 Z0.3 F1500.0 E15 ; Draw the first line
G1 X0.4 Y200.0 Z0.3 F5000.0 ; Move to side a little
G1 X0.4 Y20 Z0.3 F1500.0 E30 ; Draw the second line
G92 E0 ; Reset Extruder
G1 Z2.0 F3000 ; Move Z Axis up little to prevent scratching of Heat Bed
G1 X5 Y20 Z0.3 F5000.0 ; Move over to prevent blob squish

M82 ;absolute extrusion mode
G92 E0
G92 E0
G1 F2400 E-0.8
;LAYER_COUNT:135
;LAYER:0
M107
M204 S2000
G0 F7500 X98.581 Y107.695 Z0.2
M204 S500
;TYPE:SKIRT
G1 F2400 E0
G1 F1500 X99.345 Y107.041 E0.03345
G1 X100.107 Y106.493 E0.06467
G1 X101.039 Y105.943 E0.10066
G1 X101.95 Y105.511 E0.13419
G1 X102.864 Y105.172 E0.16662
G1 X103.87 Y104.897 E0.20131
G1 X104.8 Y104.728 E0.23274
G1 X106.146 Y104.621 E0.27765
G1 X107.305 Y104.6 E0.31621
G1 X112.95 Y104.6 E0.50396
G1 X113.84 Y104.614 E0.53357
G1 X114.85 Y104.677 E0.56722
G1 X115.846 Y104.83 E0.60074
G1 X116.826 Y105.071 E0.63431
G1 X117.747 Y105.384 E0.66666
G1 X118.704 Y105.805 E0.70143
G1 X119.496 Y106.24 E0.73149
G1 X120.421 Y106.862 E0.76856
G1 X121.205 Y107.5 E0.80218
G1 X121.927 Y108.204 E0.83572
G1 X122.585 Y108.968 E0.86926
G1 X123.174 Y109.788 E0.90284
G1 X123.653 Y110.596 E0.93408
G1 X124.119 Y111.57 E0.96999
G1 X124.471 Y112.516 E1.00356
G1 X124.738 Y113.49 E1.03715
G1 X124.914 Y114.457 E1.06984
G1 X125.018 Y115.732 E1.11239
G1 X125.029 Y116.215 E1.12846
G1 X125.025 Y116.834 E1.14905
G1 X124.951 Y117.84 E1.1826
G1 X124.789 Y118.836 E1.21616
G1 X124.538 Y119.816 E1.24981
G1 X124.203 Y120.764 E1.28325
G1 X123.816 Y121.621 E1.31452
G1 X123.233 Y122.645 E1.35372
G1 X123.001 Y122.998 E1.36777
G1 X122.606 Y123.549 E1.39031
G1 X121.973 Y124.332 E1.4238
G1 X121.348 Y124.984 E1.45384
G1 X120.517 Y125.71 E1.49054
G1 X119.823 Y126.224 E1.51927
G1 X118.977 Y126.774 E1.55283
G1 X118.075 Y127.253 E1.5868
G1 X117.003 Y127.696 E1.62538
G1 X116.333 Y127.917 E1.64884
G1 X115.722 Y128.093 E1.66999
G1 X114.666 Y128.341 E1.70607
G1 X114.019 Y128.463 E1.72797
G1 X113.215 Y128.579 E1.75499
G1 X112.375 Y128.66 E1.78305
G1 X111.613 Y128.711 E1.80846
G1 X110.867 Y128.737 E1.83328
G1 X110.094 Y128.75 E1.859
G1 X108.95 Y128.735 E1.89705
G1 X108.3 Y128.705 E1.91869
G1 X107.688 Y128.665 E1.93909
G1 X106.998 Y128.603 E1.96213
G1 X106.356 Y128.523 E1.98365
G1 X105.889 Y128.446 E1.99939
G1 X105.335 Y128.341 E2.01815
G1 X104.51 Y128.152 E2.0463
G1 X103.911 Y127.989 E2.06694
G1 X103.137 Y127.744 E2.09395
G1 X102.299 Y127.423 E2.12379
G1 X101.372 Y126.976 E2.15802
G1 X100.82 Y126.657 E2.17923
G1 X100.499 Y126.453 E2.19188
G1 X100.011 Y126.118 E2.21156
G1 X99.177 Y125.465 E2.24679
G1 X98.468 Y124.8 E2.27913
G1 X97.803 Y124.06 E2.31222
G1 X97.424 Y123.572 E2.33277
G1 X97.15 Y123.197 E2.34821
G1 X96.611 Y122.387 E2.38057
G1 X96.111 Y121.469 E2.41534
G1 X95.749 Y120.641 E2.4454
G1 X95.396 Y119.583 E2.4825
G1 X95.164 Y118.601 E2.51606
G1 X95.032 Y117.707 E2.54611
G1 X94.972 Y116.822 E2.57562
G1 X94.964 Y116.304 E2.59285
G1 X94.973 Y115.776 E2.61041
G1 X95.039 Y114.767 E2.64404
G1 X95.194 Y113.771 E2.67757
G1 X95.436 Y112.792 E2.71111
G1 X95.764 Y111.837 E2.74469
G1 X96.159 Y110.948 E2.77705
G1 X96.628 Y110.095 E2.80943
G1 X97.234 Y109.2 E2.84538
G1 X97.802 Y108.498 E2.87541
G1 X98.581 Y107.695 E2.91262
M204 S2000
G0 F7500 X98.841 Y107.999
M204 S500
G1 F1500 X99.579 Y107.366 E2.94496
G1 X100.341 Y106.818 E2.97618
G1 X101.211 Y106.304 E3.00979
G1 X102.09 Y105.886 E3.04216
G1 X102.97 Y105.558 E3.07339
G1 X103.942 Y105.291 E3.10692
G1 X104.872 Y105.122 E3.13836
G1 X106.153 Y105.021 E3.1811
G1 X107.312 Y105 E3.21965
G1 X112.944 Y105 E3.40697
G1 X113.816 Y105.013 E3.43598
G1 X114.79 Y105.072 E3.46843
G1 X115.751 Y105.219 E3.50077
G1 X116.698 Y105.45 E3.53319
G1 X117.586 Y105.75 E3.56436
G1 X118.511 Y106.156 E3.59796
G1 X119.303 Y106.591 E3.62802
G1 X120.169 Y107.173 E3.66272
G1 X120.926 Y107.787 E3.69514
G1 X121.624 Y108.465 E3.7275
G1 X122.26 Y109.202 E3.75988
G1 X122.83 Y109.993 E3.79231
G1 X123.292 Y110.769 E3.82235
G1 X123.744 Y111.71 E3.85707
G1 X124.085 Y112.622 E3.88945
G1 X124.344 Y113.562 E3.92188
G1 X124.52 Y114.529 E3.95457
G1 X124.618 Y115.741 E3.99502
G1 X124.629 Y116.213 E4.01072
G1 X124.626 Y116.805 E4.03041
G1 X124.556 Y117.776 E4.06279
G1 X124.401 Y118.738 E4.0952
G1 X124.161 Y119.683 E4.12763
G1 X123.838 Y120.6 E4.15996
G1 X123.468 Y121.423 E4.18998
G1 X122.885 Y122.447 E4.22917
G1 X122.676 Y122.765 E4.24182
G1 X122.295 Y123.298 E4.26361
G1 X121.684 Y124.055 E4.29597
G1 X121.059 Y124.707 E4.32601
G1 X120.279 Y125.389 E4.36047
G1 X119.605 Y125.889 E4.38838
G1 X118.789 Y126.421 E4.42078
G1 X117.922 Y126.883 E4.45346
G1 X116.85 Y127.326 E4.49204
G1 X116.222 Y127.533 E4.51403
G1 X115.631 Y127.704 E4.53449
G1 X114.592 Y127.948 E4.56999
G1 X113.961 Y128.067 E4.59135
G1 X113.177 Y128.181 E4.6177
G1 X112.348 Y128.261 E4.6454
G1 X111.598 Y128.311 E4.6704
G1 X110.857 Y128.338 E4.69506
G1 X110.099 Y128.35 E4.72028
G1 X108.968 Y128.335 E4.7579
G1 X108.326 Y128.306 E4.77927
G1 X107.724 Y128.267 E4.79934
G1 X107.047 Y128.206 E4.82194
G1 X106.421 Y128.128 E4.84293
G1 X105.963 Y128.053 E4.85836
G1 X105.424 Y127.951 E4.87661
G1 X104.615 Y127.766 E4.90421
G1 X104.032 Y127.608 E4.9243
G1 X103.28 Y127.37 E4.95053
G1 X102.442 Y127.049 E4.98038
G1 X101.572 Y126.629 E5.01251
G1 X101.034 Y126.319 E5.03316
G1 X100.725 Y126.123 E5.04533
G1 X100.237 Y125.788 E5.06502
G1 X99.451 Y125.173 E5.09822
G1 X98.742 Y124.508 E5.13055
G1 X98.119 Y123.815 E5.16154
G1 X97.747 Y123.336 E5.18171
G1 X97.483 Y122.975 E5.19659
G1 X96.944 Y122.165 E5.22895
G1 X96.478 Y121.309 E5.26136
G1 X96.116 Y120.481 E5.29142
G1 X95.785 Y119.491 E5.32614
G1 X95.56 Y118.543 E5.35855
G1 X95.428 Y117.649 E5.3886
G1 X95.372 Y116.816 E5.41637
G1 X95.364 Y116.31 E5.4332
G1 X95.372 Y115.801 E5.45013
G1 X95.434 Y114.828 E5.48256
G1 X95.582 Y113.867 E5.5149
G1 X95.815 Y112.921 E5.54731
G1 X96.13 Y111.999 E5.57971
G1 X96.51 Y111.141 E5.61092
G1 X96.979 Y110.288 E5.6433
G1 X97.545 Y109.452 E5.67688
G1 X98.113 Y108.75 E5.70691
G1 X98.841 Y107.999 E5.7417
M204 S2000
G0 F7500 X99.102 Y108.302
M204 S500
G1 F1500 X99.813 Y107.691 E5.77288
G1 X100.575 Y107.143 E5.8041
G1 X101.383 Y106.665 E5.83532
G1 X102.23 Y106.261 E5.86654
G1 X103.076 Y105.944 E5.89658
G1 X104.014 Y105.685 E5.92895
G1 X104.944 Y105.516 E5.96039
G1 X106.16 Y105.421 E6.00096
G1 X107.319 Y105.4 E6.03951
G1 X112.938 Y105.4 E6.2264
G1 X113.792 Y105.412 E6.25481
G1 X114.73 Y105.468 E6.28606
G1 X115.657 Y105.608 E6.31724
G1 X116.57 Y105.829 E6.34848
G1 X117.426 Y106.117 E6.37852
G1 X118.318 Y106.507 E6.4109
G1 X119.11 Y106.942 E6.44096
G1 X119.918 Y107.484 E6.47332
G1 X120.648 Y108.074 E6.50454
G1 X121.322 Y108.727 E6.53575
G1 X121.936 Y109.436 E6.56694
G1 X122.486 Y110.198 E6.5982
G1 X122.948 Y110.974 E6.62824
G1 X123.37 Y111.851 E6.66061
G1 X123.7 Y112.729 E6.69181
G1 X123.951 Y113.634 E6.72304
G1 X124.121 Y114.562 E6.75442
G1 X124.218 Y115.751 E6.7941
G1 X124.229 Y116.212 E6.80944
G1 X124.227 Y116.777 E6.82823
G1 X124.161 Y117.713 E6.85944
G1 X124.013 Y118.64 E6.89066
G1 X123.783 Y119.551 E6.92191
G1 X123.473 Y120.436 E6.9531
G1 X123.103 Y121.259 E6.98311
G1 X122.55 Y122.228 E7.02022
G1 X122.351 Y122.532 E7.0323
G1 X121.983 Y123.047 E7.05336
G1 X121.395 Y123.778 E7.08456
G1 X120.77 Y124.43 E7.1146
G1 X120.04 Y125.068 E7.14685
G1 X119.386 Y125.554 E7.17395
G1 X118.6 Y126.068 E7.20518
G1 X117.769 Y126.513 E7.23653
G1 X116.697 Y126.956 E7.27511
G1 X116.111 Y127.149 E7.29563
G1 X115.539 Y127.315 E7.31544
G1 X114.518 Y127.555 E7.35033
G1 X113.903 Y127.671 E7.37114
G1 X113.139 Y127.783 E7.39683
G1 X112.322 Y127.862 E7.42413
G1 X111.583 Y127.911 E7.44876
G1 X110.847 Y127.939 E7.47326
G1 X110.104 Y127.95 E7.49797
G1 X108.986 Y127.935 E7.53516
G1 X108.352 Y127.907 E7.55627
G1 X107.76 Y127.869 E7.576
G1 X107.096 Y127.809 E7.59817
G1 X106.485 Y127.733 E7.61865
G1 X106.037 Y127.66 E7.63375
G1 X105.513 Y127.561 E7.65148
G1 X104.719 Y127.38 E7.67857
G1 X104.153 Y127.227 E7.69807
G1 X103.423 Y126.996 E7.72354
G1 X102.585 Y126.675 E7.75339
G1 X101.746 Y126.269 E7.78439
G1 X101.248 Y125.981 E7.80352
G1 X100.951 Y125.793 E7.81521
G1 X100.463 Y125.458 E7.8349
G1 X99.724 Y124.881 E7.86608
G1 X99.039 Y124.24 E7.89728
G1 X98.435 Y123.569 E7.92731
G1 X98.07 Y123.1 E7.94708
G1 X97.816 Y122.753 E7.96138
G1 X97.295 Y121.973 E7.99258
G1 X96.845 Y121.149 E8.02381
G1 X96.483 Y120.321 E8.05386
G1 X96.174 Y119.398 E8.08624
G1 X95.956 Y118.485 E8.11746
G1 X95.824 Y117.591 E8.14751
G1 X95.772 Y116.81 E8.17355
G1 X95.764 Y116.316 E8.18998
G1 X95.771 Y115.826 E8.20628
G1 X95.829 Y114.889 E8.2375
G1 X95.971 Y113.962 E8.2687
G1 X96.194 Y113.05 E8.29992
G1 X96.496 Y112.161 E8.33115
G1 X96.861 Y111.334 E8.36122
G1 X97.33 Y110.481 E8.39359
G1 X97.856 Y109.704 E8.4248
G1 X98.424 Y109.002 E8.45483
G1 X99.102 Y108.302 E8.48725
M204 S2000
G0 F7500 X99.363 Y108.605
M204 S500
G1 F1500 X100.047 Y108.015 E8.51729
G1 X100.779 Y107.487 E8.54731
G1 X101.556 Y107.026 E8.57736
G1 X102.37 Y106.636 E8.60738
G1 X103.216 Y106.319 E8.63743
G1 X104.086 Y106.078 E8.66745
G1 X104.975 Y105.915 E8.69752
G1 X106.167 Y105.821 E8.73729
G1 X107.326 Y105.8 E8.77584
G1 X112.933 Y105.8 E8.96233
G1 X113.769 Y105.811 E8.99014
G1 X114.671 Y105.864 E9.02019
G1 X115.564 Y105.997 E9.05022
G1 X116.442 Y106.208 E9.08025
G1 X117.298 Y106.496 E9.11029
G1 X118.125 Y106.858 E9.14032
G1 X118.917 Y107.293 E9.17037
G1 X119.667 Y107.795 E9.20039
G1 X120.37 Y108.362 E9.23043
G1 X121.02 Y108.989 E9.26047
G1 X121.612 Y109.671 E9.2905
G1 X122.142 Y110.403 E9.32056
G1 X122.604 Y111.179 E9.3506
G1 X122.996 Y111.992 E9.38062
G1 X123.315 Y112.837 E9.41066
G1 X123.558 Y113.707 E9.4407
G1 X123.722 Y114.595 E9.47074
G1 X123.818 Y115.761 E9.50965
G1 X123.829 Y116.211 E9.52462
G1 X123.828 Y116.75 E9.54255
G1 X123.766 Y117.651 E9.57259
G1 X123.625 Y118.543 E9.60262
G1 X123.405 Y119.419 E9.63266
G1 X123.108 Y120.272 E9.66271
G1 X122.738 Y121.095 E9.69272
G1 X122.216 Y122.009 E9.72773
G1 X122.025 Y122.3 E9.7393
G1 X121.671 Y122.797 E9.7596
G1 X121.106 Y123.501 E9.78962
G1 X120.481 Y124.153 E9.81966
G1 X119.801 Y124.747 E9.84969
G1 X119.166 Y125.22 E9.87603
G1 X118.411 Y125.716 E9.90607
G1 X117.616 Y126.143 E9.93609
G1 X116.544 Y126.586 E9.97467
G1 X115.999 Y126.765 E9.99375
G1 X115.447 Y126.926 E10.01287
G1 X114.444 Y127.162 E10.04714
G1 X113.844 Y127.275 E10.06745
G1 X113.1 Y127.385 E10.09246
G1 X112.296 Y127.463 E10.11933
G1 X111.568 Y127.511 E10.1436
G1 X110.841 Y127.539 E10.16779
G1 X110.109 Y127.55 E10.19214
G1 X109.003 Y127.535 E10.22893
G1 X108.377 Y127.508 E10.24977
G1 X107.796 Y127.471 E10.26914
G1 X107.145 Y127.412 E10.29088
G1 X106.549 Y127.338 E10.31085
G1 X106.111 Y127.267 E10.32561
G1 X105.602 Y127.171 E10.34284
G1 X104.823 Y126.994 E10.36941
G1 X104.274 Y126.846 E10.38832
G1 X103.565 Y126.622 E10.41305
G1 X102.759 Y126.315 E10.44174
G1 X101.946 Y125.922 E10.47177
G1 X101.462 Y125.643 E10.49035
G1 X101.177 Y125.463 E10.50156
G1 X100.709 Y125.142 E10.52044
G1 X99.997 Y124.588 E10.55044
G1 X99.336 Y123.972 E10.5805
G1 X98.732 Y123.301 E10.61052
G1 X98.392 Y122.863 E10.62896
G1 X98.148 Y122.531 E10.64267
G1 X97.646 Y121.781 E10.67269
G1 X97.212 Y120.989 E10.70272
G1 X96.85 Y120.161 E10.73278
G1 X96.563 Y119.305 E10.76281
G1 X96.352 Y118.427 E10.79284
G1 X96.22 Y117.533 E10.8229
G1 X96.172 Y116.803 E10.84723
G1 X96.164 Y116.321 E10.86327
G1 X96.17 Y115.85 E10.87893
G1 X96.225 Y114.949 E10.90895
G1 X96.36 Y114.056 E10.93899
G1 X96.573 Y113.178 E10.96904
G1 X96.862 Y112.323 E10.99906
G1 X97.227 Y111.496 E11.02913
G1 X97.662 Y110.705 E11.05915
G1 X98.167 Y109.956 E11.0892
G1 X98.735 Y109.254 E11.11923
G1 X99.363 Y108.605 E11.14927
M204 S2000
G1 F2400 E10.34927
;MESH:slide_connector.STL
G0 F7500 X109.112 Y115.335
G0 X110 Y116.669
M204 S500
;TYPE:WALL-OUTER
G1 F2400 E11.14927
G1 F1345.3 X109.378 Y116.669 E11.17234
G1 X109.044 Y116.59 E11.18506
G1 X108.743 Y116.469 E11.19709
G1 X108.759 Y116.223 E11.20624
G1 X111.337 Y116.223 E11.30184
G1 F1342.3 X111.337 Y116.402 E11.30849
G1 X111.27 Y116.464 E11.31189
G1 X110.953 Y116.59 E11.32457
G1 X110.618 Y116.669 E11.33736
G1 F1345.3 X110 Y116.669 E11.36028
M104 S200
M204 S2000
G1 F2400 E10.56028
;MESH:NONMESH
G0 F300 X110 Y116.669 Z0.4
G0 F7500 X110 Y116.46
G0 X109.112 Y116.413
G0 X109.112 Y115.335
G0 X99.363 Y108.605
;TIME_ELAPSED:19.229593
;LAYER:1
;note -- min layer time used
M106 S85
M204 S500
;TYPE:SKIRT
G1 F2400 E11.36028
G1 F600 X100.047 Y108.015 E11.39032
G1 X100.779 Y107.487 E11.42034
G1 X101.556 Y107.026 E11.45039
G1 X102.37 Y106.636 E11.48041
G1 X103.216 Y106.319 E11.51046
G1 X104.086 Y106.078 E11.54049
G1 X104.975 Y105.915 E11.57055
G1 X106.167 Y105.821 E11.61032
G1 X107.326 Y105.8 E11.64887
G1 X112.933 Y105.8 E11.83536
G1 X113.769 Y105.811 E11.86317
G1 X114.671 Y105.864 E11.89322
G1 X115.564 Y105.997 E11.92325
G1 X116.442 Y106.208 E11.95328
G1 X117.298 Y106.496 E11.98332
G1 X118.125 Y106.858 E12.01335
G1 X118.917 Y107.293 E12.0434
G1 X119.667 Y107.795 E12.07342
G1 X120.37 Y108.362 E12.10346
G1 X121.02 Y108.989 E12.1335
G1 X121.612 Y109.671 E12.16353
G1 X122.142 Y110.403 E12.19359
G1 X122.604 Y111.179 E12.22363
G1 X122.996 Y111.992 E12.25365
G1 X123.315 Y112.837 E12.28369
G1 X123.558 Y113.707 E12.31373
G1 X123.722 Y114.595 E12.34377
G1 X123.818 Y115.761 E12.38268
G1 X123.829 Y116.211 E12.39765
G1 X123.828 Y116.75 E12.41558
G1 X123.766 Y117.651 E12.44562
G1 X123.625 Y118.543 E12.47565
G1 X123.405 Y119.419 E12.5057
G1 X123.108 Y120.272 E12.53574
G1 X122.738 Y121.095 E12.56575
G1 X122.216 Y122.009 E12.60076
G1 X122.025 Y122.3 E12.61233
G1 X121.671 Y122.797 E12.63263
G1 X121.106 Y123.501 E12.66265
G1 X120.481 Y124.153 E12.69269
G1 X119.801 Y124.747 E12.72272
G1 X119.166 Y125.22 E12.74906
G1 X118.411 Y125.716 E12.7791
G1 X117.616 Y126.143 E12.80912
G1 X116.544 Y126.586 E12.8477
G1 X115.999 Y126.765 E12.86678
G1 X115.447 Y126.926 E12.8859
G1 X114.444 Y127.162 E12.92017
G1 X113.844 Y127.275 E12.94048
G1 X113.1 Y127.385 E12.96549
G1 X112.296 Y127.463 E12.99236
G1 X111.568 Y127.511 E13.01663
G1 X110.841 Y127.539 E13.04083
G1 X110.109 Y127.55 E13.06517
G1 X109.003 Y127.535 E13.10196
G1 X108.377 Y127.508 E13.1228
G1 X107.796 Y127.471 E13.14217
G1 X107.145 Y127.412 E13.16391
G1 X106.549 Y127.338 E13.18388
G1 X106.111 Y127.267 E13.19864
G1 X105.602 Y127.171 E13.21587
G1 X104.823 Y126.994 E13.24244
G1 X104.274 Y126.846 E13.26135
G1 X103.565 Y126.622 E13.28608
G1 X102.759 Y126.315 E13.31477
G1 X101.946 Y125.922 E13.3448
G1 X101.462 Y125.643 E13.36338
G1 X101.177 Y125.463 E13.37459
G1 X100.709 Y125.142 E13.39347
G1 X99.997 Y124.588 E13.42347
G1 X99.336 Y123.972 E13.45353
G1 X98.732 Y123.301 E13.48355
G1 X98.392 Y122.863 E13.502
G1 X98.148 Y122.531 E13.5157
G1 X97.646 Y121.781 E13.54572
G1 X97.212 Y120.989 E13.57575
G1 X96.85 Y120.161 E13.60581
G1 X96.563 Y119.305 E13.63584
G1 X96.352 Y118.427 E13.66587
G1 X96.22 Y117.533 E13.69593
G1 X96.172 Y116.803 E13.72026
G1 X96.164 Y116.321 E13.7363
G1 X96.17 Y115.85 E13.75196
G1 X96.225 Y114.949 E13.78199
G1 X96.36 Y114.056 E13.81202
G1 X96.573 Y113.178 E13.84207
G1 X96.862 Y112.323 E13.87209
