;FLAVOR:Marlin
;TIME:9066
;Filament used: 4.02383m
;Layer height: 0.2
;MINX:94.952
;MINY:82.648
;MINZ:0.2
;MAXX:125.214
;MAXY:127.163
;MAXZ:131
;TARGET_MACHINE.NAME:Creality Ender-3 S1 Pro
;Generated with Cura_SteamEngine 5.10.2
; Ender 3 S1 Pro Start G-code
; M413 S0 ; Disable power loss recovery
G92 E0 ; Reset Extruder

; Prep surfaces before auto home for better accuracy
M140 S60
M104 S200

G28 ; Home all axes
G1 Z10.0 F3000 ; Move Z Axis up little to prevent scratching of Heat Bed
G1 X0 Y0

M190 S60
M109 S200

G1 X0.1 Y20 Z0.3 F5000.0 ; Move to start position
G1 X0.1 Y200.0 Z0.3 F1500.0 E15 ; Draw the first line
G1 X0.4 Y200.0 Z0.3 F5000.0 ; Move to side a little
G1 X0.4 Y20 Z0.3 F1500.0 E30 ; Draw the second line
G92 E0 ; Reset Extruder
G1 Z2.0 F3000 ; Move Z Axis up little to prevent scratching of Heat Bed
G1 X5 Y20 Z0.3 F5000.0 ; Move over to prevent blob squish

M82 ;absolute extrusion mode
G92 E0
G92 E0
G1 F2400 E-0.8
;LAYER_COUNT:655
;LAYER:0
M107
M204 S2000
G0 F7500 X97.569 Y87.563 Z0.2
M204 S500
;TYPE:SKIRT
G1 F2400 E0
G1 F1500 X98.455 Y86.571 E0.04424
G1 X98.973 Y86.085 E0.06786
G1 X99.589 Y85.577 E0.09442
G1 X100.389 Y85.005 E0.12713
G1 X101.388 Y84.429 E0.16548
G1 X101.837 Y84.204 E0.18219
G1 X102.988 Y83.708 E0.22387
G1 X103.653 Y83.483 E0.24722
G1 X104.513 Y83.239 E0.27696
G1 X105.045 Y83.113 E0.29514
G1 X105.972 Y82.93 E0.32657
G1 X106.486 Y82.849 E0.34387
G1 X106.964 Y82.791 E0.35989
G1 X107.727 Y82.731 E0.38534
G1 X108.743 Y82.679 E0.41918
G1 X110.099 Y82.648 E0.46429
G1 X111.118 Y82.672 E0.49819
G1 X112.183 Y82.725 E0.53366
G1 X113.121 Y82.798 E0.56495
G1 X113.742 Y82.881 E0.58579
G1 X114.307 Y82.978 E0.60486
G1 X114.957 Y83.113 E0.62694
G1 X115.546 Y83.254 E0.64708
G1 X116.111 Y83.412 E0.66659
G1 X116.79 Y83.63 E0.69031
G1 X117.356 Y83.838 E0.71037
G1 X117.818 Y84.033 E0.72705
G1 X118.47 Y84.346 E0.7511
G1 X119.349 Y84.837 E0.78459
G1 X120.295 Y85.493 E0.82288
G1 X120.564 Y85.703 E0.83423
G1 X121.252 Y86.288 E0.86427
G1 X121.985 Y87.034 E0.89905
G1 X122.602 Y87.789 E0.93148
G1 X123.148 Y88.593 E0.96381
G1 X123.59 Y89.381 E0.99386
G1 X124.071 Y90.471 E1.03348
G1 X124.438 Y91.57 E1.07202
G1 X124.643 Y92.45 E1.10207
G1 X124.787 Y93.482 E1.13673
G1 X124.833 Y94.308 E1.16425
G1 X124.85 Y95.361 E1.19927
G1 X124.849 Y101.944 E1.41823
G1 X124.837 Y102.675 E1.44254
G1 X124.792 Y103.505 E1.47019
G1 X124.662 Y104.461 E1.50228
G1 X124.516 Y105.142 E1.52544
G1 X124.268 Y105.999 E1.55512
G1 X124.044 Y106.613 E1.57685
G1 X123.893 Y106.983 E1.59015
G1 X123.627 Y107.555 E1.61113
G1 X123.137 Y108.431 E1.64451
G1 X122.587 Y109.235 E1.67691
G1 X121.96 Y109.995 E1.70968
G1 X121.051 Y110.894 E1.7522
G1 X120.411 Y111.423 E1.77982
G1 X119.611 Y111.995 E1.81253
G1 X118.612 Y112.571 E1.85088
G1 X118.163 Y112.796 E1.86759
G1 X117.012 Y113.292 E1.90927
G1 X116.347 Y113.517 E1.93262
G1 X115.487 Y113.761 E1.96236
G1 X114.955 Y113.887 E1.98054
G1 X114.028 Y114.07 E2.01197
G1 X113.514 Y114.151 E2.02927
G1 X113.036 Y114.209 E2.04529
G1 X112.273 Y114.269 E2.07074
G1 X111.257 Y114.321 E2.10458
G1 X109.901 Y114.352 E2.14969
G1 X108.882 Y114.328 E2.18359
G1 X107.817 Y114.275 E2.21906
G1 X106.879 Y114.202 E2.25035
G1 X106.258 Y114.119 E2.27119
G1 X105.693 Y114.022 E2.29026
G1 X105.042 Y113.887 E2.31237
G1 X104.366 Y113.724 E2.3355
G1 X103.889 Y113.588 E2.352
G1 X103.21 Y113.37 E2.37572
G1 X102.644 Y113.162 E2.39577
G1 X102.182 Y112.967 E2.41245
G1 X101.53 Y112.654 E2.43651
G1 X100.651 Y112.163 E2.46999
G1 X99.705 Y111.507 E2.50828
G1 X99.436 Y111.297 E2.51963
G1 X98.748 Y110.712 E2.54967
G1 X98.015 Y109.966 E2.58445
G1 X97.398 Y109.211 E2.61688
G1 X96.852 Y108.407 E2.64921
G1 X96.41 Y107.619 E2.67926
G1 X95.905 Y106.469 E2.72103
G1 X95.575 Y105.475 E2.75587
G1 X95.341 Y104.451 E2.79081
G1 X95.211 Y103.492 E2.82299
G1 X95.166 Y102.686 E2.84984
G1 X95.151 Y101.781 E2.87995
G1 X95.15 Y95.196 E3.09897
G1 X95.163 Y94.314 E3.1283
G1 X95.222 Y93.351 E3.16039
G1 X95.318 Y92.656 E3.18373
G1 X95.514 Y91.742 E3.21482
G1 X95.75 Y90.945 E3.24247
G1 X95.956 Y90.386 E3.26228
G1 X96.113 Y90.006 E3.27596
G1 X96.538 Y89.131 E3.30831
G1 X97.039 Y88.295 E3.34073
G1 X97.569 Y87.563 E3.37078
M204 S2000
G0 F7500 X97.893 Y87.798
M204 S500
G1 F1500 X98.729 Y86.862 E3.41253
G1 X99.228 Y86.393 E3.4353
G1 X99.822 Y85.902 E3.46093
G1 X100.589 Y85.352 E3.49233
G1 X101.588 Y84.776 E3.53068
G1 X101.996 Y84.571 E3.54587
G1 X103.116 Y84.087 E3.58645
G1 X103.762 Y83.868 E3.60913
G1 X104.606 Y83.628 E3.63832
G1 X105.123 Y83.505 E3.65599
G1 X106.034 Y83.325 E3.68688
G1 X106.534 Y83.246 E3.70372
G1 X106.996 Y83.19 E3.7192
G1 X107.747 Y83.13 E3.74425
G1 X108.752 Y83.079 E3.77772
G1 X110.089 Y83.048 E3.8222
G1 X111.098 Y83.072 E3.85577
G1 X112.152 Y83.124 E3.89087
G1 X113.09 Y83.197 E3.92216
G1 X113.674 Y83.275 E3.94176
G1 X114.226 Y83.37 E3.96039
G1 X114.864 Y83.502 E3.98206
G1 X115.438 Y83.639 E4.00169
G1 X115.989 Y83.793 E4.02072
G1 X116.652 Y84.006 E4.04388
G1 X117.201 Y84.207 E4.06332
G1 X117.645 Y84.394 E4.07935
G1 X118.297 Y84.707 E4.1034
G1 X119.121 Y85.166 E4.13477
G1 X120.067 Y85.822 E4.17306
G1 X120.305 Y86.008 E4.18311
G1 X120.993 Y86.593 E4.21314
G1 X121.676 Y87.288 E4.24555
G1 X122.271 Y88.014 E4.27677
G1 X122.799 Y88.789 E4.30796
G1 X123.241 Y89.577 E4.33802
G1 X123.705 Y90.632 E4.37635
G1 X124.048 Y91.661 E4.41242
G1 X124.253 Y92.541 E4.44248
G1 X124.388 Y93.504 E4.47482
G1 X124.433 Y94.315 E4.50184
G1 X124.45 Y95.361 E4.53663
G1 X124.449 Y101.938 E4.75538
G1 X124.438 Y102.654 E4.7792
G1 X124.396 Y103.451 E4.80574
G1 X124.271 Y104.377 E4.83682
G1 X124.125 Y105.058 E4.85999
G1 X123.892 Y105.862 E4.88783
G1 X123.674 Y106.462 E4.90906
G1 X123.53 Y106.814 E4.92171
G1 X123.264 Y107.386 E4.94269
G1 X122.806 Y108.206 E4.97393
G1 X122.278 Y108.981 E5.00512
G1 X121.678 Y109.711 E5.03655
G1 X120.796 Y110.586 E5.07787
G1 X120.178 Y111.098 E5.10456
G1 X119.411 Y111.648 E5.13596
G1 X118.412 Y112.224 E5.17431
G1 X118.004 Y112.429 E5.1895
G1 X116.884 Y112.913 E5.23008
G1 X116.238 Y113.132 E5.25276
G1 X115.394 Y113.372 E5.28195
G1 X114.877 Y113.495 E5.29962
G1 X113.966 Y113.675 E5.33051
G1 X113.466 Y113.754 E5.34735
G1 X113.004 Y113.81 E5.36283
G1 X112.253 Y113.87 E5.38788
G1 X111.248 Y113.921 E5.42135
G1 X109.911 Y113.952 E5.46583
G1 X108.902 Y113.928 E5.4994
G1 X107.848 Y113.876 E5.5345
G1 X106.91 Y113.803 E5.56579
G1 X106.326 Y113.725 E5.58539
G1 X105.774 Y113.63 E5.60402
G1 X105.136 Y113.498 E5.62569
G1 X104.475 Y113.339 E5.6483
G1 X104.011 Y113.207 E5.66435
G1 X103.348 Y112.994 E5.68751
G1 X102.799 Y112.793 E5.70695
G1 X102.355 Y112.606 E5.72298
G1 X101.703 Y112.293 E5.74703
G1 X100.879 Y111.834 E5.7784
G1 X99.933 Y111.178 E5.81669
G1 X99.695 Y110.992 E5.82674
G1 X99.007 Y110.407 E5.85678
G1 X98.324 Y109.712 E5.88919
G1 X97.729 Y108.986 E5.92041
G1 X97.201 Y108.211 E5.9516
G1 X96.759 Y107.423 E5.98165
G1 X96.285 Y106.343 E6.02087
G1 X95.955 Y105.349 E6.05571
G1 X95.737 Y104.397 E6.08819
G1 X95.61 Y103.47 E6.11931
G1 X95.566 Y102.679 E6.14566
G1 X95.551 Y101.781 E6.17553
G1 X95.55 Y95.202 E6.39435
G1 X95.562 Y94.338 E6.42309
G1 X95.618 Y93.405 E6.45418
G1 X95.709 Y92.74 E6.4765
G1 X95.905 Y91.826 E6.50759
G1 X96.126 Y91.083 E6.53338
G1 X96.326 Y90.538 E6.55269
G1 X96.473 Y90.18 E6.56556
G1 X96.881 Y89.336 E6.59674
G1 X97.363 Y88.53 E6.62797
G1 X97.893 Y87.798 E6.65803
M204 S2000
G0 F7500 X98.217 Y88.033
M204 S500
G1 F1500 X99.003 Y87.153 E6.69727
G1 X99.483 Y86.701 E6.7192
G1 X100.056 Y86.227 E6.74394
G1 X100.789 Y85.699 E6.77398
G1 X101.788 Y85.123 E6.81234
G1 X102.155 Y84.938 E6.82601
G1 X103.244 Y84.466 E6.86548
G1 X103.872 Y84.253 E6.88754
G1 X104.699 Y84.017 E6.91614
G1 X105.201 Y83.897 E6.93331
G1 X106.097 Y83.72 E6.96369
G1 X106.582 Y83.643 E6.98002
G1 X107.028 Y83.589 E6.99496
G1 X107.767 Y83.529 E7.01962
G1 X108.761 Y83.479 E7.05273
G1 X110.079 Y83.448 E7.09657
G1 X111.078 Y83.472 E7.12981
G1 X112.121 Y83.523 E7.16454
G1 X113.059 Y83.596 E7.19584
G1 X113.606 Y83.669 E7.21419
G1 X114.145 Y83.762 E7.23238
G1 X114.771 Y83.891 E7.25364
G1 X115.33 Y84.024 E7.27275
G1 X115.867 Y84.174 E7.2913
G1 X116.515 Y84.382 E7.31393
G1 X117.046 Y84.576 E7.33273
G1 X117.472 Y84.755 E7.3481
G1 X118.103 Y85.057 E7.37137
G1 X118.893 Y85.495 E7.40141
G1 X119.821 Y86.138 E7.43896
G1 X120.046 Y86.313 E7.44845
G1 X120.734 Y86.898 E7.47848
G1 X121.367 Y87.542 E7.50852
G1 X121.941 Y88.24 E7.53857
G1 X122.45 Y88.985 E7.56858
G1 X122.892 Y89.773 E7.59863
G1 X123.326 Y90.759 E7.63447
G1 X123.658 Y91.752 E7.66929
G1 X123.863 Y92.632 E7.69934
G1 X123.989 Y93.526 E7.72937
G1 X124.033 Y94.322 E7.75589
G1 X124.05 Y95.361 E7.79045
G1 X124.049 Y101.932 E8.009
G1 X124.039 Y102.634 E8.03235
G1 X124 Y103.398 E8.05779
G1 X123.88 Y104.293 E8.08783
G1 X123.734 Y104.974 E8.11099
G1 X123.516 Y105.726 E8.13704
G1 X123.304 Y106.311 E8.15773
G1 X123.167 Y106.646 E8.16977
G1 X122.914 Y107.192 E8.18978
G1 X122.475 Y107.981 E8.21981
G1 X121.968 Y108.728 E8.24984
G1 X121.396 Y109.427 E8.27988
G1 X120.54 Y110.278 E8.32003
G1 X119.944 Y110.773 E8.3458
G1 X119.211 Y111.301 E8.37584
G1 X118.212 Y111.877 E8.4142
G1 X117.845 Y112.062 E8.42787
G1 X116.756 Y112.534 E8.46734
G1 X116.128 Y112.747 E8.4894
G1 X115.301 Y112.983 E8.518
G1 X114.799 Y113.103 E8.53517
G1 X113.903 Y113.28 E8.56555
G1 X113.418 Y113.357 E8.58188
G1 X112.972 Y113.411 E8.59682
G1 X112.233 Y113.471 E8.62148
G1 X111.239 Y113.521 E8.65459
G1 X109.921 Y113.552 E8.69843
G1 X108.922 Y113.528 E8.73167
G1 X107.879 Y113.477 E8.7664
G1 X106.941 Y113.404 E8.7977
G1 X106.394 Y113.331 E8.81605
G1 X105.855 Y113.238 E8.83424
G1 X105.229 Y113.109 E8.8555
G1 X104.584 Y112.954 E8.87756
G1 X104.133 Y112.826 E8.89316
G1 X103.485 Y112.618 E8.91579
G1 X102.954 Y112.424 E8.9346
G1 X102.528 Y112.245 E8.94996
G1 X101.897 Y111.943 E8.97323
G1 X101.107 Y111.505 E9.00327
G1 X100.179 Y110.862 E9.04083
G1 X99.954 Y110.687 E9.05031
G1 X99.266 Y110.102 E9.08034
G1 X98.633 Y109.458 E9.11038
G1 X98.059 Y108.76 E9.14043
G1 X97.55 Y108.015 E9.17044
G1 X97.108 Y107.227 E9.20049
G1 X96.665 Y106.217 E9.23718
G1 X96.335 Y105.223 E9.27201
G1 X96.133 Y104.342 E9.30207
G1 X96.009 Y103.448 E9.33209
G1 X95.966 Y102.672 E9.35794
G1 X95.951 Y101.781 E9.38758
G1 X95.95 Y95.207 E9.60623
G1 X95.961 Y94.361 E9.63437
G1 X96.014 Y93.459 E9.66443
G1 X96.1 Y92.823 E9.68577
G1 X96.288 Y91.94 E9.7158
G1 X96.502 Y91.22 E9.74078
G1 X96.696 Y90.689 E9.75959
G1 X96.833 Y90.354 E9.77162
G1 X97.225 Y89.541 E9.80164
G1 X97.687 Y88.765 E9.83168
G1 X98.217 Y88.033 E9.86174
M204 S2000
G1 F2400 E9.06174
;MESH:support_bell.STL
G0 F7500 X108.188 Y93.881
G0 X110 Y102.324
M204 S500
;TYPE:WALL-INNER
G1 F2400 E9.86174
G1 F1500 X110.648 Y102.22 E9.88357
G1 X110.912 Y102.147 E9.89268
G1 X110.912 Y94.851 E10.13534
G1 X110.646 Y94.78 E10.1445
G1 X110 Y94.676 E10.16626
G1 X109.349 Y94.78 E10.18819
G1 X109.087 Y94.849 E10.1972
G1 X109.085 Y102.147 E10.43993
G1 X109.351 Y102.22 E10.44911
G1 X110 Y102.324 E10.47097
M204 S2000
G0 F7500 X110 Y102.729
M204 S500
;TYPE:WALL-OUTER
G1 F1500 X110.733 Y102.612 E10.49566
G1 X111.231 Y102.475 E10.51284
G1 X111.312 Y102.404 E10.51642
G1 X111.312 Y94.589 E10.77635
G1 X111.233 Y94.522 E10.77979
G1 X110.73 Y94.388 E10.79711
G1 X110 Y94.271 E10.82169
G1 X109.266 Y94.388 E10.84642
G1 X108.766 Y94.521 E10.86362
G1 X108.688 Y94.59 E10.86709
G1 X108.684 Y102.407 E11.12708
G1 X108.764 Y102.474 E11.13055
G1 X109.267 Y102.612 E11.1479
G1 X110 Y102.729 E11.17259
M204 S2000
G0 F7500 X110 Y101.957
M204 S500
;TYPE:SKIN
G1 F1500 X109.446 Y101.869 E11.19125
G1 X109.444 Y95.13 E11.41539
G1 X109.999 Y95.039 E11.43409
G1 X110.552 Y95.13 E11.45273
G1 X110.552 Y101.869 E11.67687
G1 X110 Y101.957 E11.69546
M204 S2000
G0 F7500 X109.646 Y101.161
M204 S500
G1 F1500 X110.206 Y101.721 E11.72181
M204 S2000
G0 F7500 X110.352 Y101.301
M204 S500
G1 F1500 X109.646 Y100.595 E11.75501
M204 S2000
G0 F7500 X109.645 Y100.029
M204 S500
G1 F1500 X110.352 Y100.735 E11.78824
M204 S2000
G0 F7500 X110.352 Y100.169
M204 S500
G1 F1500 X109.645 Y99.463 E11.82148
M204 S2000
G0 F7500 X109.645 Y98.897
M204 S500
G1 F1500 X110.352 Y99.604 E11.85473
M204 S2000
G0 F7500 X110.352 Y99.038
M204 S500
G1 F1500 X109.645 Y98.331 E11.88799
M204 S2000
G0 F7500 X109.645 Y97.765
M204 S500
G1 F1500 X110.352 Y98.472 E11.92124
M204 S2000
G0 F7500 X110.352 Y97.907
M204 S500
G1 F1500 X109.645 Y97.2 E11.9545
M204 S2000
G0 F7500 X109.644 Y96.633
M204 S500
G1 F1500 X110.352 Y97.341 E11.9878
M204 S2000
G0 F7500 X110.352 Y96.775
M204 S500
G1 F1500 X109.644 Y96.068 E12.02108
M204 S2000
G0 F7500 X109.644 Y95.502
M204 S500
G1 F1500 X110.352 Y96.21 E12.05438
M204 S2000
G0 F7500 X110.352 Y95.644
M204 S500
G1 F1500 X109.957 Y95.249 E12.07296
M104 S200
M204 S2000
G1 F2400 E11.27296
;MESH:NONMESH
G0 F300 X109.957 Y95.249 Z0.4
G0 F7500 X109.885 Y94.797
G0 X108.913 Y94.719
G0 X108.188 Y93.881
G0 X98.217 Y88.033
;TIME_ELAPSED:21.434510
;LAYER:1
;note -- min layer time used
M106 S85
M204 S500
;TYPE:SKIRT
G1 F2400 E12.07296
G1 F1445.7 X99.003 Y87.153 E12.1122
G1 X99.483 Y86.701 E12.13413
G1 X100.056 Y86.227 E12.15887
G1 X100.789 Y85.699 E12.18891
G1 X101.788 Y85.123 E12.22727
G1 X102.155 Y84.938 E12.24094
G1 X103.244 Y84.466 E12.28041
G1 X103.872 Y84.253 E12.30247
G1 X104.699 Y84.017 E12.33107
G1 X105.201 Y83.897 E12.34824
G1 X106.097 Y83.72 E12.37862
G1 X106.582 Y83.643 E12.39495
G1 X107.028 Y83.589 E12.40989
G1 X107.767 Y83.529 E12.43455
G1 X108.761 Y83.479 E12.46765
G1 X110.079 Y83.448 E12.5115
G1 X111.078 Y83.472 E12.54474
G1 X112.121 Y83.523 E12.57947
G1 X113.059 Y83.596 E12.61076
G1 X113.606 Y83.669 E12.62912
G1 X114.145 Y83.762 E12.64731
G1 X114.771 Y83.891 E12.66857
G1 X115.33 Y84.024 E12.68768
G1 X115.867 Y84.174 E12.70623
G1 X116.515 Y84.382 E12.72886
G1 X117.046 Y84.576 E12.74766
G1 X117.472 Y84.755 E12.76303
G1 X118.103 Y85.057 E12.7863
G1 X118.893 Y85.495 E12.81634
G1 X119.821 Y86.138 E12.85389
G1 X120.046 Y86.313 E12.86337
G1 X120.734 Y86.898 E12.89341
G1 X121.367 Y87.542 E12.92345
G1 X121.941 Y88.24 E12.9535
G1 X122.45 Y88.985 E12.98351
G1 X122.892 Y89.773 E13.01356
G1 X123.326 Y90.759 E13.04939
G1 X123.658 Y91.752 E13.08422
G1 X123.863 Y92.632 E13.11427
G1 X123.989 Y93.526 E13.1443
G1 X124.033 Y94.322 E13.17081
G1 X124.05 Y95.361 E13.20538
G1 X124.049 Y101.932 E13.42393
G1 X124.039 Y102.634 E13.44728
G1 X124 Y103.398 E13.47272
G1 X123.88 Y104.293 E13.50276
G1 X123.734 Y104.974 E13.52592
G1 X123.516 Y105.726 E13.55196
G1 X123.304 Y106.311 E13.57266
G1 X123.167 Y106.646 E13.5847
G1 X122.914 Y107.192 E13.60471
G1 X122.475 Y107.981 E13.63474
G1 X121.968 Y108.728 E13.66477
G1 X121.396 Y109.427 E13.69481
G1 X120.54 Y110.278 E13.73496
G1 X119.944 Y110.773 E13.76073
G1 X119.211 Y111.301 E13.79077
G1 X118.212 Y111.877 E13.82913
G1 X117.845 Y112.062 E13.8428
G1 X116.756 Y112.534 E13.88227
G1 X116.128 Y112.747 E13.90433
G1 X115.301 Y112.983 E13.93293
G1 X114.799 Y113.103 E13.9501
G1 X113.903 Y113.28 E13.98048
G1 X113.418 Y113.357 E13.99681
G1 X112.972 Y113.411 E14.01175
G1 X112.233 Y113.471 E14.03641
G1 X111.239 Y113.521 E14.06951
G1 X109.921 Y113.552 E14.11336
G1 X108.922 Y113.528 E14.1466
G1 X107.879 Y113.477 E14.18133
G1 X106.941 Y113.404 E14.21262
G1 X106.394 Y113.331 E14.23098
G1 X105.855 Y113.238 E14.24917
G1 X105.229 Y113.109 E14.27043
G1 X104.584 Y112.954 E14.29249
G1 X104.133 Y112.826 E14.30809
G1 X103.485 Y112.618 E14.33072
G1 X102.954 Y112.424 E14.34952
G1 X102.528 Y112.245 E14.36489
G1 X101.897 Y111.943 E14.38816
G1 X101.107 Y111.505 E14.4182
G1 X100.179 Y110.862 E14.45575
G1 X99.954 Y110.687 E14.46523
G1 X99.266 Y110.102 E14.49527
G1 X98.633 Y109.458 E14.52531
