;FLAVOR:Marlin
;TIME:6123
;Filament used: 2.04511m
;Layer height: 0.2
;MINX:95.496
;MINY:94.716
;MINZ:0.2
;MAXX:124.504
;MAXY:125.283
;MAXZ:105.8
;TARGET_MACHINE.NAME:Creality Ender-3 S1 Pro
;Generated with Cura_SteamEngine 5.10.2
; Ender 3 S1 Pro Start G-code
; M413 S0 ; Disable power loss recovery
G92 E0 ; Reset Extruder

; Prep surfaces before auto home for better accuracy
M140 S60
M104 S200

G28 ; Home all axes
G1 Z10.0 F3000 ; Move Z Axis up little to prevent scratching of Heat Bed
G1 X0 Y0

M190 S60
M109 S200

G1 X0.1 Y20 Z0.3 F5000.0 ; Move to start position
G1 X0.1 Y200.0 Z0.3 F1500.0 E15 ; Draw the first line
G1 X0.4 Y200.0 Z0.3 F5000.0 ; Move to side a little
G1 X0.4 Y20 Z0.3 F1500.0 E30 ; Draw the second line
G92 E0 ; Reset Extruder
G1 Z2.0 F3000 ; Move Z Axis up little to prevent scratching of Heat Bed
G1 X5 Y20 Z0.3 F5000.0 ; Move over to prevent blob squish

M82 ;absolute extrusion mode
G92 E0
G92 E0
G1 F2400 E-0.8
;LAYER_COUNT:529
;LAYER:0
M107
M204 S2000
G0 F7500 X98.794 Y98.866 Z0.2
M204 S500
;TYPE:SKIRT
G1 F2400 E0
G1 F1500 X99.521 Y98.164 E0.03361
G1 X100.28 Y97.553 E0.06602
G1 X101.06 Y97.03 E0.09726
G1 X102.038 Y96.496 E0.13432
G1 X103.004 Y96.047 E0.16975
G1 X103.637 Y95.79 E0.19247
G1 X104.424 Y95.519 E0.22015
G1 X105.248 Y95.272 E0.24877
G1 X105.739 Y95.14 E0.26568
G1 X106.686 Y94.95 E0.2978
G1 X107.404 Y94.863 E0.32186
G1 X108.344 Y94.78 E0.35324
G1 X109.342 Y94.718 E0.3865
G1 X110.542 Y94.716 E0.42641
G1 X111.84 Y94.795 E0.46966
G1 X112.616 Y94.862 E0.49557
G1 X113.511 Y94.981 E0.5256
G1 X114.742 Y95.27 E0.56766
G1 X115.234 Y95.416 E0.58473
G1 X115.955 Y95.648 E0.60992
G1 X116.439 Y95.818 E0.62698
G1 X117.051 Y96.067 E0.64895
G1 X117.946 Y96.485 E0.68181
G1 X118.823 Y96.956 E0.71492
G1 X119.608 Y97.471 E0.74614
G1 X120.4 Y98.097 E0.77972
G1 X121.11 Y98.77 E0.81226
G1 X121.793 Y99.55 E0.84674
G1 X122.257 Y100.148 E0.87192
G1 X122.814 Y100.98 E0.90522
G1 X123.266 Y101.802 E0.93642
G1 X123.673 Y102.733 E0.97021
G1 X124.019 Y103.789 E1.00717
G1 X124.115 Y104.146 E1.01947
G1 X124.326 Y105.096 E1.05184
G1 X124.452 Y106.047 E1.08374
G1 X124.488 Y106.626 E1.10304
G1 X124.504 Y107.571 E1.13447
G1 X124.502 Y112.456 E1.29695
G1 X124.49 Y113.183 E1.32113
G1 X124.444 Y114.019 E1.34898
G1 X124.245 Y115.324 E1.39289
G1 X124.036 Y116.178 E1.42213
G1 X123.721 Y117.158 E1.45637
G1 X123.37 Y117.991 E1.48643
G1 X122.887 Y118.904 E1.52079
G1 X122.558 Y119.427 E1.54134
G1 X122.289 Y119.813 E1.55698
G1 X121.823 Y120.42 E1.58244
G1 X121.209 Y121.13 E1.61366
G1 X120.483 Y121.833 E1.64727
G1 X119.726 Y122.444 E1.67962
G1 X118.978 Y122.949 E1.70964
G1 X117.961 Y123.504 E1.74818
G1 X117.013 Y123.946 E1.78297
G1 X116.266 Y124.245 E1.80973
G1 X115.576 Y124.481 E1.83398
G1 X114.752 Y124.728 E1.86259
G1 X114.261 Y124.86 E1.8795
G1 X113.314 Y125.05 E1.91163
G1 X112.596 Y125.137 E1.93569
G1 X111.656 Y125.22 E1.96707
G1 X110.657 Y125.282 E2.00036
G1 X109.432 Y125.283 E2.04111
G1 X108.16 Y125.205 E2.08349
G1 X107.384 Y125.138 E2.1094
G1 X106.489 Y125.019 E2.13943
G1 X105.251 Y124.728 E2.18173
G1 X104.031 Y124.348 E2.22423
G1 X103.443 Y124.136 E2.24502
G1 X102.958 Y123.937 E2.26245
G1 X102.046 Y123.512 E2.29592
G1 X101.17 Y123.039 E2.32903
G1 X100.356 Y122.504 E2.36143
G1 X99.593 Y121.898 E2.39383
G1 X98.937 Y121.278 E2.42386
G1 X98.174 Y120.407 E2.46237
G1 X97.804 Y119.933 E2.48237
G1 X97.227 Y119.086 E2.51646
G1 X96.753 Y118.234 E2.54888
G1 X96.353 Y117.335 E2.58161
G1 X95.987 Y116.233 E2.62023
G1 X95.885 Y115.854 E2.63329
G1 X95.674 Y114.904 E2.66565
G1 X95.548 Y113.953 E2.69756
G1 X95.512 Y113.368 E2.71705
G1 X95.496 Y112.429 E2.74829
G1 X95.498 Y107.539 E2.91093
G1 X95.51 Y106.81 E2.93518
G1 X95.571 Y105.83 E2.96784
G1 X95.752 Y104.699 E3.00594
G1 X95.95 Y103.876 E3.03409
G1 X96.241 Y102.946 E3.0665
G1 X96.598 Y102.079 E3.09769
G1 X96.755 Y101.753 E3.10972
G1 X97.05 Y101.203 E3.13048
G1 X97.234 Y100.896 E3.14238
G1 X97.597 Y100.346 E3.1643
G1 X98.163 Y99.596 E3.19555
G1 X98.794 Y98.866 E3.22765
M204 S2000
G0 F7500 X99.097 Y99.128
M204 S500
G1 F1500 X99.772 Y98.475 E3.25888
G1 X100.503 Y97.885 E3.29013
G1 X101.252 Y97.381 E3.32015
G1 X102.207 Y96.859 E3.35635
G1 X103.173 Y96.41 E3.39178
G1 X103.767 Y96.168 E3.41312
G1 X104.539 Y95.902 E3.44027
G1 X105.353 Y95.658 E3.46854
G1 X105.818 Y95.532 E3.48456
G1 X106.734 Y95.347 E3.51564
G1 X107.439 Y95.261 E3.53927
G1 X108.369 Y95.179 E3.57032
G1 X109.343 Y95.118 E3.60278
G1 X110.543 Y95.116 E3.64269
G1 X111.805 Y95.193 E3.68474
G1 X112.563 Y95.259 E3.71005
G1 X113.458 Y95.378 E3.74008
G1 X114.628 Y95.653 E3.78005
G1 X115.112 Y95.797 E3.79685
G1 X115.823 Y96.025 E3.82168
G1 X116.288 Y96.188 E3.83807
G1 X116.882 Y96.43 E3.8594
G1 X117.757 Y96.838 E3.89151
G1 X118.604 Y97.291 E3.92346
G1 X119.36 Y97.785 E3.9535
G1 X120.125 Y98.388 E3.9859
G1 X120.809 Y99.034 E4.01719
G1 X121.492 Y99.814 E4.05167
G1 X121.941 Y100.393 E4.07604
G1 X122.463 Y101.173 E4.10726
G1 X122.915 Y101.995 E4.13846
G1 X123.293 Y102.858 E4.16979
G1 X123.633 Y103.893 E4.20603
G1 X123.725 Y104.233 E4.21774
G1 X123.93 Y105.149 E4.24896
G1 X124.053 Y106.072 E4.27993
G1 X124.088 Y106.633 E4.29863
G1 X124.104 Y107.571 E4.32983
G1 X124.102 Y112.45 E4.49211
G1 X124.091 Y113.162 E4.51579
G1 X124.049 Y113.959 E4.54234
G1 X123.856 Y115.229 E4.58506
G1 X123.647 Y116.083 E4.61431
G1 X123.352 Y117.003 E4.64644
G1 X123.001 Y117.836 E4.6765
G1 X122.548 Y118.691 E4.70869
G1 X122.229 Y119.199 E4.72864
G1 X121.972 Y119.569 E4.74362
G1 X121.52 Y120.158 E4.76832
G1 X120.906 Y120.868 E4.79954
G1 X120.231 Y121.522 E4.8308
G1 X119.502 Y122.112 E4.86199
G1 X118.754 Y122.617 E4.89201
G1 X117.792 Y123.141 E4.92844
G1 X116.844 Y123.583 E4.96323
G1 X116.136 Y123.867 E4.9886
G1 X115.461 Y124.098 E5.01233
G1 X114.647 Y124.342 E5.04059
G1 X114.182 Y124.468 E5.05662
G1 X113.266 Y124.653 E5.0877
G1 X112.561 Y124.739 E5.11132
G1 X111.631 Y124.821 E5.14237
G1 X110.657 Y124.882 E5.17483
G1 X109.432 Y124.883 E5.21558
G1 X108.195 Y124.807 E5.2568
G1 X107.437 Y124.741 E5.2821
G1 X106.542 Y124.622 E5.31213
G1 X105.37 Y124.346 E5.35218
G1 X104.167 Y123.972 E5.39408
G1 X103.595 Y123.766 E5.4143
G1 X103.127 Y123.574 E5.43113
G1 X102.215 Y123.149 E5.46459
G1 X101.389 Y122.705 E5.49578
G1 X100.604 Y122.19 E5.52701
G1 X99.868 Y121.607 E5.55824
G1 X99.212 Y120.987 E5.58826
G1 X98.489 Y120.161 E5.62477
G1 X98.119 Y119.687 E5.64477
G1 X97.576 Y118.891 E5.67682
G1 X97.118 Y118.071 E5.70806
G1 X96.733 Y117.209 E5.73946
G1 X96.367 Y116.107 E5.77808
G1 X96.275 Y115.767 E5.78979
G1 X96.07 Y114.851 E5.82101
G1 X95.947 Y113.928 E5.85198
G1 X95.912 Y113.361 E5.87088
G1 X95.896 Y112.429 E5.90188
G1 X95.898 Y107.545 E6.06432
G1 X95.909 Y106.834 E6.08797
G1 X95.966 Y105.893 E6.11933
G1 X96.141 Y104.792 E6.15641
G1 X96.332 Y103.995 E6.18367
G1 X96.611 Y103.098 E6.21491
G1 X96.968 Y102.231 E6.2461
G1 X97.107 Y101.942 E6.25676
G1 X97.394 Y101.408 E6.27693
G1 X97.568 Y101.116 E6.28823
G1 X97.917 Y100.587 E6.30931
G1 X98.466 Y99.858 E6.33966
G1 X99.097 Y99.128 E6.37176
M204 S2000
G0 F7500 X99.376 Y99.415
M204 S500
G1 F1500 X100.024 Y98.786 E6.40179
G1 X100.726 Y98.217 E6.43185
G1 X101.475 Y97.713 E6.46188
G1 X102.376 Y97.222 E6.496
G1 X103.342 Y96.773 E6.53143
G1 X103.898 Y96.546 E6.55141
G1 X104.654 Y96.285 E6.57801
G1 X105.458 Y96.044 E6.60593
G1 X105.898 Y95.924 E6.6211
G1 X106.783 Y95.744 E6.65113
G1 X107.474 Y95.659 E6.67429
G1 X108.394 Y95.578 E6.70501
G1 X109.344 Y95.518 E6.73667
G1 X110.544 Y95.516 E6.77658
G1 X111.77 Y95.591 E6.81743
G1 X112.51 Y95.656 E6.84214
G1 X113.405 Y95.775 E6.87217
G1 X114.514 Y96.037 E6.91007
G1 X114.99 Y96.178 E6.92658
G1 X115.691 Y96.403 E6.95107
G1 X116.137 Y96.559 E6.96678
G1 X116.713 Y96.793 E6.98746
G1 X117.588 Y97.201 E7.01957
G1 X118.385 Y97.626 E7.04962
G1 X119.141 Y98.12 E7.07965
G1 X119.851 Y98.679 E7.10971
G1 X120.508 Y99.298 E7.13973
G1 X121.191 Y100.078 E7.17421
G1 X121.609 Y100.616 E7.19687
G1 X122.113 Y101.366 E7.22693
G1 X122.549 Y102.156 E7.25694
G1 X122.913 Y102.983 E7.28699
G1 X123.247 Y103.998 E7.32253
G1 X123.335 Y104.321 E7.33367
G1 X123.534 Y105.202 E7.36371
G1 X123.654 Y106.097 E7.39374
G1 X123.688 Y106.64 E7.41184
G1 X123.704 Y107.571 E7.44281
G1 X123.702 Y112.444 E7.60488
G1 X123.692 Y113.141 E7.62807
G1 X123.653 Y113.899 E7.65331
G1 X123.467 Y115.134 E7.69485
G1 X123.258 Y115.988 E7.72409
G1 X122.983 Y116.848 E7.75413
G1 X122.632 Y117.681 E7.78419
G1 X122.209 Y118.479 E7.81423
G1 X121.901 Y118.971 E7.83354
G1 X121.654 Y119.326 E7.84792
G1 X121.217 Y119.897 E7.87184
G1 X120.627 Y120.581 E7.90188
G1 X119.979 Y121.211 E7.93194
G1 X119.278 Y121.78 E7.96197
G1 X118.53 Y122.285 E7.99199
G1 X117.623 Y122.778 E8.02632
G1 X116.675 Y123.22 E8.06111
G1 X116.007 Y123.489 E8.08506
G1 X115.346 Y123.715 E8.1083
G1 X114.542 Y123.956 E8.13621
G1 X114.102 Y124.076 E8.15138
G1 X113.217 Y124.256 E8.18142
G1 X112.526 Y124.341 E8.20458
G1 X111.606 Y124.422 E8.23529
G1 X110.656 Y124.482 E8.26695
G1 X109.456 Y124.484 E8.30687
G1 X108.23 Y124.409 E8.34772
G1 X107.49 Y124.344 E8.37243
G1 X106.595 Y124.225 E8.40246
G1 X105.486 Y123.963 E8.44036
G1 X104.747 Y123.74 E8.46603
G1 X104.302 Y123.595 E8.4816
G1 X103.747 Y123.396 E8.50121
G1 X103.296 Y123.211 E8.51742
G1 X102.404 Y122.796 E8.55014
G1 X101.608 Y122.37 E8.58017
G1 X100.852 Y121.876 E8.61021
G1 X100.143 Y121.316 E8.64026
G1 X99.487 Y120.696 E8.67028
G1 X98.804 Y119.915 E8.70479
G1 X98.434 Y119.441 E8.72479
G1 X97.925 Y118.695 E8.75482
G1 X97.483 Y117.907 E8.78488
G1 X97.113 Y117.083 E8.81492
G1 X96.753 Y116.002 E8.85281
G1 X96.665 Y115.679 E8.86395
G1 X96.466 Y114.798 E8.89399
G1 X96.346 Y113.903 E8.92402
G1 X96.312 Y113.354 E8.94232
G1 X96.296 Y112.429 E8.97309
G1 X96.298 Y107.551 E9.13533
G1 X96.308 Y106.857 E9.15842
G1 X96.361 Y105.955 E9.18847
G1 X96.53 Y104.885 E9.2245
G1 X96.714 Y104.113 E9.25089
G1 X96.981 Y103.25 E9.28094
G1 X97.323 Y102.415 E9.31095
G1 X97.468 Y102.135 E9.32144
G1 X97.46 Y102.131 E9.32174
G1 X97.738 Y101.612 E9.34132
G1 X97.902 Y101.336 E9.352
G1 X98.237 Y100.828 E9.37224
G1 X98.786 Y100.099 E9.40259
G1 X99.376 Y99.415 E9.43263
M204 S2000
G1 F2400 E8.63263
;MESH:support_slide_bar.STL
G0 F7500 X107.951 Y106.496
G0 X109.999 Y112.999
M204 S500
;TYPE:WALL-INNER
G1 F2400 E9.43263
G1 F1500 X110.992 Y112.739 E9.46677
G1 X110.992 Y107.259 E9.64904
G1 X109.999 Y106.997 E9.6832
G1 X109.004 Y107.261 E9.71744
G1 X109.004 Y112.74 E9.89967
G1 X109.999 Y112.999 E9.93386
M204 S2000
G0 F7500 X109.999 Y113.413
M204 S500
;TYPE:WALL-OUTER
G1 F1500 X111.289 Y113.076 E9.97821
G1 X111.392 Y112.934 E9.98404
G1 X111.392 Y107.065 E10.17925
G1 X111.325 Y106.974 E10.18301
G1 X111.092 Y106.872 E10.19147
G1 X109.999 Y106.583 E10.22907
G1 X108.705 Y106.926 E10.27359
G1 X108.604 Y107.063 E10.27925
G1 X108.604 Y112.935 E10.47456
G1 X108.668 Y113.023 E10.47818
G1 X108.909 Y113.129 E10.48693
G1 X109.999 Y113.413 E10.5244
M204 S2000
G0 F7500 X110 Y112.624
M204 S500
;TYPE:SKIN
G1 F1500 X109.995 Y112.625 E10.52457
G1 X109.365 Y112.461 E10.54622
G1 X109.364 Y107.538 E10.70996
G1 X109.997 Y107.371 E10.73173
G1 X110.632 Y107.535 E10.75355
G1 X110.632 Y112.457 E10.91725
G1 X110 Y112.624 E10.939
M204 S2000
G0 F7500 X109.564 Y111.827
M204 S500
G1 F1500 X110.121 Y112.384 E10.96519
M204 S2000
G0 F7500 X110.432 Y112.129
M204 S500
G1 F1500 X109.564 Y111.261 E11.00602
M204 S2000
G0 F7500 X109.564 Y110.695
M204 S500
G1 F1500 X110.432 Y111.564 E11.04687
M204 S2000
G0 F7500 X110.432 Y110.998
M204 S500
G1 F1500 X109.564 Y110.13 E11.0877
M204 S2000
G0 F7500 X109.564 Y109.564
M204 S500
G1 F1500 X110.432 Y110.432 E11.12853
M204 S2000
G0 F7500 X110.432 Y109.867
M204 S500
G1 F1500 X109.564 Y108.998 E11.16938
M204 S2000
G0 F7500 X109.564 Y108.433
M204 S500
G1 F1500 X110.432 Y109.301 E11.21021
M204 S2000
G0 F7500 X110.432 Y108.735
M204 S500
G1 F1500 X109.564 Y107.867 E11.25104
M204 S2000
G0 F7500 X109.874 Y107.611
M204 S500
G1 F1500 X110.432 Y108.17 E11.27731
M104 S200
M204 S2000
G1 F2400 E10.47731
;MESH:NONMESH
G0 F300 X110.432 Y108.17 Z0.4
G0 F7500 X110.892 Y108.17
G0 X110.823 Y107.389
G0 X110.155 Y107.207
G0 X108.83 Y107.146
G0 X107.946 Y106.503
G0 X99.376 Y99.415
;TIME_ELAPSED:20.271997
;LAYER:1
;note -- min layer time used
M106 S85
M204 S500
;TYPE:SKIRT
G1 F2400 E11.27731
G1 F1209.6 X100.024 Y98.786 E11.30734
G1 X100.726 Y98.217 E11.3374
G1 X101.475 Y97.713 E11.36743
G1 X102.376 Y97.222 E11.40155
G1 X103.342 Y96.773 E11.43699
G1 X103.898 Y96.546 E11.45696
G1 X104.654 Y96.285 E11.48356
G1 X105.458 Y96.044 E11.51148
G1 X105.898 Y95.924 E11.52665
G1 X106.783 Y95.744 E11.55668
G1 X107.474 Y95.659 E11.57984
G1 X108.394 Y95.578 E11.61056
G1 X109.344 Y95.518 E11.64222
G1 X110.544 Y95.516 E11.68213
G1 X111.77 Y95.591 E11.72298
G1 X112.51 Y95.656 E11.74769
G1 X113.405 Y95.775 E11.77772
G1 X114.514 Y96.037 E11.81562
G1 X114.99 Y96.178 E11.83213
G1 X115.691 Y96.403 E11.85662
G1 X116.137 Y96.559 E11.87234
G1 X116.713 Y96.793 E11.89301
G1 X117.588 Y97.201 E11.92512
G1 X118.385 Y97.626 E11.95517
G1 X119.141 Y98.12 E11.9852
G1 X119.851 Y98.679 E12.01526
G1 X120.508 Y99.298 E12.04528
G1 X121.191 Y100.078 E12.07976
G1 X121.609 Y100.616 E12.10242
G1 X122.113 Y101.366 E12.13248
G1 X122.549 Y102.156 E12.16249
G1 X122.913 Y102.983 E12.19254
G1 X123.247 Y103.998 E12.22808
G1 X123.335 Y104.321 E12.23922
G1 X123.534 Y105.202 E12.26926
G1 X123.654 Y106.097 E12.29929
G1 X123.688 Y106.64 E12.31739
G1 X123.704 Y107.571 E12.34836
G1 X123.702 Y112.444 E12.51043
G1 X123.692 Y113.141 E12.53362
G1 X123.653 Y113.899 E12.55886
G1 X123.467 Y115.134 E12.6004
G1 X123.258 Y115.988 E12.62965
G1 X122.983 Y116.848 E12.65968
G1 X122.632 Y117.681 E12.68974
G1 X122.209 Y118.479 E12.71978
G1 X121.901 Y118.971 E12.73909
G1 X121.654 Y119.326 E12.75347
G1 X121.217 Y119.897 E12.77739
G1 X120.627 Y120.581 E12.80743
G1 X119.979 Y121.211 E12.83749
G1 X119.278 Y121.78 E12.86752
G1 X118.53 Y122.285 E12.89754
G1 X117.623 Y122.778 E12.93187
G1 X116.675 Y123.22 E12.96666
G1 X116.007 Y123.489 E12.99061
G1 X115.346 Y123.715 E13.01385
G1 X114.542 Y123.956 E13.04176
G1 X114.102 Y124.076 E13.05693
G1 X113.217 Y124.256 E13.08697
G1 X112.526 Y124.341 E13.11013
G1 X111.606 Y124.422 E13.14084
G1 X110.656 Y124.482 E13.1725
G1 X109.456 Y124.484 E13.21242
G1 X108.23 Y124.409 E13.25327
G1 X107.49 Y124.344 E13.27798
G1 X106.595 Y124.225 E13.30801
G1 X105.486 Y123.963 E13.34591
G1 X104.747 Y123.74 E13.37158
G1 X104.302 Y123.595 E13.38715
G1 X103.747 Y123.396 E13.40676
G1 X103.296 Y123.211 E13.42297
G1 X102.404 Y122.796 E13.45569
G1 X101.608 Y122.37 E13.48572
G1 X100.852 Y121.876 E13.51576
G1 X100.143 Y121.316 E13.54581
G1 X99.487 Y120.696 E13.57583
G1 X98.804 Y119.915 E13.61034
G1 X98.434 Y119.441 E13.63034
G1 X97.925 Y118.695 E13.66037
G1 X97.483 Y117.907 E13.69043
G1 X97.113 Y117.083 E13.72047
G1 X96.753 Y116.002 E13.75836
G1 X96.665 Y115.679 E13.7695
G1 X96.466 Y114.798 E13.79954
G1 X96.346 Y113.903 E13.82957
G1 X96.312 Y113.354 E13.84787
G1 X96.296 Y112.429 E13.87864
G1 X96.298 Y107.551 E14.04088
G1 X96.308 Y106.857 E14.06397
G1 X96.361 Y105.955 E14.09402
G1 X96.53 Y104.885 E14.13005
G1 X96.714 Y104.113 E14.15644
G1 X96.981 Y103.25 E14.18649
G1 X97.323 Y102.415 E14.2165
G1 X97.468 Y102.135 E14.22699
G1 X97.46 Y102.131 E14.22729
G1 X97.738 Y101.612 E14.24687
G1 X97.902 Y101.336 E14.25755
G1 X98.237 Y100.828 E14.27779
G1 X98.786 Y100.099 E14.30814
G1 X99.376 Y99.415 E14.33818
M204 S2000
G1 F2400 E13.53818
;MESH:support_slide_bar.STL
G0 F8250 X106.771 Y106.664
G0 X109.999 Y113.436
M204 S500
;TYPE:WALL-INNER
G1 F2400 E14.33818
G1 F1209.6 X111.413 Y113.286 E14.38548
G1 X111.815 Y113.101 E14.40019
