;FLAVOR:Marlin
;TIME:6988
;Filament used: 4.55964m
;Layer height: 0.2
;MINX:54.8
;MINY:87.447
;MINZ:0.2
;MAXX:165.196
;MAXY:132.546
;MAXZ:36
;TARGET_MACHINE.NAME:Creality Ender-3 S1 Pro
;Generated with Cura_SteamEngine 5.10.2
; Ender 3 S1 Pro Start G-code
; M413 S0 ; Disable power loss recovery
G92 E0 ; Reset Extruder

; Prep surfaces before auto home for better accuracy
M140 S60
M104 S200

G28 ; Home all axes
G1 Z10.0 F3000 ; Move Z Axis up little to prevent scratching of Heat Bed
G1 X0 Y0

M190 S60
M109 S200

G1 X0.1 Y20 Z0.3 F5000.0 ; Move to start position
G1 X0.1 Y200.0 Z0.3 F1500.0 E15 ; Draw the first line
G1 X0.4 Y200.0 Z0.3 F5000.0 ; Move to side a little
G1 X0.4 Y20 Z0.3 F1500.0 E30 ; Draw the second line
G92 E0 ; Reset Extruder
G1 Z2.0 F3000 ; Move Z Axis up little to prevent scratching of Heat Bed
G1 X5 Y20 Z0.3 F5000.0 ; Move over to prevent blob squish

M82 ;absolute extrusion mode
G92 E0
G92 E0
G1 F2400 E-0.8
;LAYER_COUNT:180
;LAYER:0
M107
M204 S2000
G0 F7500 X62.747 Y90.04 Z0.2
M204 S500
;TYPE:SKIRT
G1 F2400 E0
G1 F1500 X63.177 Y89.764 E0.01699
G1 X64.372 Y89.128 E0.06202
G1 X64.921 Y88.89 E0.08192
G1 X65.58 Y88.627 E0.10552
G1 X66.47 Y88.322 E0.13681
G1 X67.188 Y88.111 E0.1617
G1 X67.869 Y87.93 E0.18514
G1 X68.86 Y87.723 E0.21881
G1 X69.719 Y87.617 E0.2476
G1 X70.501 Y87.554 E0.27369
G1 X72.032 Y87.461 E0.32471
G1 X72.627 Y87.447 E0.3445
G1 X73.264 Y87.463 E0.3657
G1 X74.747 Y87.552 E0.41511
G1 X75.444 Y87.612 E0.43838
G1 X76.2 Y87.693 E0.46367
G1 X77.268 Y87.906 E0.49989
G1 X77.802 Y88.042 E0.51822
G1 X78.584 Y88.259 E0.54521
G1 X79.434 Y88.541 E0.57499
G1 X80.558 Y88.982 E0.61515
G1 X81.052 Y89.203 E0.63315
G1 X82.134 Y89.786 E0.67403
G1 X82.782 Y90.219 E0.69995
G1 X83.226 Y90.542 E0.71821
G1 X83.974 Y91.159 E0.75046
G1 X84.525 Y91.694 E0.77601
G1 X85.042 Y92.265 E0.80163
G1 X85.301 Y92.579 E0.81517
G1 X85.887 Y93.386 E0.84834
G1 X86.353 Y94.159 E0.87836
G1 X86.93 Y95.391 E0.92361
G1 X87.134 Y95.943 E0.94318
G1 X87.345 Y96.62 E0.96676
G1 X87.589 Y97.612 E1.00074
G1 X87.736 Y98.571 E1.03301
G1 X87.795 Y99.417 E1.06122
G1 X87.81 Y100.186 E1.0868
G1 X87.814 Y119.559 E1.73115
G1 X87.786 Y120.868 E1.7747
G1 X87.66 Y122.015 E1.81307
G1 X87.429 Y123.09 E1.84964
G1 X87.157 Y124 E1.88123
G1 X86.803 Y124.938 E1.91458
G1 X86.38 Y125.813 E1.94691
G1 X85.881 Y126.65 E1.97932
G1 X85.354 Y127.383 E2.00934
G1 X84.67 Y128.173 E2.0441
G1 X83.993 Y128.827 E2.07541
G1 X83.159 Y129.498 E2.11101
G1 X82.787 Y129.767 E2.12628
G1 X82.262 Y130.126 E2.14743
G1 X81.421 Y130.613 E2.17975
G1 X80.634 Y130.985 E2.20871
G1 X79.584 Y131.407 E2.24634
G1 X78.727 Y131.695 E2.27642
G1 X78.025 Y131.899 E2.30073
G1 X77.063 Y132.145 E2.33376
G1 X76.091 Y132.322 E2.36662
G1 X75.486 Y132.388 E2.38686
G1 X73.933 Y132.5 E2.43864
G1 X73.156 Y132.54 E2.46452
G1 X72.233 Y132.546 E2.49522
G1 X71.739 Y132.526 E2.51167
G1 X70.532 Y132.449 E2.55189
G1 X69.758 Y132.387 E2.57772
G1 X68.828 Y132.27 E2.60889
G1 X67.927 Y132.08 E2.63952
G1 X67.113 Y131.868 E2.6675
G1 X66.661 Y131.739 E2.68313
G1 X65.73 Y131.427 E2.71579
G1 X64.681 Y131.012 E2.75331
G1 X64.027 Y130.712 E2.77724
G1 X63.16 Y130.231 E2.81022
G1 X62.731 Y129.952 E2.82724
G1 X62.097 Y129.508 E2.85298
G1 X61.336 Y128.901 E2.88536
G1 X60.63 Y128.23 E2.91775
G1 X59.987 Y127.498 E2.95016
G1 X59.411 Y126.712 E2.98257
G1 X58.907 Y125.878 E3.01498
G1 X58.479 Y125.004 E3.04735
G1 X58.138 Y124.121 E3.07883
G1 X58.03 Y123.785 E3.09057
G1 X57.836 Y123.114 E3.1138
G1 X57.746 Y122.76 E3.12595
G1 X57.622 Y122.162 E3.14626
G1 X57.562 Y121.784 E3.15899
G1 X57.494 Y121.194 E3.17875
G1 X57.46 Y120.677 E3.19598
G1 X57.44 Y119.537 E3.2339
G1 X57.439 Y100.275 E3.87456
G1 X57.451 Y99.587 E3.89744
G1 X57.511 Y98.615 E3.92984
G1 X57.644 Y97.722 E3.95986
G1 X57.857 Y96.819 E3.99072
G1 X57.977 Y96.392 E4.00547
G1 X58.286 Y95.468 E4.03788
G1 X58.673 Y94.575 E4.07025
G1 X59.138 Y93.72 E4.10262
G1 X59.656 Y92.937 E4.13385
G1 X60.287 Y92.149 E4.16742
G1 X60.96 Y91.445 E4.19982
G1 X61.663 Y90.828 E4.23093
G1 X62.155 Y90.452 E4.25152
G1 X62.747 Y90.04 E4.27551
M204 S2000
G0 F7500 X62.963 Y90.377
M204 S500
G1 F1500 X63.393 Y90.101 E4.29251
G1 X64.532 Y89.495 E4.33542
G1 X65.07 Y89.261 E4.35493
G1 X65.71 Y89.005 E4.37786
G1 X66.583 Y88.706 E4.40855
G1 X67.291 Y88.498 E4.43309
G1 X67.972 Y88.317 E4.45653
G1 X68.909 Y88.12 E4.48837
G1 X69.751 Y88.016 E4.51659
G1 X70.525 Y87.953 E4.54242
G1 X72.042 Y87.861 E4.59297
G1 X72.617 Y87.847 E4.6121
G1 X73.24 Y87.862 E4.63283
G1 X74.713 Y87.951 E4.68191
G1 X75.401 Y88.01 E4.70488
G1 X76.157 Y88.091 E4.73016
G1 X77.17 Y88.294 E4.76453
G1 X77.695 Y88.427 E4.78254
G1 X78.458 Y88.639 E4.80888
G1 X79.308 Y88.921 E4.83866
G1 X80.395 Y89.347 E4.8775
G1 X80.889 Y89.568 E4.8955
G1 X81.912 Y90.118 E4.93413
G1 X82.547 Y90.543 E4.95954
G1 X82.972 Y90.851 E4.977
G1 X83.695 Y91.446 E5.00814
G1 X84.246 Y91.981 E5.03368
G1 X84.733 Y92.52 E5.05785
G1 X84.992 Y92.834 E5.07138
G1 X85.544 Y93.593 E5.1026
G1 X86.01 Y94.366 E5.13262
G1 X86.555 Y95.53 E5.17537
G1 X86.752 Y96.062 E5.19424
G1 X86.963 Y96.739 E5.21782
G1 X87.194 Y97.673 E5.24982
G1 X87.337 Y98.599 E5.28099
G1 X87.395 Y99.425 E5.30853
G1 X87.41 Y100.186 E5.33384
G1 X87.414 Y119.551 E5.97792
G1 X87.388 Y120.824 E6.02027
G1 X87.262 Y121.971 E6.05865
G1 X87.038 Y123.005 E6.09384
G1 X86.774 Y123.885 E6.1244
G1 X86.443 Y124.764 E6.15564
G1 X86.036 Y125.609 E6.18683
G1 X85.556 Y126.416 E6.21806
G1 X85.029 Y127.149 E6.24809
G1 X84.392 Y127.885 E6.28047
G1 X83.715 Y128.539 E6.31177
G1 X82.924 Y129.174 E6.34551
G1 X82.561 Y129.437 E6.36042
G1 X82.061 Y129.78 E6.38059
G1 X81.25 Y130.251 E6.41178
G1 X80.463 Y130.623 E6.44073
G1 X79.457 Y131.028 E6.4768
G1 X78.615 Y131.311 E6.50635
G1 X77.926 Y131.511 E6.53021
G1 X76.964 Y131.757 E6.56323
G1 X76.02 Y131.928 E6.59514
G1 X75.457 Y131.989 E6.61398
G1 X73.912 Y132.101 E6.6655
G1 X73.153 Y132.14 E6.69078
G1 X72.249 Y132.146 E6.72085
G1 X71.765 Y132.127 E6.73696
G1 X70.564 Y132.05 E6.77698
G1 X69.808 Y131.99 E6.80221
G1 X68.878 Y131.873 E6.83338
G1 X68.028 Y131.693 E6.86228
G1 X67.223 Y131.483 E6.88995
G1 X66.771 Y131.354 E6.90558
G1 X65.877 Y131.055 E6.93694
G1 X64.848 Y130.648 E6.97374
G1 X64.194 Y130.348 E6.99767
G1 X63.378 Y129.895 E7.02872
G1 X62.96 Y129.624 E7.04529
G1 X62.346 Y129.195 E7.0702
G1 X61.611 Y128.611 E7.10142
G1 X60.93 Y127.965 E7.13264
G1 X60.309 Y127.261 E7.16386
G1 X59.753 Y126.505 E7.19508
G1 X59.266 Y125.702 E7.22631
G1 X58.852 Y124.86 E7.25752
G1 X58.519 Y123.998 E7.28825
G1 X58.414 Y123.674 E7.29958
G1 X58.224 Y123.015 E7.32239
G1 X58.138 Y122.678 E7.33396
G1 X58.017 Y122.099 E7.35364
G1 X57.959 Y121.738 E7.3658
G1 X57.893 Y121.167 E7.38491
G1 X57.86 Y120.67 E7.40148
G1 X57.84 Y119.537 E7.43917
G1 X57.839 Y100.282 E8.07959
G1 X57.85 Y99.611 E8.10192
G1 X57.907 Y98.674 E8.13314
G1 X58.04 Y97.781 E8.16317
G1 X58.242 Y96.927 E8.19235
G1 X58.357 Y96.518 E8.20649
G1 X58.653 Y95.627 E8.23771
G1 X59.025 Y94.766 E8.26891
G1 X59.472 Y93.941 E8.30012
G1 X59.99 Y93.158 E8.33134
G1 X60.576 Y92.425 E8.36256
G1 X61.224 Y91.746 E8.39377
G1 X61.927 Y91.129 E8.42488
G1 X62.384 Y90.78 E8.44401
G1 X62.963 Y90.377 E8.46747
M204 S2000
G0 F7500 X63.179 Y90.714
M204 S500
G1 F1500 X63.609 Y90.438 E8.48447
G1 X64.692 Y89.862 E8.52526
G1 X65.219 Y89.632 E8.54439
G1 X65.84 Y89.383 E8.56664
G1 X66.696 Y89.09 E8.59673
G1 X67.394 Y88.885 E8.62093
G1 X68.075 Y88.704 E8.64437
G1 X68.958 Y88.517 E8.67439
G1 X69.784 Y88.415 E8.70207
G1 X70.549 Y88.352 E8.7276
G1 X72.052 Y88.261 E8.77768
G1 X72.608 Y88.247 E8.79618
G1 X73.216 Y88.261 E8.81641
G1 X74.679 Y88.35 E8.86516
G1 X75.358 Y88.408 E8.88782
G1 X76.114 Y88.489 E8.91311
G1 X77.072 Y88.682 E8.94561
G1 X77.588 Y88.812 E8.96331
G1 X78.332 Y89.019 E8.989
G1 X79.182 Y89.301 E9.01878
G1 X80.232 Y89.712 E9.05629
G1 X80.726 Y89.933 E9.07429
G1 X81.69 Y90.451 E9.11069
G1 X82.313 Y90.867 E9.1356
G1 X82.718 Y91.16 E9.15223
G1 X83.416 Y91.733 E9.18226
G1 X83.967 Y92.268 E9.20781
G1 X84.425 Y92.775 E9.23053
G1 X84.669 Y93.07 E9.24327
G1 X85.201 Y93.8 E9.27331
G1 X85.667 Y94.573 E9.30333
G1 X86.18 Y95.669 E9.34358
G1 X86.37 Y96.181 E9.36174
G1 X86.581 Y96.858 E9.38533
G1 X86.799 Y97.735 E9.41538
G1 X86.938 Y98.627 E9.44541
G1 X86.995 Y99.433 E9.47228
G1 X87.01 Y100.186 E9.49733
G1 X87.014 Y119.543 E10.14115
G1 X86.99 Y120.78 E10.1823
G1 X86.864 Y121.927 E10.22068
G1 X86.647 Y122.92 E10.25449
G1 X86.399 Y123.745 E10.28314
G1 X86.082 Y124.591 E10.31319
G1 X85.692 Y125.405 E10.34321
G1 X85.231 Y126.182 E10.37326
G1 X84.704 Y126.915 E10.40329
G1 X84.114 Y127.598 E10.4333
G1 X83.465 Y128.227 E10.46336
G1 X82.689 Y128.85 E10.49646
G1 X82.335 Y129.107 E10.51101
G1 X81.859 Y129.434 E10.53022
G1 X81.079 Y129.889 E10.56025
G1 X80.292 Y130.261 E10.58921
G1 X79.329 Y130.649 E10.62374
G1 X78.504 Y130.927 E10.65269
G1 X77.827 Y131.123 E10.67614
G1 X76.865 Y131.369 E10.70916
G1 X75.976 Y131.53 E10.73921
G1 X75.428 Y131.59 E10.75755
G1 X73.892 Y131.702 E10.80877
G1 X73.15 Y131.74 E10.83348
G1 X72.264 Y131.746 E10.86295
G1 X71.791 Y131.728 E10.87869
G1 X70.595 Y131.651 E10.91856
G1 X69.857 Y131.593 E10.94318
G1 X68.961 Y131.482 E10.97321
G1 X68.129 Y131.306 E11.00149
G1 X67.333 Y131.098 E11.02885
G1 X66.881 Y130.969 E11.04449
G1 X66.024 Y130.683 E11.07454
G1 X65.015 Y130.284 E11.11063
G1 X64.361 Y129.984 E11.13456
G1 X63.572 Y129.545 E11.16459
G1 X63.189 Y129.296 E11.17978
G1 X62.594 Y128.881 E11.20391
G1 X61.886 Y128.32 E11.23395
G1 X61.23 Y127.7 E11.26398
G1 X60.631 Y127.023 E11.29404
G1 X60.095 Y126.297 E11.32406
G1 X59.625 Y125.525 E11.35412
G1 X59.225 Y124.716 E11.38413
G1 X58.899 Y123.874 E11.41417
G1 X58.798 Y123.564 E11.42501
G1 X58.612 Y122.916 E11.44743
G1 X58.526 Y122.579 E11.459
G1 X58.412 Y122.035 E11.47749
G1 X58.356 Y121.692 E11.48905
G1 X58.292 Y121.14 E11.50753
G1 X58.26 Y120.663 E11.52343
G1 X58.24 Y119.537 E11.56089
G1 X58.239 Y100.288 E12.20111
G1 X58.249 Y99.635 E12.22283
G1 X58.303 Y98.733 E12.25289
G1 X58.436 Y97.84 E12.28291
G1 X58.627 Y97.035 E12.31043
G1 X58.737 Y96.643 E12.32397
G1 X59.02 Y95.785 E12.35402
G1 X59.377 Y94.956 E12.38404
G1 X59.806 Y94.161 E12.41409
G1 X60.303 Y93.407 E12.44413
G1 X60.866 Y92.701 E12.47416
G1 X61.488 Y92.047 E12.50418
G1 X62.191 Y91.43 E12.53529
G1 X62.613 Y91.108 E12.55294
G1 X63.179 Y90.714 E12.57588
M204 S2000
G1 F2400 E11.77588
;MESH:support_mouthpiece.STL
G0 F7500 X70.645 Y99.087
G0 X72.627 Y120.255
M204 S500
;TYPE:WALL-INNER
G1 F2400 E12.57588
G1 F1500 X73.718 Y120.001 E12.61314
G1 X73.812 Y119.936 E12.61694
G1 X73.823 Y100.054 E13.27822
G1 X73.747 Y99.999 E13.28134
G1 X72.611 Y99.744 E13.32006
G1 X71.545 Y99.993 E13.35647
G1 X71.464 Y100.052 E13.3598
G1 X71.441 Y119.938 E14.02122
G1 X71.532 Y120.001 E14.0249
G1 X72.627 Y120.255 E14.06228
M204 S2000
G0 F7500 X72.627 Y120.666
M204 S500
;TYPE:WALL-OUTER
G1 F1500 X73.884 Y120.373 E14.10521
G1 X74.212 Y120.144 E14.11852
G1 X74.223 Y99.85 E14.7935
G1 X73.915 Y99.627 E14.80615
G1 X72.609 Y99.334 E14.85066
G1 X71.374 Y99.622 E14.89284
G1 X71.064 Y99.85 E14.90564
G1 X71.041 Y120.147 E15.58072
G1 X71.367 Y120.373 E15.59392
G1 X72.627 Y120.666 E15.63694
M204 S2000
G0 F7500 X72.624 Y119.882
M204 S500
;TYPE:SKIN
G1 F1500 X71.8 Y119.693 E15.66506
G1 X71.824 Y100.295 E16.31024
G1 X72.613 Y100.11 E16.3372
G1 X73.459 Y100.304 E16.36606
G1 X73.451 Y119.693 E17.01094
G1 X72.624 Y119.882 E17.03916
M204 S2000
G0 F7500 X72.565 Y120.137
G0 X71.611 Y119.845
G0 X71.543 Y118.951
G0 X72 Y118.952
M204 S500
G1 F1500 X72.705 Y119.657 E17.07232
M204 S2000
G0 F7500 X73.166 Y119.553
M204 S500
G1 F1500 X72.001 Y118.387 E17.12714
M204 S2000
G0 F7500 X72.002 Y117.822
M204 S500
G1 F1500 X73.251 Y119.071 E17.18589
M204 S2000
G0 F7500 X73.251 Y118.505
M204 S500
G1 F1500 X72.003 Y117.257 E17.24459
M204 S2000
G0 F7500 X72.003 Y116.692
M204 S500
G1 F1500 X73.251 Y117.94 E17.3033
M204 S2000
G0 F7500 X73.251 Y117.375
M204 S500
G1 F1500 X72.004 Y116.127 E17.36197
M204 S2000
G0 F7500 X72.005 Y115.562
M204 S500
G1 F1500 X73.251 Y116.809 E17.42061
M204 S2000
G0 F7500 X73.252 Y116.244
M204 S500
G1 F1500 X72.005 Y114.997 E17.47926
M204 S2000
G0 F7500 X72.006 Y114.433
M204 S500
G1 F1500 X73.252 Y115.678 E17.53785
M204 S2000
G0 F7500 X73.253 Y115.113
M204 S500
G1 F1500 X72.007 Y113.868 E17.59643
M204 S2000
G0 F7500 X72.008 Y113.303
M204 S500
G1 F1500 X73.253 Y114.548 E17.65499
M204 S2000
G0 F7500 X73.253 Y113.982
M204 S500
G1 F1500 X72.008 Y112.738 E17.71353
M204 S2000
G0 F7500 X72.009 Y112.173
M204 S500
G1 F1500 X73.253 Y113.417 E17.77204
M204 S2000
G0 F7500 X73.253 Y112.851
M204 S500
G1 F1500 X72.01 Y111.608 E17.83051
M204 S2000
G0 F7500 X72.01 Y111.043
M204 S500
G1 F1500 X73.253 Y112.286 E17.88898
M204 S2000
G0 F7500 X73.254 Y111.721
M204 S500
G1 F1500 X72.011 Y110.478 E17.94744
M204 S2000
G0 F7500 X72.012 Y109.913
M204 S500
G1 F1500 X73.254 Y111.155 E18.00586
M204 S2000
G0 F7500 X73.255 Y110.59
M204 S500
G1 F1500 X72.012 Y109.348 E18.06431
M204 S2000
G0 F7500 X72.013 Y108.783
M204 S500
G1 F1500 X73.255 Y110.024 E18.1227
M204 S2000
G0 F7500 X73.255 Y109.459
M204 S500
G1 F1500 X72.014 Y108.218 E18.18108
M204 S2000
G0 F7500 X72.015 Y107.653
M204 S500
G1 F1500 X73.256 Y108.894 E18.23945
M204 S2000
G0 F7500 X73.256 Y108.328
M204 S500
G1 F1500 X72.015 Y107.088 E18.2978
M204 S2000
G0 F7500 X72.016 Y106.523
M204 S500
G1 F1500 X73.256 Y107.763 E18.35612
M204 S2000
G0 F7500 X73.256 Y107.197
M204 S500
G1 F1500 X72.017 Y105.958 E18.4144
M204 S2000
G0 F7500 X72.017 Y105.393
M204 S500
G1 F1500 X73.256 Y106.632 E18.47268
M204 S2000
G0 F7500 X73.257 Y106.067
M204 S500
G1 F1500 X72.018 Y104.828 E18.53096
M204 S2000
G0 F7500 X72.019 Y104.263
M204 S500
G1 F1500 X73.257 Y105.501 E18.58919
M204 S2000
G0 F7500 X73.257 Y104.935
M204 S500
G1 F1500 X72.02 Y103.698 E18.64738
M204 S2000
G0 F7500 X72.02 Y103.133
M204 S500
G1 F1500 X73.258 Y104.37 E18.70558
M204 S2000
G0 F7500 X73.258 Y103.805
M204 S500
G1 F1500 X72.021 Y102.568 E18.76377
M204 S2000
G0 F7500 X72.022 Y102.003
M204 S500
G1 F1500 X73.258 Y103.24 E18.82193
M204 S2000
G0 F7500 X73.258 Y102.674
M204 S500
G1 F1500 X72.022 Y101.438 E18.88007
M204 S2000
G0 F7500 X72.023 Y100.873
M204 S500
G1 F1500 X73.258 Y102.108 E18.93816
M204 S2000
G0 F7500 X73.259 Y101.543
M204 S500
G1 F1500 X72.142 Y100.426 E18.9907
M204 S2000
G0 F7500 X72.6 Y100.319
M204 S500
G1 F1500 X73.259 Y100.978 E19.0217
M104 S200
M204 S2000
G1 F2400 E18.2217
;MESH:NONMESH
G0 F300 X73.259 Y100.978 Z0.4
G0 F7500 X73.722 Y100.979
G0 X73.654 Y100.152
G0 X72.81 Y99.955
G0 X71.474 Y99.835
G0 X70.825 Y98.955
G0 X63.179 Y90.714
;TIME_ELAPSED:31.934753
;LAYER:1
M106 S85
M204 S500
;TYPE:SKIRT
G1 F2400 E19.0217
G1 F1500 X63.609 Y90.438 E19.03869
G1 X64.692 Y89.862 E19.07949
G1 X65.219 Y89.632 E19.09861
G1 X65.84 Y89.383 E19.12087
G1 X66.696 Y89.09 E19.15096
G1 X67.394 Y88.885 E19.17516
G1 X68.075 Y88.704 E19.19859
G1 X68.958 Y88.517 E19.22861
G1 X69.784 Y88.415 E19.25629
G1 X70.549 Y88.352 E19.28182
G1 X72.052 Y88.261 E19.3319
G1 X72.608 Y88.247 E19.3504
G1 X73.216 Y88.261 E19.37063
G1 X74.679 Y88.35 E19.41938
G1 X75.358 Y88.408 E19.44205
G1 X76.114 Y88.489 E19.46733
G1 X77.072 Y88.682 E19.49984
G1 X77.588 Y88.812 E19.51754
G1 X78.332 Y89.019 E19.54322
G1 X79.182 Y89.301 E19.57301
G1 X80.232 Y89.712 E19.61051
G1 X80.726 Y89.933 E19.62851
G1 X81.69 Y90.451 E19.66491
G1 X82.313 Y90.867 E19.68983
G1 X82.718 Y91.16 E19.70645
G1 X83.416 Y91.733 E19.73649
G1 X83.967 Y92.268 E19.76203
G1 X84.425 Y92.775 E19.78476
G1 X84.669 Y93.07 E19.79749
G1 X85.201 Y93.8 E19.82753
G1 X85.667 Y94.573 E19.85755
G1 X86.18 Y95.669 E19.8978
