;FLAVOR:Marlin
;TIME:3065
;Filament used: 2.42493m
;Layer height: 0.2
;MINX:89.223
;MINY:53.564
;MINZ:0.2
;MAXX:130.776
;MAXY:166.431
;MAXZ:28
;TARGET_MACHINE.NAME:Creality Ender-3 S1 Pro
;Generated with Cura_SteamEngine 5.10.2
; Ender 3 S1 Pro Start G-code
; M413 S0 ; Disable power loss recovery
G92 E0 ; Reset Extruder

; Prep surfaces before auto home for better accuracy
M140 S60
M104 S200

G28 ; Home all axes
G1 Z10.0 F3000 ; Move Z Axis up little to prevent scratching of Heat Bed
G1 X0 Y0

M190 S60
M109 S200

G1 X0.1 Y20 Z0.3 F5000.0 ; Move to start position
G1 X0.1 Y200.0 Z0.3 F1500.0 E15 ; Draw the first line
G1 X0.4 Y200.0 Z0.3 F5000.0 ; Move to side a little
G1 X0.4 Y20 Z0.3 F1500.0 E30 ; Draw the second line
G92 E0 ; Reset Extruder
G1 Z2.0 F3000 ; Move Z Axis up little to prevent scratching of Heat Bed
G1 X5 Y20 Z0.3 F5000.0 ; Move over to prevent blob squish

M82 ;absolute extrusion mode
G92 E0
G92 E0
G1 F2400 E-0.8
;LAYER_COUNT:140
;LAYER:0
M107
M204 S2000
G0 F7500 X92.701 Y62.834 Z0.2
M204 S500
;TYPE:SKIRT
G1 F2400 E0
G1 F1500 X92.947 Y62.475 E0.01447
G1 X93.668 Y61.508 E0.05459
G1 X94.006 Y61.078 E0.07278
G1 X94.38 Y60.639 E0.09197
G1 X94.997 Y59.969 E0.12226
G1 X95.726 Y59.251 E0.15629
G1 X96.389 Y58.647 E0.18612
G1 X96.963 Y58.165 E0.21105
G1 X97.29 Y57.91 E0.22484
G1 X98.213 Y57.232 E0.26294
G1 X99.185 Y56.603 E0.30144
G1 X99.642 Y56.335 E0.31906
G1 X100.287 Y55.974 E0.34365
G1 X101.124 Y55.557 E0.37475
G1 X102.117 Y55.119 E0.41085
G1 X102.668 Y54.901 E0.43056
G1 X103.656 Y54.56 E0.46532
G1 X104.546 Y54.294 E0.49622
G1 X105.294 Y54.107 E0.52186
G1 X106.139 Y53.929 E0.55058
G1 X106.584 Y53.852 E0.5656
G1 X107.696 Y53.703 E0.60292
G1 X108.226 Y53.642 E0.62066
G1 X108.707 Y53.606 E0.6367
G1 X109.592 Y53.564 E0.66617
G1 X109.858 Y53.603 E0.67511
G1 X109.941 Y53.641 E0.67815
G1 X110.214 Y53.565 E0.68758
G1 X111.515 Y53.62 E0.73089
G1 X111.931 Y53.652 E0.74476
G1 X112.485 Y53.713 E0.7633
G1 X113.167 Y53.808 E0.7862
G1 X113.82 Y53.918 E0.80823
G1 X114.343 Y54.025 E0.82598
G1 X115.131 Y54.209 E0.8529
G1 X115.775 Y54.384 E0.87509
G1 X116.315 Y54.547 E0.89385
G1 X116.809 Y54.711 E0.91117
G1 X117.363 Y54.913 E0.93078
G1 X118.34 Y55.311 E0.96587
G1 X118.873 Y55.554 E0.98535
G1 X120.043 Y56.154 E1.02908
G1 X121.062 Y56.753 E1.0684
G1 X121.465 Y57.012 E1.08433
G1 X122.254 Y57.56 E1.11628
G1 X122.828 Y57.997 E1.14028
G1 X123.586 Y58.62 E1.17291
G1 X124.363 Y59.325 E1.20781
G1 X124.768 Y59.722 E1.22667
G1 X125.158 Y60.127 E1.24537
G1 X125.524 Y60.531 E1.2635
G1 X126.389 Y61.577 E1.30865
G1 X126.66 Y61.924 E1.32329
G1 X127.046 Y62.462 E1.34531
G1 X127.456 Y63.075 E1.36984
G1 X127.738 Y63.517 E1.38728
G1 X128.011 Y63.978 E1.4051
G1 X128.528 Y64.926 E1.44101
G1 X128.774 Y65.433 E1.45976
G1 X129.089 Y66.131 E1.48523
G1 X129.495 Y67.166 E1.5222
G1 X129.74 Y67.874 E1.54712
G1 X130.13 Y69.175 E1.5923
G1 X130.257 Y69.689 E1.60991
G1 X130.371 Y70.23 E1.6283
G1 X130.506 Y70.961 E1.65302
G1 X130.639 Y71.888 E1.68417
G1 X130.721 Y72.746 E1.71283
G1 X130.747 Y73.132 E1.7257
G1 X130.776 Y74.295 E1.7644
G1 X130.766 Y75.024 E1.78864
G1 X130.725 Y75.843 E1.81592
G1 X130.688 Y76.371 E1.83352
G1 X130.617 Y77.006 E1.85478
G1 X130.509 Y77.736 E1.87932
G1 X130.288 Y78.874 E1.91788
G1 X130.161 Y79.41 E1.9362
G1 X130.037 Y79.88 E1.95236
G1 X129.896 Y80.356 E1.96888
G1 X129.619 Y81.179 E1.99776
G1 X128.802 Y83.695 E2.08574
G1 X128.097 Y86.091 E2.16881
G1 X127.451 Y88.542 E2.25312
G1 X126.881 Y90.99 E2.33672
G1 X126.381 Y93.443 E2.41998
G1 X125.945 Y95.942 E2.50435
G1 X125.582 Y98.441 E2.58834
G1 X125.293 Y100.912 E2.67109
G1 X125.071 Y103.436 E2.75536
G1 X124.922 Y105.936 E2.83866
G1 X124.844 Y108.459 E2.92261
G1 X124.835 Y110.976 E3.00633
G1 X124.9 Y113.515 E3.09081
G1 X125.033 Y115.975 E3.17274
G1 X125.24 Y118.503 E3.25711
G1 X125.516 Y121.005 E3.34083
G1 X125.862 Y123.503 E3.42471
G1 X126.277 Y125.972 E3.50798
G1 X126.767 Y128.45 E3.59199
G1 X127.328 Y130.921 E3.67627
G1 X127.945 Y133.327 E3.75888
G1 X128.635 Y135.728 E3.84197
G1 X129.423 Y138.153 E3.92678
G1 X129.988 Y139.982 E3.99045
G1 X130.13 Y140.477 E4.00758
G1 X130.257 Y140.991 E4.02519
G1 X130.371 Y141.533 E4.04361
G1 X130.506 Y142.267 E4.06843
G1 X130.636 Y143.157 E4.09835
G1 X130.69 Y143.671 E4.11554
G1 X130.741 Y144.314 E4.13699
G1 X130.76 Y144.782 E4.15257
G1 X130.776 Y145.597 E4.17968
G1 X130.764 Y146.331 E4.2041
G1 X130.699 Y147.532 E4.2441
G1 X130.617 Y148.308 E4.27005
G1 X130.509 Y149.038 E4.2946
G1 X130.288 Y150.177 E4.33319
G1 X130.159 Y150.72 E4.35175
G1 X129.938 Y151.525 E4.37952
G1 X129.541 Y152.708 E4.42102
G1 X129.278 Y153.398 E4.44558
G1 X128.819 Y154.471 E4.4844
G1 X128.565 Y154.996 E4.50379
G1 X128.165 Y155.751 E4.53221
G1 X127.733 Y156.488 E4.56062
G1 X127.449 Y156.934 E4.57821
G1 X126.829 Y157.848 E4.61494
G1 X126.262 Y158.593 E4.64608
G1 X125.431 Y159.565 E4.68862
G1 X125.088 Y159.944 E4.70562
G1 X124.654 Y160.387 E4.72625
G1 X124.034 Y160.977 E4.75471
G1 X123.31 Y161.616 E4.78683
G1 X122.694 Y162.107 E4.81303
G1 X122.353 Y162.356 E4.82707
G1 X121.314 Y163.081 E4.86921
G1 X120.936 Y163.324 E4.88416
G1 X120.092 Y163.817 E4.91667
G1 X119.336 Y164.22 E4.94516
G1 X118.624 Y164.559 E4.97139
G1 X117.863 Y164.89 E4.99899
G1 X117.408 Y165.071 E5.01528
G1 X116.636 Y165.347 E5.04255
G1 X115.817 Y165.605 E5.07111
G1 X115.468 Y165.695 E5.08309
G1 X115.346 Y165.737 E5.08739
G1 X114.562 Y165.927 E5.11422
G1 X113.196 Y166.182 E5.16043
G1 X112.365 Y166.301 E5.18836
G1 X111.798 Y166.358 E5.20731
G1 X111.282 Y166.396 E5.22452
G1 X110.746 Y166.42 E5.24236
G1 X110.02 Y166.431 E5.26651
G1 X109.201 Y166.407 E5.29376
G1 X108.433 Y166.364 E5.31935
G1 X107.495 Y166.279 E5.35067
G1 X106.822 Y166.187 E5.37327
G1 X105.914 Y166.025 E5.40394
G1 X105.106 Y165.846 E5.43147
G1 X104.398 Y165.657 E5.45584
G1 X103.526 Y165.393 E5.48615
G1 X102.992 Y165.216 E5.50486
G1 X102.468 Y165.023 E5.52343
G1 X101.744 Y164.725 E5.54947
G1 X100.982 Y164.377 E5.57733
G1 X100.481 Y164.128 E5.59594
G1 X99.952 Y163.844 E5.61591
G1 X99.082 Y163.335 E5.64943
G1 X98.653 Y163.065 E5.66629
G1 X98.24 Y162.783 E5.68293
G1 X97.549 Y162.288 E5.7112
G1 X96.877 Y161.767 E5.73948
G1 X96.147 Y161.145 E5.77138
G1 X95.771 Y160.801 E5.78833
G1 X95.3 Y160.343 E5.81018
G1 X94.735 Y159.754 E5.83732
G1 X94.333 Y159.306 E5.85734
G1 X93.672 Y158.508 E5.89181
G1 X93.183 Y157.861 E5.91878
G1 X92.844 Y157.378 E5.93841
G1 X92.249 Y156.461 E5.97477
G1 X91.894 Y155.854 E5.99816
G1 X91.564 Y155.239 E6.02137
G1 X90.992 Y154.053 E6.06516
G1 X90.77 Y153.54 E6.08376
G1 X90.523 Y152.903 E6.10648
G1 X90.17 Y151.867 E6.14288
G1 X89.944 Y151.099 E6.16951
G1 X89.817 Y150.608 E6.18638
G1 X89.684 Y150.031 E6.20607
G1 X89.576 Y149.503 E6.224
G1 X89.427 Y148.579 E6.25513
G1 X89.337 Y147.876 E6.2787
G1 X89.284 Y147.319 E6.29731
G1 X89.234 Y146.44 E6.32659
G1 X89.223 Y145.762 E6.34914
G1 X89.251 Y144.479 E6.39183
G1 X89.299 Y143.817 E6.4139
G1 X89.406 Y142.839 E6.44663
G1 X89.531 Y142.043 E6.47342
G1 X89.626 Y141.547 E6.49022
G1 X89.788 Y140.799 E6.51568
G1 X89.918 Y140.289 E6.53318
G1 X90.189 Y139.373 E6.56495
G1 X91.217 Y136.217 E6.67535
G1 X91.919 Y133.817 E6.75852
G1 X92.568 Y131.343 E6.84359
G1 X93.123 Y128.949 E6.92533
G1 X93.631 Y126.446 E7.01027
G1 X94.066 Y123.943 E7.09477
G1 X94.421 Y121.479 E7.17757
G1 X94.71 Y118.98 E7.26124
G1 X94.927 Y116.495 E7.34421
G1 X95.074 Y113.958 E7.42873
G1 X95.15 Y111.452 E7.51212
G1 X95.156 Y108.91 E7.59667
G1 X95.089 Y106.428 E7.67925
G1 X94.952 Y103.912 E7.76305
G1 X94.741 Y101.374 E7.84776
G1 X94.464 Y98.89 E7.93089
G1 X94.115 Y96.401 E8.01448
G1 X93.695 Y93.919 E8.09821
G1 X93.201 Y91.435 E8.18245
G1 X92.644 Y88.99 E8.26585
G1 X92.017 Y86.561 E8.34929
G1 X91.314 Y84.123 E8.43368
G1 X90.586 Y81.84 E8.51338
G1 X90.313 Y81.022 E8.54206
G1 X90.078 Y80.263 E8.56849
G1 X89.932 Y79.756 E8.58604
G1 X89.687 Y78.741 E8.62076
G1 X89.582 Y78.237 E8.63789
G1 X89.377 Y76.913 E8.68245
G1 X89.293 Y76.143 E8.70821
G1 X89.234 Y75.138 E8.74169
G1 X89.223 Y74.46 E8.76425
G1 X89.251 Y73.177 E8.80693
G1 X89.299 Y72.518 E8.82891
G1 X89.392 Y71.642 E8.85821
G1 X89.531 Y70.741 E8.88853
G1 X89.626 Y70.245 E8.90533
G1 X89.787 Y69.497 E8.93077
G1 X89.916 Y68.996 E8.94798
G1 X90.09 Y68.392 E8.96889
G1 X90.408 Y67.413 E9.00312
G1 X90.595 Y66.903 E9.02119
G1 X90.982 Y65.972 E9.05472
G1 X91.193 Y65.507 E9.07171
G1 X91.471 Y64.941 E9.09268
G1 X91.951 Y64.047 E9.12643
G1 X92.235 Y63.56 E9.14518
G1 X92.701 Y62.834 E9.17388
M204 S2000
G0 F7500 X93.031 Y63.06
M204 S500
G1 F1500 X93.268 Y62.714 E9.18782
G1 X93.982 Y61.755 E9.22759
G1 X94.311 Y61.337 E9.24528
G1 X94.674 Y60.91 E9.26392
G1 X95.278 Y60.254 E9.29358
G1 X95.995 Y59.547 E9.32707
G1 X96.647 Y58.953 E9.35641
G1 X97.209 Y58.48 E9.38084
G1 X97.527 Y58.232 E9.39425
G1 X98.43 Y57.568 E9.43153
G1 X99.388 Y56.948 E9.46949
G1 X99.837 Y56.684 E9.48681
G1 X100.466 Y56.332 E9.51078
G1 X101.285 Y55.923 E9.54123
G1 X102.264 Y55.491 E9.57682
G1 X102.799 Y55.279 E9.59596
G1 X103.77 Y54.943 E9.63014
G1 X104.644 Y54.682 E9.66048
G1 X105.376 Y54.498 E9.68558
G1 X106.208 Y54.323 E9.71386
G1 X106.637 Y54.248 E9.72834
G1 X107.742 Y54.1 E9.76542
G1 X108.256 Y54.041 E9.78263
G1 X108.726 Y54.006 E9.79831
G1 X109.611 Y53.964 E9.82777
G1 X109.786 Y53.996 E9.83369
G1 X109.945 Y54.127 E9.84054
G1 X110.013 Y54.047 E9.84404
G1 X110.197 Y53.965 E9.85074
G1 X111.484 Y54.019 E9.89358
G1 X111.888 Y54.05 E9.90706
G1 X112.43 Y54.109 E9.92519
G1 X113.1 Y54.202 E9.94769
G1 X113.74 Y54.31 E9.96927
G1 X114.252 Y54.414 E9.98665
G1 X115.026 Y54.595 E10.01309
G1 X115.659 Y54.767 E10.03491
G1 X116.189 Y54.927 E10.05332
G1 X116.672 Y55.087 E10.07024
G1 X117.212 Y55.284 E10.08936
G1 X118.174 Y55.675 E10.1239
G1 X118.691 Y55.91 E10.14279
G1 X119.84 Y56.499 E10.18573
G1 X120.859 Y57.098 E10.22505
G1 X121.237 Y57.341 E10.23999
G1 X122.026 Y57.889 E10.27194
G1 X122.574 Y58.306 E10.29485
G1 X123.317 Y58.916 E10.32682
G1 X124.083 Y59.611 E10.36122
G1 X124.48 Y59.999 E10.37969
G1 X124.862 Y60.396 E10.39801
G1 X125.216 Y60.786 E10.41553
G1 X126.074 Y61.823 E10.46029
G1 X126.335 Y62.157 E10.47439
G1 X126.714 Y62.685 E10.49601
G1 X127.119 Y63.29 E10.52022
G1 X127.394 Y63.721 E10.53723
G1 X127.66 Y64.17 E10.55459
G1 X128.168 Y65.101 E10.58986
G1 X128.409 Y65.598 E10.60823
G1 X128.724 Y66.296 E10.6337
G1 X129.117 Y67.297 E10.66947
G1 X129.357 Y67.989 E10.69383
G1 X129.742 Y69.271 E10.73835
G1 X129.866 Y69.771 E10.75549
G1 X129.978 Y70.303 E10.77357
G1 X130.11 Y71.018 E10.79775
G1 X130.241 Y71.926 E10.82826
G1 X130.322 Y72.773 E10.85656
G1 X130.347 Y73.142 E10.86887
G1 X130.376 Y74.289 E10.90703
G1 X130.366 Y75.004 E10.93081
G1 X130.326 Y75.815 E10.95782
G1 X130.29 Y76.327 E10.97489
G1 X130.221 Y76.948 E10.99567
G1 X130.116 Y77.66 E11.01961
G1 X129.899 Y78.782 E11.05762
G1 X129.774 Y79.308 E11.0756
G1 X129.653 Y79.766 E11.09135
G1 X129.512 Y80.242 E11.10787
G1 X129.24 Y81.052 E11.13629
G1 X128.418 Y83.582 E11.22476
G1 X127.713 Y85.978 E11.30783
G1 X127.064 Y88.44 E11.39252
G1 X126.491 Y90.899 E11.47649
G1 X125.989 Y93.363 E11.56013
G1 X125.551 Y95.873 E11.64488
G1 X125.186 Y98.383 E11.72924
G1 X124.896 Y100.866 E11.81238
G1 X124.673 Y103.401 E11.89702
G1 X124.522 Y105.924 E11.98109
G1 X124.444 Y108.447 E12.06504
G1 X124.435 Y110.975 E12.14913
G1 X124.5 Y113.525 E12.23397
G1 X124.634 Y116.008 E12.31667
G1 X124.842 Y118.547 E12.4014
G1 X125.118 Y121.049 E12.48512
G1 X125.468 Y123.569 E12.56974
G1 X125.885 Y126.05 E12.65342
G1 X126.377 Y128.539 E12.73781
G1 X126.938 Y131.01 E12.82208
G1 X127.561 Y133.437 E12.90542
G1 X128.255 Y135.852 E12.989
G1 X129.041 Y138.271 E13.07359
G1 X129.604 Y140.092 E13.13699
G1 X129.742 Y140.573 E13.15363
G1 X129.866 Y141.073 E13.17077
G1 X129.978 Y141.605 E13.18885
G1 X130.11 Y142.325 E13.21319
G1 X130.238 Y143.199 E13.24257
G1 X130.291 Y143.703 E13.25943
G1 X130.341 Y144.331 E13.28038
G1 X130.36 Y144.79 E13.29566
G1 X130.376 Y145.591 E13.32231
G1 X130.365 Y146.309 E13.34619
G1 X130.301 Y147.49 E13.38553
G1 X130.221 Y148.25 E13.41095
G1 X130.116 Y148.962 E13.43489
G1 X129.899 Y150.084 E13.47289
G1 X129.773 Y150.614 E13.49101
G1 X129.552 Y151.419 E13.51878
G1 X129.167 Y152.566 E13.55902
G1 X128.91 Y153.241 E13.58304
G1 X128.459 Y154.297 E13.62123
G1 X128.212 Y154.809 E13.64014
G1 X127.82 Y155.549 E13.66799
G1 X127.396 Y156.273 E13.6959
G1 X127.118 Y156.71 E13.71313
G1 X126.511 Y157.606 E13.74912
G1 X125.958 Y158.333 E13.7795
G1 X125.134 Y159.297 E13.82168
G1 X124.802 Y159.664 E13.83814
G1 X124.378 Y160.097 E13.8583
G1 X123.769 Y160.677 E13.88627
G1 X123.061 Y161.303 E13.9177
G1 X122.458 Y161.784 E13.94336
G1 X122.124 Y162.028 E13.95712
G1 X121.098 Y162.745 E13.99875
G1 X120.734 Y162.979 E14.01314
G1 X119.904 Y163.464 E14.04511
G1 X119.164 Y163.859 E14.07301
G1 X118.465 Y164.192 E14.09877
G1 X117.715 Y164.518 E14.12597
G1 X117.26 Y164.699 E14.14225
G1 X116.516 Y164.966 E14.16854
G1 X115.718 Y165.218 E14.19638
G1 X115.34 Y165.315 E14.20936
G1 X115.252 Y165.348 E14.21248
G1 X114.468 Y165.538 E14.23931
G1 X113.139 Y165.786 E14.28428
G1 X112.325 Y165.903 E14.31163
G1 X111.769 Y165.959 E14.33022
G1 X111.263 Y165.996 E14.34709
G1 X110.734 Y166.021 E14.36471
G1 X110.031 Y166.031 E14.38809
G1 X109.223 Y166.008 E14.41498
G1 X108.469 Y165.966 E14.44009
G1 X107.549 Y165.883 E14.47082
G1 X106.892 Y165.793 E14.49287
G1 X106.001 Y165.635 E14.52297
G1 X105.209 Y165.459 E14.54995
G1 X104.514 Y165.274 E14.57387
G1 X103.651 Y165.013 E14.60386
G1 X103.13 Y164.841 E14.62211
G1 X102.62 Y164.653 E14.64019
G1 X101.91 Y164.361 E14.66572
G1 X101.159 Y164.018 E14.69318
G1 X100.67 Y163.776 E14.71133
G1 X100.154 Y163.499 E14.73081
G1 X99.295 Y162.996 E14.76392
G1 X98.866 Y162.726 E14.78078
G1 X98.473 Y162.458 E14.7966
G1 X97.794 Y161.972 E14.82437
G1 X97.136 Y161.462 E14.85206
G1 X96.417 Y160.85 E14.88346
G1 X96.05 Y160.514 E14.90001
G1 X95.589 Y160.066 E14.92139
G1 X95.024 Y159.477 E14.94854
G1 X94.641 Y159.051 E14.96759
G1 X93.991 Y158.266 E15.00149
G1 X93.51 Y157.631 E15.02799
G1 X93.179 Y157.16 E15.04713
G1 X92.594 Y156.259 E15.08286
G1 X92.246 Y155.665 E15.10576
G1 X91.924 Y155.065 E15.12841
G1 X91.359 Y153.894 E15.17165
G1 X91.143 Y153.395 E15.18974
G1 X90.902 Y152.774 E15.21189
G1 X90.554 Y151.754 E15.24774
G1 X90.331 Y150.999 E15.27392
G1 X90.207 Y150.518 E15.29044
G1 X90.076 Y149.95 E15.30983
G1 X89.971 Y149.439 E15.32718
G1 X89.824 Y148.528 E15.35787
G1 X89.735 Y147.838 E15.38101
G1 X89.683 Y147.296 E15.39912
G1 X89.634 Y146.433 E15.42787
G1 X89.623 Y145.771 E15.44989
G1 X89.65 Y144.508 E15.49191
G1 X89.697 Y143.86 E15.51352
G1 X89.801 Y142.901 E15.5456
G1 X89.924 Y142.118 E15.57197
G1 X90.017 Y141.631 E15.58846
G1 X90.175 Y140.898 E15.6134
G1 X90.302 Y140.402 E15.63043
G1 X90.569 Y139.497 E15.66181
G1 X91.597 Y136.341 E15.77221
G1 X92.303 Y133.929 E15.8558
G1 X92.955 Y131.445 E15.94121
G1 X93.513 Y129.039 E16.02336
G1 X94.023 Y126.526 E16.10865
G1 X94.46 Y124.012 E16.19352
G1 X94.817 Y121.536 E16.27672
G1 X95.107 Y119.026 E16.36076
G1 X95.325 Y116.53 E16.44409
G1 X95.474 Y113.97 E16.52938
G1 X95.55 Y111.464 E16.61277
G1 X95.556 Y108.911 E16.69768
G1 X95.489 Y106.417 E16.78066
G1 X95.351 Y103.879 E16.8652
G1 X95.14 Y101.341 E16.94991
G1 X94.862 Y98.846 E17.03341
G1 X94.511 Y96.345 E17.1174
G1 X94.089 Y93.852 E17.2015
G1 X93.591 Y91.346 E17.28648
G1 X93.034 Y88.901 E17.36989
G1 X92.404 Y86.461 E17.4537
G1 X91.695 Y84.001 E17.53885
G1 X90.967 Y81.718 E17.61855
G1 X90.695 Y80.903 E17.64713
G1 X90.462 Y80.152 E17.67328
G1 X90.321 Y79.662 E17.69024
G1 X90.079 Y78.659 E17.72456
G1 X89.974 Y78.155 E17.74168
G1 X89.775 Y76.87 E17.78493
G1 X89.691 Y76.1 E17.81069
G1 X89.634 Y75.131 E17.84298
