;FLAVOR:Marlin
;TIME:1038
;Filament used: 0.399337m
;Layer height: 0.2
;MINX:91.405
;MINY:91.39
;MINZ:0.2
;MAXX:128.619
;MAXY:128.602
;MAXZ:19
;TARGET_MACHINE.NAME:Creality Ender-3 S1 Pro
;Generated with Cura_SteamEngine 5.10.2
; Ender 3 S1 Pro Start G-code
; M413 S0 ; Disable power loss recovery
G92 E0 ; Reset Extruder

; Prep surfaces before auto home for better accuracy
M140 S60
M104 S200

G28 ; Home all axes
G1 Z10.0 F3000 ; Move Z Axis up little to prevent scratching of Heat Bed
G1 X0 Y0

M190 S60
M109 S200

G1 X0.1 Y20 Z0.3 F5000.0 ; Move to start position
G1 X0.1 Y200.0 Z0.3 F1500.0 E15 ; Draw the first line
G1 X0.4 Y200.0 Z0.3 F5000.0 ; Move to side a little
G1 X0.4 Y20 Z0.3 F1500.0 E30 ; Draw the second line
G92 E0 ; Reset Extruder
G1 Z2.0 F3000 ; Move Z Axis up little to prevent scratching of Heat Bed
G1 X5 Y20 Z0.3 F5000.0 ; Move over to prevent blob squish

M82 ;absolute extrusion mode
G92 E0
G92 E0
G1 F2400 E-0.8
;LAYER_COUNT:95
;LAYER:0
M107
M204 S2000
G0 F7500 X96.566 Y97.111 Z0.2
M204 S500
;TYPE:SKIRT
G1 F2400 E0
G1 F1500 X97.127 Y96.563 E0.02608
G1 X97.633 Y96.103 E0.04883
G1 X98.225 Y95.589 E0.0749
G1 X98.98 Y94.992 E0.10692
G1 X99.485 Y94.649 E0.12722
G1 X100.757 Y93.84 E0.17736
G1 X101.968 Y93.205 E0.22284
G1 X102.746 Y92.862 E0.25112
G1 X103.276 Y92.641 E0.27022
G1 X103.881 Y92.41 E0.29176
G1 X104.58 Y92.181 E0.31622
G1 X105.011 Y92.055 E0.33116
G1 X105.687 Y91.879 E0.35439
G1 X106.452 Y91.715 E0.38041
G1 X107.084 Y91.603 E0.40176
G1 X107.435 Y91.558 E0.41353
G1 X108.029 Y91.5 E0.43338
G1 X109.273 Y91.421 E0.47484
G1 X109.938 Y91.392 E0.49698
G1 X110.841 Y91.39 E0.52701
G1 X112.098 Y91.512 E0.56902
G1 X112.96 Y91.645 E0.59803
G1 X114.11 Y91.852 E0.63689
G1 X115.515 Y92.206 E0.68508
G1 X116.465 Y92.553 E0.71872
G1 X117.497 Y92.986 E0.75594
G1 X118.296 Y93.342 E0.78504
G1 X118.743 Y93.555 E0.80151
G1 X119.692 Y94.09 E0.83774
G1 X120.364 Y94.532 E0.86449
G1 X121.191 Y95.107 E0.89799
G1 X121.676 Y95.475 E0.91824
G1 X122.048 Y95.787 E0.93439
G1 X122.831 Y96.507 E0.96977
G1 X123.313 Y96.973 E0.99207
G1 X124.095 Y97.818 E1.03036
G1 X124.556 Y98.385 E1.05467
G1 X125.122 Y99.127 E1.08571
G1 X125.768 Y100.078 E1.12395
G1 X126.127 Y100.69 E1.14754
G1 X126.643 Y101.644 E1.18362
G1 X127.056 Y102.508 E1.21547
G1 X127.257 Y103.015 E1.23361
G1 X127.394 Y103.4 E1.2472
G1 X127.768 Y104.542 E1.28717
G1 X127.991 Y105.267 E1.3124
G1 X128.158 Y105.871 E1.33324
G1 X128.339 Y106.76 E1.36342
G1 X128.497 Y107.92 E1.40235
G1 X128.569 Y108.632 E1.42616
G1 X128.619 Y109.819 E1.46567
G1 X128.603 Y110.541 E1.48969
G1 X128.561 Y111.41 E1.51863
G1 X128.438 Y112.594 E1.55822
G1 X128.25 Y113.628 E1.59317
G1 X128.044 Y114.582 E1.62563
G1 X127.815 Y115.396 E1.65376
G1 X127.647 Y115.903 E1.67152
G1 X127.223 Y117.042 E1.71195
G1 X126.836 Y117.938 E1.74441
G1 X126.639 Y118.324 E1.75882
G1 X126.216 Y119.108 E1.78845
G1 X125.786 Y119.857 E1.81718
G1 X125.295 Y120.6 E1.8468
G1 X124.931 Y121.094 E1.86721
G1 X124.3 Y121.895 E1.90112
G1 X123.431 Y122.862 E1.94436
G1 X122.803 Y123.481 E1.97369
G1 X122.068 Y124.161 E2.007
G1 X121.28 Y124.794 E2.04061
G1 X120.696 Y125.213 E2.06452
G1 X119.928 Y125.729 E2.09529
G1 X119.243 Y126.15 E2.12204
G1 X118.712 Y126.432 E2.14203
G1 X118.311 Y126.623 E2.15681
G1 X117.157 Y127.132 E2.19876
G1 X116.396 Y127.45 E2.22619
G1 X115.548 Y127.761 E2.25623
G1 X114.941 Y127.935 E2.27723
G1 X113.905 Y128.179 E2.31263
G1 X113.303 Y128.301 E2.33306
G1 X112.038 Y128.481 E2.37556
G1 X110.74 Y128.58 E2.41886
G1 X110.032 Y128.602 E2.44242
G1 X109.062 Y128.575 E2.47469
G1 X108.411 Y128.527 E2.4964
G1 X107.545 Y128.44 E2.52535
G1 X106.649 Y128.307 E2.55548
G1 X105.648 Y128.094 E2.58952
G1 X104.749 Y127.845 E2.62054
G1 X103.804 Y127.535 E2.65362
G1 X103.322 Y127.364 E2.67063
G1 X103.229 Y127.316 E2.67411
G1 X102.212 Y126.9 E2.71066
G1 X101.519 Y126.557 E2.73638
G1 X100.617 Y126.069 E2.77049
G1 X99.582 Y125.421 E2.8111
G1 X99.091 Y125.07 E2.83118
G1 X98.027 Y124.252 E2.87581
G1 X97.455 Y123.736 E2.90144
G1 X97.392 Y123.692 E2.90399
G1 X96.686 Y122.994 E2.93701
G1 X96.257 Y122.543 E2.95772
G1 X95.442 Y121.58 E2.99968
G1 X94.881 Y120.833 E3.03075
G1 X94.508 Y120.308 E3.05217
G1 X93.835 Y119.206 E3.09511
G1 X93.389 Y118.368 E3.12669
G1 X93.056 Y117.698 E3.15157
G1 X92.689 Y116.851 E3.18228
G1 X92.376 Y116.006 E3.21225
G1 X92.101 Y115.093 E3.24396
G1 X91.849 Y114.086 E3.27849
G1 X91.69 Y113.358 E3.30327
G1 X91.509 Y112.068 E3.3466
G1 X91.476 Y111.601 E3.36217
G1 X91.424 Y110.425 E3.40132
G1 X91.405 Y109.671 E3.42641
G1 X91.443 Y108.474 E3.46624
G1 X91.523 Y107.76 E3.49013
G1 X91.591 Y107.277 E3.50636
G1 X91.734 Y106.42 E3.53526
G1 X91.906 Y105.606 E3.56293
G1 X92.152 Y104.706 E3.59396
G1 X92.455 Y103.8 E3.62573
G1 X92.755 Y103.019 E3.65356
G1 X92.991 Y102.447 E3.67414
G1 X93.433 Y101.516 E3.70842
G1 X93.724 Y100.969 E3.72903
G1 X94.214 Y100.14 E3.76105
G1 X94.58 Y99.613 E3.7824
G1 X95.482 Y98.404 E3.83257
G1 X95.93 Y97.841 E3.8565
G1 X96.566 Y97.111 E3.8887
M204 S2000
G0 F7500 X96.846 Y97.397
M204 S500
G1 F1500 X97.396 Y96.859 E3.91429
G1 X97.895 Y96.405 E3.93673
G1 X98.473 Y95.903 E3.96219
G1 X99.205 Y95.323 E3.99325
G1 X99.7 Y94.987 E4.01315
G1 X100.972 Y94.178 E4.06329
G1 X102.13 Y93.571 E4.10677
G1 X102.9 Y93.231 E4.13477
G1 X103.419 Y93.015 E4.15347
G1 X104.006 Y92.79 E4.17438
G1 X104.692 Y92.565 E4.19839
G1 X105.112 Y92.442 E4.21294
G1 X105.771 Y92.27 E4.2356
G1 X106.522 Y92.109 E4.26114
G1 X107.135 Y92 E4.28185
G1 X107.474 Y91.956 E4.29322
G1 X108.054 Y91.899 E4.3126
G1 X109.291 Y91.821 E4.35383
G1 X109.939 Y91.792 E4.3754
G1 X110.842 Y91.79 E4.40544
G1 X112.037 Y91.907 E4.44537
G1 X112.889 Y92.039 E4.47405
G1 X114.039 Y92.246 E4.51291
G1 X115.378 Y92.582 E4.55883
G1 X116.31 Y92.922 E4.59183
G1 X117.334 Y93.351 E4.62875
G1 X118.124 Y93.703 E4.65752
G1 X118.571 Y93.916 E4.67399
G1 X119.472 Y94.424 E4.70839
G1 X120.136 Y94.86 E4.73481
G1 X120.95 Y95.426 E4.76778
G1 X121.419 Y95.781 E4.78735
G1 X121.777 Y96.082 E4.8029
G1 X122.553 Y96.795 E4.83796
G1 X123.019 Y97.245 E4.8595
G1 X123.801 Y98.09 E4.89779
G1 X124.238 Y98.628 E4.92085
G1 X124.791 Y99.352 E4.95115
G1 X125.437 Y100.303 E4.98939
G1 X125.775 Y100.881 E5.01166
G1 X126.282 Y101.817 E5.04706
G1 X126.684 Y102.656 E5.07801
G1 X126.88 Y103.149 E5.09565
G1 X127.014 Y103.525 E5.10893
G1 X127.386 Y104.66 E5.14865
G1 X127.606 Y105.374 E5.1735
G1 X127.766 Y105.951 E5.19342
G1 X127.947 Y106.84 E5.22359
G1 X128.099 Y107.96 E5.26119
G1 X128.169 Y108.649 E5.28422
G1 X128.219 Y109.836 E5.32373
G1 X128.203 Y110.522 E5.34656
G1 X128.163 Y111.369 E5.37476
G1 X128.04 Y112.553 E5.41435
G1 X127.859 Y113.544 E5.44786
G1 X127.659 Y114.474 E5.4795
G1 X127.435 Y115.27 E5.507
G1 X127.272 Y115.763 E5.52427
G1 X126.848 Y116.902 E5.56469
G1 X126.48 Y117.756 E5.59562
G1 X126.287 Y118.134 E5.60974
G1 X125.869 Y118.909 E5.63903
G1 X125.452 Y119.636 E5.6669
G1 X124.961 Y120.379 E5.69652
G1 X124.617 Y120.846 E5.71581
G1 X123.986 Y121.647 E5.74973
G1 X123.15 Y122.577 E5.79132
G1 X122.531 Y123.187 E5.82023
G1 X121.796 Y123.867 E5.85353
G1 X121.046 Y124.469 E5.88552
G1 X120.473 Y124.881 E5.90899
G1 X119.719 Y125.388 E5.93921
G1 X119.034 Y125.809 E5.96595
G1 X118.54 Y126.071 E5.98455
G1 X118.149 Y126.257 E5.99895
G1 X117.003 Y126.763 E6.04062
G1 X116.258 Y127.074 E6.06747
G1 X115.41 Y127.385 E6.09751
G1 X114.849 Y127.546 E6.11692
G1 X113.825 Y127.787 E6.15191
G1 X113.246 Y127.905 E6.17157
G1 X112.007 Y128.082 E6.21319
G1 X110.727 Y128.18 E6.25589
G1 X110.043 Y128.202 E6.27865
G1 X109.091 Y128.176 E6.31033
G1 X108.451 Y128.129 E6.33167
G1 X107.604 Y128.044 E6.35998
G1 X106.708 Y127.911 E6.39011
G1 X105.754 Y127.708 E6.42255
G1 X104.874 Y127.465 E6.45292
G1 X103.938 Y127.158 E6.48568
G1 X103.456 Y126.987 E6.50269
G1 X103.412 Y126.959 E6.50443
G1 X102.364 Y126.53 E6.54209
G1 X101.709 Y126.205 E6.56641
G1 X100.829 Y125.73 E6.59967
G1 X99.814 Y125.095 E6.63949
G1 X99.335 Y124.753 E6.65907
G1 X98.295 Y123.955 E6.70267
G1 X97.704 Y123.422 E6.72914
G1 X97.673 Y123.407 E6.73028
G1 X96.975 Y122.718 E6.7629
G1 X96.562 Y122.285 E6.7828
G1 X95.762 Y121.34 E6.82399
G1 X95.207 Y120.601 E6.85472
G1 X94.834 Y120.076 E6.87614
G1 X94.188 Y119.018 E6.91738
G1 X93.747 Y118.19 E6.94858
G1 X93.423 Y117.539 E6.97276
G1 X93.064 Y116.712 E7.00275
G1 X92.759 Y115.89 E7.03191
G1 X92.489 Y114.996 E7.06297
G1 X92.24 Y114.001 E7.09709
G1 X92.081 Y113.273 E7.12187
G1 X91.908 Y112.04 E7.16328
G1 X91.876 Y111.583 E7.17852
G1 X91.824 Y110.415 E7.2174
G1 X91.805 Y109.684 E7.24173
G1 X91.843 Y108.487 E7.28156
G1 X91.919 Y107.816 E7.30402
G1 X91.986 Y107.342 E7.31994
G1 X92.125 Y106.503 E7.34823
G1 X92.292 Y105.711 E7.37515
G1 X92.531 Y104.833 E7.40541
G1 X92.828 Y103.944 E7.43659
G1 X93.125 Y103.172 E7.4641
G1 X93.361 Y102.6 E7.48468
G1 X93.786 Y101.704 E7.51766
G1 X94.069 Y101.172 E7.5377
G1 X94.543 Y100.368 E7.56875
G1 X94.901 Y99.852 E7.58964
G1 X95.795 Y98.653 E7.63938
G1 X96.232 Y98.103 E7.66274
G1 X96.846 Y97.397 E7.69386
M204 S2000
G0 F7500 X97.126 Y97.683
M204 S500
G1 F1500 X97.665 Y97.155 E7.71896
G1 X98.158 Y96.707 E7.74112
G1 X98.722 Y96.216 E7.76599
G1 X99.43 Y95.654 E7.79605
G1 X99.915 Y95.324 E7.81556
G1 X101.158 Y94.532 E7.86458
G1 X102.292 Y93.937 E7.90718
G1 X103.054 Y93.6 E7.93489
G1 X103.562 Y93.388 E7.9532
G1 X104.13 Y93.17 E7.97343
G1 X104.805 Y92.949 E7.99706
G1 X105.213 Y92.829 E8.0112
G1 X105.855 Y92.661 E8.03327
G1 X106.592 Y92.503 E8.05834
G1 X107.187 Y92.397 E8.07845
G1 X107.513 Y92.354 E8.08938
G1 X108.079 Y92.298 E8.1083
G1 X109.309 Y92.221 E8.14929
G1 X109.94 Y92.192 E8.1703
G1 X110.843 Y92.19 E8.20033
G1 X111.976 Y92.302 E8.2382
G1 X112.818 Y92.433 E8.26654
G1 X113.968 Y92.64 E8.30541
G1 X115.241 Y92.958 E8.34905
G1 X116.156 Y93.291 E8.38143
G1 X117.171 Y93.716 E8.41803
G1 X117.953 Y94.064 E8.4465
G1 X118.375 Y94.264 E8.46203
G1 X119.253 Y94.759 E8.49556
G1 X119.908 Y95.188 E8.5216
G1 X120.709 Y95.745 E8.55405
G1 X121.162 Y96.088 E8.57295
G1 X121.506 Y96.376 E8.58787
G1 X122.275 Y97.083 E8.62261
G1 X122.725 Y97.517 E8.64341
G1 X123.507 Y98.362 E8.6817
G1 X123.92 Y98.871 E8.7035
G1 X124.46 Y99.577 E8.73306
G1 X125.106 Y100.528 E8.7713
G1 X125.423 Y101.072 E8.79224
G1 X125.921 Y101.99 E8.82698
G1 X126.312 Y102.804 E8.85701
G1 X126.503 Y103.284 E8.8742
G1 X126.634 Y103.65 E8.88713
G1 X127.004 Y104.778 E8.92661
G1 X127.221 Y105.481 E8.95108
G1 X127.374 Y106.031 E8.97007
G1 X127.555 Y106.92 E9.00024
G1 X127.701 Y108.001 E9.03652
G1 X127.769 Y108.666 E9.05876
G1 X127.819 Y109.853 E9.09827
G1 X127.803 Y110.504 E9.11993
G1 X127.765 Y111.328 E9.14737
G1 X127.646 Y112.481 E9.18592
G1 X127.468 Y113.46 E9.21901
G1 X127.274 Y114.366 E9.24983
G1 X127.055 Y115.145 E9.27674
G1 X126.897 Y115.624 E9.29352
G1 X126.481 Y116.744 E9.33326
G1 X126.124 Y117.574 E9.36331
G1 X125.935 Y117.944 E9.37713
G1 X125.522 Y118.71 E9.40607
G1 X125.118 Y119.415 E9.4331
G1 X124.627 Y120.158 E9.46272
G1 X124.303 Y120.599 E9.48092
G1 X123.688 Y121.38 E9.51398
G1 X122.869 Y122.292 E9.55475
G1 X122.259 Y122.894 E9.58326
G1 X121.546 Y123.555 E9.6156
G1 X120.812 Y124.144 E9.6469
G1 X120.25 Y124.549 E9.66994
G1 X119.51 Y125.047 E9.6996
G1 X118.825 Y125.468 E9.72635
G1 X118.368 Y125.71 E9.74355
G1 X117.987 Y125.891 E9.75757
G1 X116.849 Y126.394 E9.79896
G1 X116.12 Y126.698 E9.82523
G1 X115.272 Y127.009 E9.85527
G1 X114.757 Y127.157 E9.87309
G1 X113.745 Y127.395 E9.90767
G1 X113.189 Y127.509 E9.92655
G1 X111.976 Y127.683 E9.9673
G1 X110.714 Y127.78 E10.0094
G1 X110.054 Y127.802 E10.03137
G1 X109.12 Y127.777 E10.06244
G1 X108.491 Y127.731 E10.08342
G1 X107.663 Y127.648 E10.1111
G1 X106.767 Y127.515 E10.14122
G1 X105.86 Y127.322 E10.17207
G1 X104.999 Y127.085 E10.20177
G1 X104.072 Y126.781 E10.23422
G1 X103.59 Y126.61 E10.25123
G1 X103.593 Y126.601 E10.25154
G1 X102.516 Y126.16 E10.29025
G1 X101.899 Y125.853 E10.31317
G1 X101.041 Y125.391 E10.34558
G1 X100.046 Y124.769 E10.38461
G1 X99.578 Y124.436 E10.40371
G1 X98.563 Y123.658 E10.44625
G1 X97.961 Y123.115 E10.47321
G1 X97.954 Y123.122 E10.47354
G1 X97.264 Y122.441 E10.50579
G1 X96.867 Y122.026 E10.52489
G1 X96.082 Y121.1 E10.56527
G1 X95.533 Y120.369 E10.59567
G1 X95.16 Y119.844 E10.61709
G1 X94.541 Y118.83 E10.65661
G1 X94.105 Y118.012 E10.68744
G1 X93.79 Y117.38 E10.71092
G1 X93.439 Y116.572 E10.74022
G1 X93.142 Y115.774 E10.76854
G1 X92.877 Y114.899 E10.79895
G1 X92.631 Y113.916 E10.83265
G1 X92.472 Y113.188 E10.85744
G1 X92.307 Y112.012 E10.89693
G1 X92.276 Y111.565 E10.91184
G1 X92.224 Y110.404 E10.95049
G1 X92.205 Y109.697 E10.97402
G1 X92.243 Y108.5 E11.01385
G1 X92.315 Y107.872 E11.03487
G1 X92.381 Y107.407 E11.05049
G1 X92.52 Y106.568 E11.07878
G1 X92.678 Y105.816 E11.10434
G1 X92.91 Y104.96 E11.13383
G1 X93.201 Y104.088 E11.16441
G1 X93.495 Y103.325 E11.19161
G1 X93.731 Y102.753 E11.21219
G1 X94.139 Y101.892 E11.24388
G1 X94.414 Y101.375 E11.26335
G1 X94.872 Y100.596 E11.29341
G1 X95.222 Y100.091 E11.31384
G1 X96.108 Y98.902 E11.36316
G1 X96.534 Y98.365 E11.38596
G1 X97.126 Y97.683 E11.416
M204 S2000
G1 F2400 E10.616
;MESH:obj_6_belladator.stl
G0 F7500 X102.954 Y105.638
G0 X110 Y116.87
M204 S500
;TYPE:WALL-INNER
G1 F2400 E11.416
G1 F909.1 X110.951 Y116.819 E11.46826
G1 F890.2 X111.966 Y116.581 E11.52669
G1 F911.9 X112.387 Y116.432 E11.55112
G1 F931.7 X113.465 Y115.946 E11.61444
G1 F905 X114.269 Y115.405 E11.66787
G1 F898.2 X115.088 Y114.641 E11.73008
G1 F909.1 X115.607 Y113.983 E11.77607
G1 F906.3 X115.762 Y113.763 E11.79088
G1 F914.6 X116.102 Y113.183 E11.82756
G1 F911.9 X116.28 Y112.818 E11.84978
G1 F906.3 X116.561 Y112.089 E11.89278
G1 F910.5 X116.647 Y111.808 E11.90888
G1 F914.6 X116.774 Y111.231 E11.94111
G1 F913.2 X116.846 Y110.771 E11.96655
G1 F916 X116.884 Y110.293 E11.99266
G1 F913.2 X116.887 Y109.705 E12.02478
G1 F902.3 X116.86 Y109.362 E12.04381
G1 F887.6 X116.752 Y108.661 E12.08368
G1 F914.6 X116.555 Y107.907 E12.12619
G1 F906.3 X116.244 Y107.106 E12.17348
G1 F854.7 X115.815 Y106.263 E12.2287
G1 F892.9 X115.309 Y105.594 E12.27557
G1 F898.2 X115.102 Y105.354 E12.29317
G1 F881.1 X114.39 Y104.661 E12.34943
G1 F911.9 X113.737 Y104.196 E12.39329
G1 F914.6 X113.456 Y104.025 E12.41124
G1 F937.5 X112.62 Y103.631 E12.46042
G1 F967.7 X112.001 Y103.386 E12.49474
G1 F900.9 X110.386 Y103.121 E12.58537
G1 F905 X109.967 Y103.112 E12.60847
G1 F924.5 X108.79 Y103.202 E12.67218
G1 F882.4 X108.28 Y103.326 E12.70185
G1 X107.71 Y103.491 E12.7354
G1 F891.5 X106.779 Y103.903 E12.79238
G1 F905 X106.53 Y104.043 E12.80812
G1 F914.6 X105.834 Y104.493 E12.85333
G1 F900.9 X105.085 Y105.161 E12.90891
G1 F925.9 X104.897 Y105.374 E12.92422
G1 F952.4 X104.231 Y106.241 E12.98149
G1 F921.7 X104.077 Y106.472 E12.99652
G1 F888.9 X103.842 Y106.912 E13.02452
G1 F906.3 X103.644 Y107.339 E13.05042
G1 F916 X103.413 Y107.94 E13.08549
G1 F865.8 X103.313 Y108.422 E13.11386
G1 F823 X103.164 Y109.459 E13.17736
G1 F888.9 X103.131 Y110.261 E13.22241
G1 F906.3 X103.215 Y111.082 E13.26784
G1 F857.1 X103.415 Y112.068 E13.3264
G1 F874.6 X103.63 Y112.619 E13.36014
G1 F902.3 X103.863 Y113.13 E13.39119
G1 F905 X104.103 Y113.563 E13.41848
G1 F902.3 X104.392 Y113.991 E13.44704
G1 F888.9 X104.731 Y114.419 E13.47769
G1 X105.292 Y115.025 E13.52404
G1 F909.1 X105.478 Y115.2 E13.53805
G1 F913.2 X105.751 Y115.417 E13.5571
G1 F910.5 X106.337 Y115.83 E13.59639
G1 F905 X106.586 Y115.973 E13.61222
G1 F896.9 X107.281 Y116.319 E13.6554
G1 F899.6 X107.641 Y116.462 E13.67689
G1 F923.1 X108.418 Y116.708 E13.72094
G1 F895.5 X108.812 Y116.772 E13.74317
G1 F882.4 X109.868 Y116.877 E13.80318
G1 F899.6 X110 Y116.87 E13.81051
M204 S2000
G0 F7500 X110 Y116.348
M204 S500
;TYPE:WALL-OUTER
