;FLAVOR:Marlin
;TIME:2562
;Filament used: 1.81573m
;Layer height: 0.2
;MINX:86.197
;MINY:86.199
;MINZ:0.2
;MAXX:133.804
;MAXY:133.801
;MAXZ:25.4
;TARGET_MACHINE.NAME:Creality Ender-3 S1 Pro
;Generated with Cura_SteamEngine 5.10.2
; Ender 3 S1 Pro Start G-code
; M413 S0 ; Disable power loss recovery
G92 E0 ; Reset Extruder

; Prep surfaces before auto home for better accuracy
M140 S60
M104 S200

G28 ; Home all axes
G1 Z10.0 F3000 ; Move Z Axis up little to prevent scratching of Heat Bed
G1 X0 Y0

M190 S60
M109 S200

G1 X0.1 Y20 Z0.3 F5000.0 ; Move to start position
G1 X0.1 Y200.0 Z0.3 F1500.0 E15 ; Draw the first line
G1 X0.4 Y200.0 Z0.3 F5000.0 ; Move to side a little
G1 X0.4 Y20 Z0.3 F1500.0 E30 ; Draw the second line
G92 E0 ; Reset Extruder
G1 Z2.0 F3000 ; Move Z Axis up little to prevent scratching of Heat Bed
G1 X5 Y20 Z0.3 F5000.0 ; Move over to prevent blob squish

M82 ;absolute extrusion mode
G92 E0
G92 E0
G1 F2400 E-0.8
;LAYER_COUNT:127
;LAYER:0
M107
M204 S2000
G0 F7500 X93.181 Y93.157 Z0.2
M204 S500
;TYPE:SKIRT
G1 F2400 E0
G1 F1500 X93.853 Y92.51 E0.03103
G1 X94.423 Y92.001 E0.05644
G1 X95.063 Y91.468 E0.08415
G1 X95.572 Y91.07 E0.10564
G1 X96.197 Y90.606 E0.13153
G1 X96.933 Y90.103 E0.16118
G1 X97.721 Y89.608 E0.19213
G1 X98.419 Y89.204 E0.21895
G1 X99.252 Y88.762 E0.25031
G1 X100.031 Y88.385 E0.2791
G1 X100.773 Y88.058 E0.30607
G1 X101.673 Y87.702 E0.33826
G1 X102.506 Y87.408 E0.36764
G1 X103.226 Y87.18 E0.39276
G1 X103.628 Y87.067 E0.40665
G1 X104.621 Y86.812 E0.44075
G1 X105.315 Y86.662 E0.46436
G1 X106.345 Y86.478 E0.49916
G1 X106.756 Y86.419 E0.51297
G1 X107.574 Y86.321 E0.54037
G1 X108.57 Y86.24 E0.57361
G1 X109.323 Y86.206 E0.59868
G1 X110.313 Y86.199 E0.63161
G1 X111.074 Y86.221 E0.65693
G1 X112.048 Y86.287 E0.6894
G1 X112.454 Y86.325 E0.70296
G1 X113.274 Y86.423 E0.73043
G1 X114.094 Y86.552 E0.75804
G1 X114.712 Y86.668 E0.77895
G1 X115.409 Y86.82 E0.80268
G1 X116.399 Y87.073 E0.83667
G1 X117.162 Y87.299 E0.86313
G1 X117.983 Y87.576 E0.89195
G1 X118.894 Y87.921 E0.92435
G1 X119.648 Y88.239 E0.95157
G1 X120.427 Y88.603 E0.98017
G1 X121.27 Y89.034 E1.01166
G1 X121.952 Y89.414 E1.03763
G1 X122.303 Y89.623 E1.05121
G1 X123.093 Y90.121 E1.08227
G1 X123.827 Y90.624 E1.11187
G1 X124.446 Y91.083 E1.1375
G1 X124.956 Y91.484 E1.15908
G1 X125.599 Y92.019 E1.1869
G1 X126.169 Y92.53 E1.21236
G1 X126.841 Y93.179 E1.24343
G1 X127.544 Y93.913 E1.27724
G1 X127.825 Y94.222 E1.29113
G1 X128.229 Y94.693 E1.31177
G1 X128.675 Y95.241 E1.33527
G1 X129.064 Y95.744 E1.35642
G1 X129.719 Y96.667 E1.39406
G1 X130.332 Y97.618 E1.43169
G1 X130.717 Y98.278 E1.4571
G1 X131.087 Y98.96 E1.48291
G1 X131.383 Y99.539 E1.50454
G1 X131.812 Y100.469 E1.5386
G1 X132.115 Y101.194 E1.56474
G1 X132.459 Y102.121 E1.59763
G1 X132.594 Y102.512 E1.61138
G1 X132.872 Y103.403 E1.64243
G1 X133.198 Y104.679 E1.68623
G1 X133.366 Y105.455 E1.71264
G1 X133.51 Y106.279 E1.74046
G1 X133.649 Y107.29 E1.7744
G1 X133.71 Y107.877 E1.79403
G1 X133.782 Y109.004 E1.83159
G1 X133.798 Y109.44 E1.8461
G1 X133.804 Y110.168 E1.87032
G1 X133.78 Y111.005 E1.89817
G1 X133.74 Y111.74 E1.92265
G1 X133.689 Y112.357 E1.94324
G1 X133.562 Y113.372 E1.97726
G1 X133.432 Y114.187 E2.00471
G1 X133.266 Y115.025 E2.03313
G1 X133.036 Y115.99 E2.06612
G1 X132.927 Y116.401 E2.08026
G1 X132.723 Y117.092 E2.10423
G1 X132.446 Y117.923 E2.13336
G1 X132.119 Y118.799 E2.16446
G1 X131.797 Y119.563 E2.19204
G1 X131.533 Y120.146 E2.21332
G1 X131.256 Y120.716 E2.2344
G1 X130.716 Y121.722 E2.27238
G1 X130.316 Y122.406 E2.29873
G1 X129.913 Y123.042 E2.32377
G1 X129.69 Y123.374 E2.33708
G1 X129.13 Y124.165 E2.36931
G1 X128.836 Y124.556 E2.38558
G1 X128.241 Y125.294 E2.41711
G1 X127.797 Y125.811 E2.43978
G1 X127.13 Y126.527 E2.47232
G1 X126.819 Y126.843 E2.48707
G1 X126.147 Y127.49 E2.5181
G1 X125.577 Y127.999 E2.54351
G1 X124.937 Y128.532 E2.57122
G1 X124.428 Y128.93 E2.59271
G1 X123.809 Y129.39 E2.61836
G1 X123.469 Y129.627 E2.63214
G1 X122.741 Y130.108 E2.66116
G1 X122.042 Y130.532 E2.68835
G1 X121.474 Y130.854 E2.71007
G1 X120.767 Y131.229 E2.73669
G1 X119.962 Y131.618 E2.76642
G1 X119.227 Y131.942 E2.79314
G1 X118.327 Y132.298 E2.82533
G1 X117.494 Y132.592 E2.85471
G1 X116.774 Y132.82 E2.87983
G1 X116.372 Y132.933 E2.89372
G1 X115.379 Y133.188 E2.92782
G1 X114.685 Y133.338 E2.95143
G1 X113.655 Y133.522 E2.98623
G1 X113.244 Y133.581 E3.00004
G1 X112.426 Y133.679 E3.02745
G1 X111.43 Y133.76 E3.06068
G1 X110.683 Y133.792 E3.08555
G1 X109.687 Y133.801 E3.11868
G1 X108.926 Y133.779 E3.144
G1 X107.952 Y133.713 E3.17647
G1 X107.546 Y133.675 E3.19003
G1 X106.726 Y133.577 E3.2175
G1 X105.906 Y133.448 E3.24511
G1 X105.288 Y133.332 E3.26602
G1 X104.591 Y133.18 E3.28975
G1 X103.601 Y132.927 E3.32374
G1 X102.838 Y132.701 E3.3502
G1 X102.017 Y132.424 E3.37902
G1 X101.106 Y132.079 E3.41142
G1 X100.352 Y131.761 E3.43864
G1 X99.557 Y131.39 E3.46782
G1 X98.845 Y131.027 E3.4944
G1 X97.937 Y130.52 E3.52899
G1 X97.235 Y130.092 E3.55634
G1 X96.507 Y129.61 E3.58537
G1 X95.85 Y129.141 E3.61222
G1 X95.044 Y128.516 E3.64615
G1 X94.401 Y127.981 E3.67397
G1 X93.831 Y127.47 E3.69943
G1 X93.159 Y126.821 E3.7305
G1 X92.438 Y126.068 E3.76518
G1 X91.998 Y125.576 E3.78713
G1 X91.741 Y125.273 E3.80034
G1 X91.15 Y124.536 E3.83176
G1 X90.854 Y124.145 E3.84807
G1 X90.299 Y123.358 E3.8801
G1 X90.076 Y123.025 E3.89343
G1 X89.668 Y122.382 E3.91876
G1 X89.283 Y121.722 E3.94418
G1 X88.913 Y121.04 E3.96998
G1 X88.617 Y120.459 E3.99167
G1 X88.181 Y119.514 E4.02629
G1 X87.873 Y118.778 E4.05282
G1 X87.55 Y117.911 E4.08359
G1 X87.276 Y117.091 E4.11235
G1 X87.064 Y116.372 E4.13728
G1 X86.959 Y115.97 E4.1511
G1 X86.728 Y114.995 E4.18443
G1 X86.562 Y114.155 E4.21291
G1 X86.432 Y113.332 E4.24062
G1 X86.317 Y112.395 E4.27202
G1 X86.247 Y111.556 E4.30002
G1 X86.204 Y110.598 E4.33192
G1 X86.197 Y109.876 E4.35593
G1 X86.222 Y108.965 E4.38624
G1 X86.259 Y108.285 E4.40889
G1 X86.311 Y107.661 E4.42972
G1 X86.358 Y107.243 E4.44371
G1 X86.494 Y106.247 E4.47714
G1 X86.639 Y105.426 E4.50487
G1 X86.73 Y104.991 E4.51965
G1 X86.974 Y103.969 E4.5546
G1 X87.167 Y103.267 E4.57882
G1 X87.428 Y102.443 E4.60756
G1 X87.751 Y101.542 E4.6394
G1 X88.031 Y100.835 E4.66469
G1 X88.467 Y99.854 E4.7004
G1 X88.737 Y99.298 E4.72095
G1 X89.28 Y98.286 E4.75915
G1 X89.488 Y97.921 E4.77313
G1 X89.851 Y97.323 E4.79639
G1 X90.291 Y96.653 E4.82305
G1 X90.712 Y96.051 E4.84749
G1 X91.108 Y95.516 E4.86962
G1 X91.783 Y94.679 E4.90539
G1 X92.197 Y94.196 E4.92655
G1 X92.873 Y93.47 E4.95954
G1 X93.181 Y93.157 E4.97414
M204 S2000
G0 F7500 X93.459 Y93.445
M204 S500
G1 F1500 X94.12 Y92.808 E5.00468
G1 X94.679 Y92.308 E5.02962
G1 X95.309 Y91.783 E5.0569
G1 X95.81 Y91.391 E5.07806
G1 X96.423 Y90.936 E5.10345
G1 X97.146 Y90.442 E5.13257
G1 X97.922 Y89.954 E5.16306
G1 X98.606 Y89.557 E5.18936
G1 X99.426 Y89.122 E5.22024
G1 X100.193 Y88.751 E5.24858
G1 X100.92 Y88.43 E5.27501
G1 X101.806 Y88.079 E5.3067
G1 X102.627 Y87.789 E5.33566
G1 X103.335 Y87.565 E5.36036
G1 X103.728 Y87.454 E5.37395
G1 X104.705 Y87.203 E5.4075
G1 X105.386 Y87.056 E5.43067
G1 X106.402 Y86.874 E5.465
G1 X106.803 Y86.816 E5.47847
G1 X107.607 Y86.72 E5.50541
G1 X108.588 Y86.64 E5.53814
G1 X109.326 Y86.606 E5.56271
G1 X110.302 Y86.599 E5.59518
G1 X111.047 Y86.62 E5.61997
G1 X112.011 Y86.685 E5.6521
G1 X112.407 Y86.722 E5.66533
G1 X113.212 Y86.818 E5.69229
G1 X114.02 Y86.945 E5.7195
G1 X114.627 Y87.059 E5.74004
G1 X115.31 Y87.207 E5.76328
G1 X116.286 Y87.457 E5.79679
G1 X117.034 Y87.678 E5.82274
G1 X117.841 Y87.95 E5.85106
G1 X118.739 Y88.29 E5.883
G1 X119.479 Y88.602 E5.90971
G1 X120.245 Y88.959 E5.93782
G1 X121.075 Y89.383 E5.96881
G1 X121.748 Y89.758 E5.99444
G1 X122.09 Y89.961 E6.00767
G1 X122.867 Y90.451 E6.03822
G1 X123.589 Y90.945 E6.06732
G1 X124.199 Y91.397 E6.09257
G1 X124.7 Y91.791 E6.11377
G1 X125.332 Y92.317 E6.14112
G1 X125.891 Y92.818 E6.16608
G1 X126.552 Y93.456 E6.19664
G1 X127.248 Y94.182 E6.23009
G1 X127.521 Y94.482 E6.24358
G1 X127.919 Y94.946 E6.26391
G1 X128.359 Y95.486 E6.28708
G1 X128.738 Y95.976 E6.30768
G1 X129.386 Y96.889 E6.34492
G1 X129.613 Y97.23 E6.35855
G1 X129.986 Y97.82 E6.38176
G1 X130.371 Y98.48 E6.40718
G1 X130.731 Y99.142 E6.43224
G1 X131.02 Y99.707 E6.45335
G1 X131.443 Y100.623 E6.4869
G1 X131.74 Y101.333 E6.5125
G1 X132.081 Y102.252 E6.5451
G1 X132.212 Y102.631 E6.55844
G1 X132.486 Y103.507 E6.58897
G1 X132.6 Y103.929 E6.60351
G1 X132.807 Y104.764 E6.63212
G1 X132.972 Y105.524 E6.65799
G1 X133.114 Y106.333 E6.68531
G1 X133.251 Y107.332 E6.71884
G1 X133.311 Y107.902 E6.73791
G1 X133.382 Y109.019 E6.77513
G1 X133.398 Y109.443 E6.78925
G1 X133.404 Y110.157 E6.81299
G1 X133.381 Y110.983 E6.84048
G1 X133.341 Y111.707 E6.8646
G1 X133.292 Y112.307 E6.88462
G1 X133.167 Y113.309 E6.9182
G1 X133.04 Y114.109 E6.94514
G1 X132.877 Y114.932 E6.97305
G1 X132.649 Y115.888 E7.00574
G1 X132.543 Y116.288 E7.0195
G1 X132.339 Y116.979 E7.04346
G1 X132.071 Y117.783 E7.07165
G1 X131.75 Y118.644 E7.10221
G1 X131.433 Y119.398 E7.12942
G1 X131.173 Y119.971 E7.15035
G1 X130.903 Y120.527 E7.1709
G1 X130.371 Y121.52 E7.20837
G1 X129.978 Y122.192 E7.23427
G1 X129.58 Y122.82 E7.25899
G1 X129.364 Y123.143 E7.27192
G1 X128.811 Y123.924 E7.30375
G1 X128.524 Y124.305 E7.31961
G1 X127.938 Y125.033 E7.3507
G1 X127.504 Y125.538 E7.37284
G1 X126.837 Y126.254 E7.40539
G1 X126.541 Y126.555 E7.41943
G1 X125.88 Y127.192 E7.44996
G1 X125.321 Y127.692 E7.47491
G1 X124.691 Y128.217 E7.50218
G1 X124.19 Y128.609 E7.52334
G1 X123.58 Y129.062 E7.54861
G1 X123.249 Y129.293 E7.56204
G1 X122.533 Y129.766 E7.59058
G1 X121.845 Y130.184 E7.61735
G1 X121.286 Y130.501 E7.63873
G1 X120.593 Y130.869 E7.66482
G1 X119.8 Y131.252 E7.69411
G1 X119.08 Y131.57 E7.72029
G1 X118.194 Y131.921 E7.75199
G1 X117.373 Y132.211 E7.78095
G1 X116.665 Y132.435 E7.80565
G1 X116.272 Y132.546 E7.81923
G1 X115.295 Y132.797 E7.85278
G1 X114.614 Y132.944 E7.87595
G1 X113.598 Y133.126 E7.91028
G1 X113.197 Y133.184 E7.92376
G1 X112.393 Y133.28 E7.95069
G1 X111.412 Y133.36 E7.98343
G1 X110.674 Y133.394 E8.008
G1 X109.698 Y133.401 E8.04046
G1 X108.953 Y133.38 E8.06525
G1 X107.989 Y133.315 E8.09739
G1 X107.593 Y133.278 E8.11062
G1 X106.788 Y133.182 E8.13758
G1 X105.98 Y133.055 E8.16478
G1 X105.373 Y132.941 E8.18533
G1 X104.69 Y132.793 E8.20857
G1 X103.714 Y132.543 E8.24208
G1 X102.966 Y132.322 E8.26802
G1 X102.159 Y132.05 E8.29635
G1 X101.261 Y131.71 E8.32828
G1 X100.521 Y131.398 E8.35499
G1 X99.739 Y131.034 E8.38368
G1 X99.04 Y130.678 E8.40977
G1 X98.145 Y130.178 E8.44387
G1 X97.455 Y129.758 E8.47074
G1 X96.739 Y129.285 E8.49928
G1 X96.095 Y128.825 E8.5256
G1 X95.3 Y128.209 E8.55905
G1 X94.668 Y127.683 E8.5864
G1 X94.109 Y127.182 E8.61137
G1 X93.448 Y126.544 E8.64192
G1 X92.736 Y125.801 E8.67615
G1 X92.303 Y125.317 E8.69775
G1 X92.053 Y125.023 E8.71058
G1 X91.469 Y124.295 E8.74163
G1 X91.181 Y123.914 E8.75751
G1 X90.631 Y123.135 E8.78923
G1 X90.414 Y122.811 E8.8022
G1 X90.014 Y122.18 E8.82705
G1 X89.629 Y121.52 E8.85246
G1 X89.269 Y120.858 E8.87752
G1 X88.98 Y120.292 E8.89866
G1 X88.55 Y119.359 E8.93283
G1 X88.248 Y118.638 E8.95883
G1 X87.929 Y117.784 E8.98915
G1 X87.66 Y116.978 E9.01741
G1 X87.451 Y116.27 E9.04196
G1 X87.348 Y115.878 E9.05544
G1 X87.12 Y114.917 E9.08829
G1 X86.957 Y114.093 E9.11623
G1 X86.829 Y113.283 E9.14351
G1 X86.716 Y112.362 E9.17437
G1 X86.647 Y111.538 E9.20187
G1 X86.604 Y110.594 E9.2333
G1 X86.597 Y109.887 E9.25682
G1 X86.621 Y108.987 E9.28676
G1 X86.658 Y108.318 E9.30905
G1 X86.708 Y107.706 E9.32947
G1 X86.754 Y107.297 E9.34316
G1 X86.888 Y106.317 E9.37606
G1 X87.031 Y105.507 E9.40342
G1 X87.119 Y105.084 E9.41779
G1 X87.36 Y104.075 E9.45229
G1 X87.553 Y103.373 E9.4765
G1 X87.804 Y102.578 E9.50423
G1 X88.123 Y101.689 E9.53565
G1 X88.397 Y100.997 E9.5604
G1 X88.827 Y100.029 E9.59563
G1 X89.097 Y99.473 E9.61619
G1 X89.628 Y98.484 E9.65352
G1 X89.83 Y98.129 E9.66711
G1 X90.193 Y97.531 E9.69038
G1 X90.619 Y96.882 E9.7162
G1 X91.034 Y96.289 E9.74027
G1 X91.42 Y95.767 E9.76186
G1 X92.087 Y94.939 E9.79723
G1 X92.49 Y94.469 E9.81782
G1 X93.166 Y93.743 E9.85081
G1 X93.459 Y93.445 E9.86471
M204 S2000
G0 F7500 X93.737 Y93.733
M204 S500
G1 F1500 X94.387 Y93.106 E9.89475
G1 X94.935 Y92.615 E9.91922
G1 X95.556 Y92.098 E9.9461
G1 X96.048 Y91.712 E9.9669
G1 X96.649 Y91.266 E9.99179
G1 X97.359 Y90.781 E10.02039
G1 X98.123 Y90.3 E10.05042
G1 X98.794 Y89.91 E10.07623
G1 X99.6 Y89.482 E10.10658
G1 X100.354 Y89.117 E10.13444
G1 X101.068 Y88.802 E10.1604
G1 X101.939 Y88.456 E10.19157
G1 X102.747 Y88.17 E10.22008
G1 X103.444 Y87.95 E10.24439
G1 X103.827 Y87.841 E10.25763
G1 X104.789 Y87.594 E10.29067
G1 X105.457 Y87.45 E10.3134
G1 X106.46 Y87.27 E10.34729
G1 X106.85 Y87.213 E10.3604
G1 X107.64 Y87.119 E10.38686
G1 X108.607 Y87.04 E10.41913
G1 X109.329 Y87.006 E10.44317
G1 X110.291 Y86.999 E10.47517
G1 X111.02 Y87.019 E10.49942
G1 X111.974 Y87.083 E10.53122
G1 X112.36 Y87.119 E10.54412
G1 X113.15 Y87.213 E10.57058
G1 X113.946 Y87.338 E10.59738
G1 X114.543 Y87.45 E10.61758
G1 X115.211 Y87.594 E10.64031
G1 X116.173 Y87.841 E10.67334
G1 X116.906 Y88.057 E10.69876
G1 X117.699 Y88.324 E10.72659
G1 X118.584 Y88.659 E10.75806
G1 X119.31 Y88.965 E10.78427
G1 X120.063 Y89.315 E10.81189
G1 X120.88 Y89.732 E10.84239
G1 X121.544 Y90.102 E10.86768
G1 X121.877 Y90.3 E10.88056
G1 X122.641 Y90.781 E10.91059
G1 X123.351 Y91.266 E10.93919
G1 X123.952 Y91.712 E10.96408
G1 X124.444 Y92.098 E10.98488
G1 X125.065 Y92.615 E11.01175
G1 X125.613 Y93.106 E11.03623
G1 X126.263 Y93.733 E11.06626
G1 X126.952 Y94.451 E11.09936
G1 X127.217 Y94.742 E11.11245
G1 X127.609 Y95.199 E11.13248
G1 X128.043 Y95.731 E11.15531
G1 X128.412 Y96.208 E11.17537
G1 X129.053 Y97.111 E11.2122
G1 X129.275 Y97.443 E11.22549
G1 X129.64 Y98.022 E11.24825
G1 X130.025 Y98.682 E11.27366
G1 X130.375 Y99.324 E11.29799
G1 X130.657 Y99.875 E11.31857
G1 X131.074 Y100.778 E11.35165
G1 X131.365 Y101.472 E11.37668
G1 X131.703 Y102.382 E11.40897
G1 X131.83 Y102.751 E11.42195
G1 X132.1 Y103.611 E11.45193
G1 X132.212 Y104.025 E11.46619
G1 X132.416 Y104.849 E11.49443
G1 X132.578 Y105.594 E11.51979
G1 X132.718 Y106.387 E11.54657
G1 X132.853 Y107.374 E11.5797
G1 X132.912 Y107.927 E11.5982
G1 X132.982 Y109.035 E11.63513
G1 X132.998 Y109.446 E11.64881
G1 X133.004 Y110.146 E11.67209
G1 X132.982 Y110.961 E11.69921
G1 X132.942 Y111.675 E11.72299
G1 X132.895 Y112.258 E11.74244
G1 X132.772 Y113.247 E11.77559
G1 X132.648 Y114.031 E11.80199
G1 X132.488 Y114.839 E11.82939
G1 X132.263 Y115.785 E11.86173
G1 X132.159 Y116.175 E11.87516
G1 X131.955 Y116.866 E11.89912
G1 X131.696 Y117.643 E11.92636
G1 X131.381 Y118.489 E11.95638
G1 X131.069 Y119.233 E11.98322
G1 X130.813 Y119.797 E12.00382
G1 X130.551 Y120.338 E12.02381
G1 X130.025 Y121.318 E12.0608
G1 X129.64 Y121.978 E12.08622
G1 X129.248 Y122.597 E12.11059
G1 X129.037 Y122.912 E12.1232
G1 X128.492 Y123.683 E12.1546
G1 X128.212 Y124.054 E12.17006
G1 X127.635 Y124.772 E12.2007
G1 X127.211 Y125.265 E12.22232
G1 X126.544 Y125.981 E12.25487
G1 X126.263 Y126.267 E12.26821
G1 X125.613 Y126.894 E12.29824
G1 X125.065 Y127.385 E12.32272
G1 X124.444 Y127.902 E12.34959
G1 X123.952 Y128.288 E12.37039
G1 X123.351 Y128.734 E12.39528
G1 X123.029 Y128.959 E12.40835
G1 X122.325 Y129.424 E12.43641
G1 X121.647 Y129.836 E12.4628
G1 X121.098 Y130.148 E12.4838
G1 X120.419 Y130.509 E12.50938
G1 X119.639 Y130.886 E12.53819
G1 X118.932 Y131.198 E12.56389
G1 X118.061 Y131.544 E12.59507
G1 X117.253 Y131.83 E12.62357
G1 X116.556 Y132.05 E12.64788
G1 X116.173 Y132.159 E12.66113
G1 X115.211 Y132.406 E12.69416
G1 X114.543 Y132.55 E12.71689
G1 X113.54 Y132.73 E12.75078
