;FLAVOR:Marlin
;TIME:2559
;Filament used: 1.21855m
;Layer height: 0.2
;MINX:90.419
;MINY:90.426
;MINZ:0.2
;MAXX:129.579
;MAXY:129.582
;MAXZ:46.4
;TARGET_MACHINE.NAME:Creality Ender-3 S1 Pro
;Generated with Cura_SteamEngine 5.10.2
; Ender 3 S1 Pro Start G-code
; M413 S0 ; Disable power loss recovery
G92 E0 ; Reset Extruder

; Prep surfaces before auto home for better accuracy
M140 S60
M104 S200

G28 ; Home all axes
G1 Z10.0 F3000 ; Move Z Axis up little to prevent scratching of Heat Bed
G1 X0 Y0

M190 S60
M109 S200

G1 X0.1 Y20 Z0.3 F5000.0 ; Move to start position
G1 X0.1 Y200.0 Z0.3 F1500.0 E15 ; Draw the first line
G1 X0.4 Y200.0 Z0.3 F5000.0 ; Move to side a little
G1 X0.4 Y20 Z0.3 F1500.0 E30 ; Draw the second line
G92 E0 ; Reset Extruder
G1 Z2.0 F3000 ; Move Z Axis up little to prevent scratching of Heat Bed
G1 X5 Y20 Z0.3 F5000.0 ; Move over to prevent blob squish

M82 ;absolute extrusion mode
G92 E0
G92 E0
G1 F2400 E-0.8
;LAYER_COUNT:232
;LAYER:0
M107
M204 S2000
G0 F7500 X96.15 Y96.158 Z0.2
M204 S500
;TYPE:SKIRT
G1 F2400 E0
G1 F1500 X96.551 Y95.769 E0.01858
G1 X97.068 Y95.293 E0.04196
G1 X97.713 Y94.751 E0.06998
G1 X98.437 Y94.197 E0.1003
G1 X98.896 Y93.872 E0.119
G1 X99.731 Y93.328 E0.15215
G1 X100.385 Y92.941 E0.17743
G1 X101.008 Y92.606 E0.20095
G1 X101.451 Y92.385 E0.21742
G1 X102.274 Y92.008 E0.24753
G1 X102.846 Y91.774 E0.26808
G1 X103.311 Y91.597 E0.28463
G1 X103.78 Y91.438 E0.3011
G1 X104.688 Y91.156 E0.33272
G1 X105.515 Y90.944 E0.36112
G1 X106.067 Y90.819 E0.37994
G1 X106.576 Y90.722 E0.39718
G1 X107.428 Y90.59 E0.42585
G1 X108.062 Y90.517 E0.44708
G1 X109.026 Y90.445 E0.47923
G1 X109.578 Y90.426 E0.4976
G1 X110.567 Y90.427 E0.5305
G1 X111.199 Y90.454 E0.55154
G1 X112.19 Y90.54 E0.58462
G1 X113.051 Y90.658 E0.61353
G1 X114.005 Y90.833 E0.64579
G1 X114.93 Y91.049 E0.67738
G1 X115.512 Y91.21 E0.69746
G1 X116.445 Y91.51 E0.73006
G1 X117.395 Y91.87 E0.76385
G1 X118.033 Y92.142 E0.78692
G1 X118.744 Y92.48 E0.8131
G1 X119.585 Y92.926 E0.84476
G1 X120.109 Y93.232 E0.86495
G1 X120.954 Y93.776 E0.89837
G1 X121.04 Y93.85 E0.90214
G1 X121.499 Y94.158 E0.92053
G1 X122.412 Y94.858 E0.95879
G1 X122.802 Y95.185 E0.97572
G1 X123.456 Y95.775 E1.00502
G1 X124.132 Y96.447 E1.03672
G1 X124.571 Y96.923 E1.05826
G1 X124.896 Y97.292 E1.07461
G1 X125.36 Y97.856 E1.0989
G1 X125.79 Y98.42 E1.12249
G1 X126.067 Y98.806 E1.13829
G1 X126.384 Y99.277 E1.15718
G1 X126.665 Y99.721 E1.17465
G1 X127.077 Y100.416 E1.20153
G1 X127.517 Y101.244 E1.23271
G1 X127.835 Y101.918 E1.2575
G1 X128.048 Y102.41 E1.27533
G1 X128.409 Y103.331 E1.30823
G1 X128.636 Y103.991 E1.33145
G1 X128.86 Y104.734 E1.35726
G1 X128.993 Y105.24 E1.37466
G1 X129.153 Y105.934 E1.39835
G1 X129.298 Y106.694 E1.42408
G1 X129.381 Y107.211 E1.4415
G1 X129.502 Y108.312 E1.47834
G1 X129.55 Y108.993 E1.50104
G1 X129.579 Y110.037 E1.53578
G1 X129.552 Y111.029 E1.56879
G1 X129.519 Y111.549 E1.58612
G1 X129.451 Y112.249 E1.60951
G1 X129.34 Y113.059 E1.6367
G1 X129.168 Y113.982 E1.66793
G1 X129.044 Y114.561 E1.68762
G1 X128.792 Y115.506 E1.72015
G1 X128.487 Y116.456 E1.75334
G1 X128.324 Y116.904 E1.76919
G1 X127.95 Y117.823 E1.80219
G1 X127.728 Y118.315 E1.82015
G1 X127.456 Y118.873 E1.84079
G1 X127.002 Y119.712 E1.87252
G1 X126.529 Y120.495 E1.90295
G1 X126.172 Y121.036 E1.92451
G1 X125.638 Y121.775 E1.95483
G1 X125.356 Y122.143 E1.97025
G1 X124.926 Y122.669 E1.99285
G1 X124.513 Y123.143 E2.01376
G1 X123.84 Y123.85 E2.04622
G1 X123.46 Y124.221 E2.06389
G1 X122.886 Y124.744 E2.08971
G1 X122.324 Y125.217 E2.11415
G1 X121.932 Y125.527 E2.13077
G1 X121.431 Y125.899 E2.15152
G1 X120.723 Y126.384 E2.18007
G1 X119.927 Y126.878 E2.21122
G1 X119.447 Y127.152 E2.22961
G1 X118.753 Y127.517 E2.25569
G1 X118.044 Y127.849 E2.28173
G1 X117.3 Y128.167 E2.30864
G1 X116.814 Y128.356 E2.32598
G1 X116.041 Y128.625 E2.3532
G1 X115.493 Y128.795 E2.37229
G1 X114.576 Y129.039 E2.40385
G1 X113.933 Y129.181 E2.42575
G1 X113.098 Y129.334 E2.45398
G1 X112.181 Y129.459 E2.48477
G1 X111.543 Y129.519 E2.50608
G1 X110.586 Y129.572 E2.53796
G1 X109.914 Y129.582 E2.56031
G1 X108.969 Y129.551 E2.59176
G1 X108.13 Y129.488 E2.61974
G1 X107.483 Y129.415 E2.6414
G1 X106.922 Y129.337 E2.66024
G1 X106.368 Y129.242 E2.67893
G1 X105.654 Y129.093 E2.70319
G1 X104.964 Y128.922 E2.72684
G1 X104.448 Y128.777 E2.74466
G1 X103.614 Y128.511 E2.77378
G1 X103.073 Y128.315 E2.79292
G1 X102.559 Y128.112 E2.8113
G1 X102.04 Y127.891 E2.83006
G1 X101.249 Y127.516 E2.85917
G1 X100.763 Y127.263 E2.8774
G1 X99.892 Y126.766 E2.91075
G1 X99.354 Y126.432 E2.93181
G1 X98.665 Y125.966 E2.95948
G1 X98.223 Y125.642 E2.97771
G1 X97.684 Y125.222 E3.00043
G1 X96.954 Y124.601 E3.03231
G1 X96.57 Y124.249 E3.04964
G1 X95.977 Y123.666 E3.0773
G1 X95.528 Y123.188 E3.09911
G1 X95.172 Y122.786 E3.11697
G1 X94.728 Y122.255 E3.13999
G1 X94.312 Y121.715 E3.16266
G1 X93.938 Y121.195 E3.18397
G1 X93.587 Y120.678 E3.20475
G1 X93.298 Y120.221 E3.22273
G1 X92.976 Y119.676 E3.24379
G1 X92.585 Y118.951 E3.27118
G1 X92.364 Y118.506 E3.28771
G1 X92.032 Y117.786 E3.31408
G1 X91.794 Y117.208 E3.33487
G1 X91.635 Y116.791 E3.34971
G1 X91.401 Y116.117 E3.37344
G1 X91.226 Y115.563 E3.39277
G1 X90.999 Y114.732 E3.42142
G1 X90.853 Y114.099 E3.44303
G1 X90.673 Y113.149 E3.47519
G1 X90.599 Y112.644 E3.49216
G1 X90.526 Y112.018 E3.51312
G1 X90.471 Y111.386 E3.53422
G1 X90.436 Y110.816 E3.55322
G1 X90.419 Y110.04 E3.57903
G1 X90.425 Y109.479 E3.59769
G1 X90.444 Y109.002 E3.61357
G1 X90.518 Y108.04 E3.64566
G1 X90.583 Y107.477 E3.66451
G1 X90.706 Y106.665 E3.69183
G1 X90.846 Y105.939 E3.71642
G1 X91.068 Y105.002 E3.74845
G1 X91.206 Y104.504 E3.76563
G1 X91.395 Y103.899 E3.78671
G1 X91.708 Y103.014 E3.81794
G1 X92.062 Y102.148 E3.84905
G1 X92.334 Y101.554 E3.87078
G1 X92.755 Y100.726 E3.90168
G1 X93.231 Y99.89 E3.93367
G1 X93.72 Y99.121 E3.96398
G1 X94.364 Y98.223 E4.00074
G1 X94.665 Y97.83 E4.0172
G1 X95.12 Y97.279 E4.04097
G1 X95.495 Y96.848 E4.05997
G1 X96.15 Y96.158 E4.09162
M204 S2000
G0 F7500 X96.429 Y96.445
M204 S500
G1 F1500 X96.822 Y96.063 E4.10984
G1 X97.326 Y95.599 E4.13263
G1 X97.956 Y95.069 E4.16001
G1 X98.669 Y94.523 E4.18988
G1 X99.114 Y94.207 E4.20803
G1 X99.935 Y93.672 E4.24063
G1 X100.575 Y93.293 E4.26537
G1 X101.186 Y92.964 E4.28845
G1 X101.618 Y92.749 E4.3045
G1 X102.426 Y92.378 E4.33407
G1 X102.988 Y92.148 E4.35426
G1 X103.44 Y91.976 E4.37035
G1 X103.899 Y91.82 E4.38647
G1 X104.807 Y91.538 E4.4181
G1 X105.603 Y91.334 E4.44543
G1 X106.143 Y91.212 E4.46384
G1 X106.637 Y91.117 E4.48057
G1 X107.474 Y90.987 E4.50874
G1 X108.092 Y90.916 E4.52943
G1 X109.04 Y90.845 E4.56105
G1 X109.578 Y90.826 E4.57896
G1 X110.55 Y90.827 E4.61129
G1 X111.164 Y90.853 E4.63173
G1 X112.155 Y90.939 E4.66481
G1 X112.979 Y91.051 E4.69247
G1 X113.914 Y91.222 E4.72408
G1 X114.824 Y91.435 E4.75517
G1 X115.39 Y91.591 E4.7747
G1 X116.308 Y91.886 E4.80677
G1 X116.767 Y92.053 E4.82301
G1 X117.238 Y92.238 E4.83984
G1 X117.861 Y92.503 E4.86236
G1 X118.557 Y92.834 E4.88799
G1 X119.383 Y93.271 E4.91908
G1 X119.892 Y93.568 E4.93868
G1 X120.737 Y94.112 E4.9721
G1 X120.782 Y94.158 E4.97424
G1 X121.276 Y94.49 E4.99404
G1 X122.155 Y95.164 E5.03088
G1 X122.534 Y95.482 E5.04733
G1 X123.174 Y96.059 E5.07599
G1 X123.838 Y96.718 E5.10711
G1 X124.271 Y97.187 E5.12834
G1 X124.587 Y97.546 E5.14425
G1 X125.042 Y98.098 E5.16804
G1 X125.465 Y98.653 E5.19125
G1 X125.735 Y99.029 E5.20665
G1 X126.046 Y99.491 E5.22517
G1 X126.321 Y99.925 E5.24226
G1 X126.724 Y100.604 E5.26852
G1 X127.155 Y101.415 E5.29907
G1 X127.468 Y102.077 E5.32342
G1 X127.676 Y102.556 E5.34079
G1 X128.031 Y103.461 E5.37312
G1 X128.253 Y104.106 E5.39581
G1 X128.473 Y104.836 E5.42117
G1 X128.603 Y105.33 E5.43816
G1 X128.76 Y106.009 E5.46134
G1 X128.903 Y106.757 E5.48667
G1 X128.983 Y107.255 E5.50344
G1 X129.103 Y108.34 E5.53975
G1 X129.15 Y109.004 E5.56189
G1 X129.179 Y110.026 E5.5959
G1 X129.153 Y111.004 E5.62844
G1 X129.121 Y111.511 E5.64533
G1 X129.055 Y112.195 E5.66819
G1 X128.947 Y112.986 E5.69474
G1 X128.777 Y113.898 E5.7256
G1 X128.657 Y114.458 E5.74465
G1 X128.411 Y115.384 E5.77651
G1 X128.111 Y116.319 E5.80917
G1 X127.953 Y116.753 E5.82453
G1 X127.585 Y117.659 E5.85706
G1 X127.368 Y118.14 E5.87461
G1 X127.104 Y118.683 E5.89469
G1 X126.66 Y119.505 E5.92577
G1 X126.195 Y120.275 E5.95568
G1 X125.848 Y120.802 E5.97667
G1 X125.32 Y121.532 E6.00663
G1 X125.046 Y121.89 E6.02163
G1 X124.625 Y122.406 E6.04378
G1 X124.223 Y122.867 E6.06412
G1 X123.56 Y123.564 E6.09612
G1 X123.19 Y123.926 E6.11333
G1 X122.629 Y124.438 E6.1386
G1 X122.076 Y124.903 E6.16263
G1 X121.693 Y125.206 E6.17887
G1 X121.205 Y125.569 E6.1991
G1 X120.512 Y126.044 E6.22704
G1 X119.728 Y126.531 E6.25774
G1 X119.261 Y126.798 E6.27563
G1 X118.583 Y127.155 E6.30112
G1 X117.887 Y127.481 E6.32668
G1 X117.155 Y127.794 E6.35316
G1 X116.682 Y127.978 E6.37004
G1 X115.923 Y128.243 E6.39678
G1 X115.39 Y128.408 E6.41534
G1 X114.473 Y128.652 E6.4469
G1 X113.861 Y128.788 E6.46775
G1 X113.044 Y128.938 E6.49538
G1 X112.143 Y129.061 E6.52562
G1 X111.521 Y129.12 E6.5464
G1 X110.58 Y129.172 E6.57775
G1 X109.927 Y129.182 E6.59947
G1 X108.999 Y129.152 E6.63035
G1 X108.175 Y129.091 E6.65783
G1 X107.538 Y129.019 E6.67915
G1 X106.99 Y128.943 E6.69755
G1 X106.45 Y128.85 E6.71578
G1 X105.736 Y128.701 E6.74004
G1 X105.072 Y128.537 E6.76279
G1 X104.569 Y128.396 E6.78016
G1 X103.75 Y128.135 E6.80875
G1 X103.22 Y127.943 E6.8275
G1 X102.716 Y127.744 E6.84552
G1 X102.211 Y127.529 E6.86378
G1 X101.433 Y127.161 E6.8924
G1 X100.961 Y126.916 E6.91009
G1 X100.103 Y126.426 E6.94295
G1 X99.578 Y126.101 E6.96349
G1 X98.901 Y125.643 E6.99068
G1 X98.469 Y125.327 E7.00848
G1 X97.943 Y124.917 E7.03066
G1 X97.224 Y124.306 E7.06204
G1 X96.85 Y123.964 E7.0789
G1 X96.268 Y123.392 E7.10604
G1 X95.827 Y122.923 E7.12745
G1 X95.479 Y122.53 E7.14491
G1 X95.045 Y122.01 E7.16744
G1 X94.637 Y121.482 E7.18963
G1 X94.269 Y120.97 E7.2106
G1 X93.925 Y120.464 E7.23095
G1 X93.642 Y120.017 E7.24855
G1 X93.328 Y119.486 E7.26907
G1 X92.943 Y118.773 E7.29602
G1 X92.727 Y118.339 E7.31214
G1 X92.402 Y117.634 E7.33796
G1 X92.168 Y117.065 E7.35843
G1 X92.013 Y116.659 E7.37288
G1 X91.782 Y115.996 E7.39623
G1 X91.612 Y115.458 E7.415
G1 X91.389 Y114.642 E7.44313
G1 X91.246 Y114.025 E7.4642
G1 X91.069 Y113.09 E7.49585
G1 X90.996 Y112.597 E7.51243
G1 X90.924 Y111.983 E7.53299
G1 X90.87 Y111.362 E7.55372
G1 X90.836 Y110.807 E7.57221
G1 X90.819 Y110.044 E7.5976
G1 X90.825 Y109.495 E7.61586
G1 X90.843 Y109.032 E7.63127
G1 X90.915 Y108.086 E7.66283
G1 X90.978 Y107.537 E7.6812
G1 X91.099 Y106.74 E7.70802
G1 X91.235 Y106.031 E7.73203
G1 X91.453 Y105.109 E7.76354
G1 X91.588 Y104.623 E7.78032
G1 X91.772 Y104.032 E7.8009
G1 X92.078 Y103.165 E7.83148
G1 X92.426 Y102.314 E7.86206
G1 X92.691 Y101.735 E7.88324
G1 X93.103 Y100.924 E7.9135
G1 X93.569 Y100.105 E7.94484
G1 X94.058 Y99.336 E7.97515
G1 X94.681 Y98.466 E8.01074
G1 X94.973 Y98.085 E8.0267
G1 X95.422 Y97.542 E8.05014
G1 X95.797 Y97.111 E8.06914
G1 X96.429 Y96.445 E8.09968
M204 S2000
G0 F7500 X96.708 Y96.732
M204 S500
G1 F1500 X97.093 Y96.357 E8.11755
G1 X97.584 Y95.905 E8.13975
G1 X98.214 Y95.375 E8.16713
G1 X98.9 Y94.849 E8.19588
G1 X99.333 Y94.542 E8.21354
G1 X100.139 Y94.016 E8.24555
G1 X100.764 Y93.645 E8.26972
G1 X101.365 Y93.322 E8.29242
G1 X101.785 Y93.112 E8.30804
G1 X102.577 Y92.748 E8.33703
G1 X103.131 Y92.522 E8.35693
G1 X103.569 Y92.355 E8.37252
G1 X104.018 Y92.202 E8.38829
G1 X104.926 Y91.92 E8.41992
G1 X105.691 Y91.724 E8.44618
G1 X106.219 Y91.605 E8.46419
G1 X106.699 Y91.512 E8.48045
G1 X107.519 Y91.384 E8.50805
G1 X108.122 Y91.315 E8.52824
G1 X109.055 Y91.245 E8.55936
G1 X109.578 Y91.226 E8.57676
G1 X110.533 Y91.227 E8.60853
G1 X111.129 Y91.252 E8.62837
G1 X112.12 Y91.338 E8.66145
G1 X112.907 Y91.445 E8.68787
G1 X113.823 Y91.612 E8.71884
G1 X114.718 Y91.821 E8.74941
G1 X115.274 Y91.974 E8.76859
G1 X115.653 Y92.089 E8.78176
G1 X116.172 Y92.262 E8.79995
G1 X116.621 Y92.425 E8.81584
G1 X117.082 Y92.606 E8.83231
G1 X117.689 Y92.864 E8.85425
G1 X118.37 Y93.188 E8.87933
G1 X119.182 Y93.617 E8.90988
G1 X119.675 Y93.904 E8.92885
G1 X120.52 Y94.448 E8.96228
G1 X120.513 Y94.459 E8.96271
G1 X121.053 Y94.822 E8.98435
G1 X121.898 Y95.47 E9.01977
G1 X122.266 Y95.779 E9.03575
G1 X122.892 Y96.343 E9.06378
G1 X123.544 Y96.989 E9.0943
G1 X123.971 Y97.451 E9.11523
G1 X124.279 Y97.801 E9.13074
G1 X124.724 Y98.34 E9.15398
G1 X125.14 Y98.886 E9.17681
G1 X125.403 Y99.252 E9.1918
G1 X125.708 Y99.705 E9.20997
G1 X125.977 Y100.129 E9.22667
G1 X126.371 Y100.792 E9.25232
G1 X126.793 Y101.586 E9.28223
G1 X127.101 Y102.237 E9.30618
G1 X127.304 Y102.702 E9.32306
G1 X127.653 Y103.591 E9.35482
G1 X127.87 Y104.222 E9.37701
G1 X128.086 Y104.938 E9.40189
G1 X128.213 Y105.42 E9.41847
G1 X128.367 Y106.084 E9.44114
G1 X128.508 Y106.82 E9.46606
G1 X128.585 Y107.299 E9.4822
G1 X128.704 Y108.368 E9.51797
G1 X128.75 Y109.016 E9.53958
G1 X128.779 Y110.016 E9.57285
G1 X128.754 Y110.979 E9.60489
G1 X128.723 Y111.473 E9.62136
G1 X128.659 Y112.141 E9.64368
G1 X128.554 Y112.913 E9.66959
G1 X128.386 Y113.814 E9.70007
G1 X128.269 Y114.36 E9.71865
G1 X128.028 Y115.268 E9.74989
G1 X127.908 Y115.663 E9.76362
G1 X127.735 Y116.182 E9.78182
G1 X127.582 Y116.603 E9.79672
G1 X127.22 Y117.495 E9.82873
G1 X127.008 Y117.965 E9.84588
G1 X126.752 Y118.493 E9.8654
G1 X126.318 Y119.298 E9.89582
G1 X125.861 Y120.055 E9.92523
G1 X125.524 Y120.568 E9.94564
G1 X125.003 Y121.289 E9.97523
G1 X124.736 Y121.637 E9.98982
G1 X124.323 Y122.143 E10.01154
G1 X123.933 Y122.591 E10.0313
G1 X123.28 Y123.278 E10.06282
G1 X122.92 Y123.631 E10.07959
G1 X122.371 Y124.132 E10.10431
G1 X121.828 Y124.589 E10.12792
G1 X121.454 Y124.885 E10.14378
G1 X120.979 Y125.239 E10.16348
G1 X120.301 Y125.704 E10.19083
G1 X119.53 Y126.184 E10.22104
G1 X119.074 Y126.444 E10.23849
G1 X118.413 Y126.793 E10.26336
G1 X117.73 Y127.113 E10.28844
G1 X117.01 Y127.421 E10.31449
G1 X116.55 Y127.6 E10.33091
G1 X115.805 Y127.861 E10.35716
G1 X115.287 Y128.021 E10.37519
G1 X114.37 Y128.265 E10.40675
G1 X113.789 Y128.395 E10.42656
G1 X112.99 Y128.542 E10.45358
G1 X112.105 Y128.663 E10.48329
G1 X111.499 Y128.721 E10.50353
G1 X110.574 Y128.772 E10.53435
G1 X109.94 Y128.782 E10.55544
G1 X109.028 Y128.753 E10.58578
G1 X108.22 Y128.694 E10.61273
G1 X107.593 Y128.623 E10.63372
G1 X107.058 Y128.549 E10.65168
G1 X106.531 Y128.458 E10.66947
G1 X105.832 Y128.313 E10.69321
G1 X105.18 Y128.152 E10.71555
G1 X104.69 Y128.015 E10.73247
G1 X103.886 Y127.759 E10.76054
G1 X103.367 Y127.571 E10.7789
G1 X102.873 Y127.376 E10.79656
G1 X102.382 Y127.167 E10.81431
G1 X101.617 Y126.806 E10.84244
G1 X101.159 Y126.569 E10.85959
G1 X100.313 Y126.086 E10.892
G1 X99.802 Y125.77 E10.91198
G1 X99.137 Y125.32 E10.93868
G1 X98.715 Y125.012 E10.95606
G1 X98.202 Y124.612 E10.9777
G1 X97.494 Y124.011 E11.00859
G1 X97.13 Y123.678 E11.02499
G1 X96.559 Y123.118 E11.0516
G1 X96.126 Y122.658 E11.07261
G1 X95.786 Y122.274 E11.08967
G1 X95.362 Y121.766 E11.11167
G1 X94.962 Y121.248 E11.13344
G1 X94.6 Y120.745 E11.15405
G1 X94.263 Y120.25 E11.17397
G1 X93.986 Y119.813 E11.19118
G1 X93.68 Y119.296 E11.21116
G1 X93.301 Y118.595 E11.23767
G1 X93.09 Y118.171 E11.25342
G1 X92.772 Y117.482 E11.27866
G1 X92.542 Y116.922 E11.29879
G1 X92.391 Y116.527 E11.31286
G1 X92.163 Y115.875 E11.33583
G1 X91.998 Y115.353 E11.35404
G1 X91.779 Y114.551 E11.38169
G1 X91.639 Y113.951 E11.40218
G1 X91.465 Y113.031 E11.43332
G1 X91.393 Y112.55 E11.4495
G1 X91.322 Y111.948 E11.46966
G1 X91.269 Y111.338 E11.49003
G1 X91.236 Y110.798 E11.50802
G1 X91.219 Y110.048 E11.53297
G1 X91.225 Y109.51 E11.55087
