;FLAVOR:Marlin
;TIME:2556
;Filament used: 1.04438m
;Layer height: 0.2
;MINX:91.707
;MINY:91.707
;MINZ:0.2
;MAXX:128.293
;MAXY:128.29
;MAXZ:48.8
;TARGET_MACHINE.NAME:Creality Ender-3 S1 Pro
;Generated with Cura_SteamEngine 5.10.2
; Ender 3 S1 Pro Start G-code
; M413 S0 ; Disable power loss recovery
G92 E0 ; Reset Extruder

; Prep surfaces before auto home for better accuracy
M140 S60
M104 S200

G28 ; Home all axes
G1 Z10.0 F3000 ; Move Z Axis up little to prevent scratching of Heat Bed
G1 X0 Y0

M190 S60
M109 S200

G1 X0.1 Y20 Z0.3 F5000.0 ; Move to start position
G1 X0.1 Y200.0 Z0.3 F1500.0 E15 ; Draw the first line
G1 X0.4 Y200.0 Z0.3 F5000.0 ; Move to side a little
G1 X0.4 Y20 Z0.3 F1500.0 E30 ; Draw the second line
G92 E0 ; Reset Extruder
G1 Z2.0 F3000 ; Move Z Axis up little to prevent scratching of Heat Bed
G1 X5 Y20 Z0.3 F5000.0 ; Move over to prevent blob squish

M82 ;absolute extrusion mode
G92 E0
G92 E0
G1 F2400 E-0.8
;LAYER_COUNT:244
;LAYER:0
M107
M204 S2000
G0 F7500 X97.059 Y97.069 Z0.2
M204 S500
;TYPE:SKIRT
G1 F2400 E0
G1 F1500 X97.42 Y96.719 E0.01672
G1 X97.798 Y96.37 E0.03384
G1 X98.234 Y95.991 E0.05305
G1 X98.601 Y95.701 E0.06861
G1 X98.677 Y95.631 E0.07204
G1 X99.33 Y95.142 E0.09918
G1 X99.881 Y94.759 E0.1215
G1 X100.574 Y94.325 E0.14869
G1 X101.065 Y94.042 E0.16754
G1 X101.666 Y93.72 E0.19022
G1 X102.151 Y93.48 E0.20822
G1 X102.689 Y93.232 E0.22792
G1 X103.42 Y92.932 E0.2542
G1 X104.156 Y92.665 E0.28024
G1 X104.57 Y92.529 E0.29474
G1 X105.141 Y92.363 E0.31451
G1 X106.005 Y92.148 E0.34413
G1 X106.624 Y92.02 E0.36515
G1 X107.147 Y91.93 E0.3828
G1 X107.695 Y91.852 E0.40121
G1 X108.57 Y91.762 E0.43047
G1 X109.223 Y91.722 E0.45223
G1 X109.726 Y91.707 E0.46896
G1 X110.463 Y91.71 E0.49348
G1 X111.219 Y91.747 E0.51865
G1 X112.15 Y91.834 E0.54975
G1 X112.776 Y91.919 E0.57076
G1 X113.473 Y92.039 E0.59429
G1 X113.943 Y92.135 E0.61024
G1 X114.703 Y92.319 E0.63625
G1 X115.329 Y92.498 E0.65791
G1 X115.712 Y92.629 E0.67137
G1 X115.818 Y92.654 E0.67499
G1 X116.38 Y92.856 E0.69485
G1 X116.974 Y93.089 E0.71608
G1 X117.426 Y93.281 E0.73241
G1 X118.042 Y93.569 E0.75503
G1 X118.647 Y93.879 E0.77764
G1 X119.268 Y94.228 E0.80133
G1 X119.825 Y94.576 E0.82317
G1 X120.26 Y94.866 E0.84056
G1 X120.823 Y95.259 E0.8634
G1 X121.183 Y95.528 E0.87835
G1 X121.678 Y95.919 E0.89933
G1 X122.165 Y96.334 E0.92061
G1 X122.503 Y96.645 E0.93588
G1 X122.945 Y97.075 E0.95639
G1 X123.369 Y97.512 E0.97665
G1 X123.925 Y98.138 E1.00449
G1 X124.304 Y98.596 E1.02427
G1 X124.655 Y99.053 E1.04343
G1 X125.009 Y99.544 E1.06356
G1 X125.301 Y99.975 E1.08088
G1 X125.587 Y100.422 E1.09853
G1 X125.824 Y100.822 E1.11399
G1 X126.107 Y101.327 E1.13325
G1 X126.43 Y101.957 E1.1568
G1 X126.73 Y102.603 E1.18048
G1 X126.961 Y103.148 E1.20017
G1 X127.167 Y103.681 E1.21918
G1 X127.375 Y104.278 E1.24021
G1 X127.549 Y104.832 E1.25952
G1 X127.703 Y105.391 E1.2788
G1 X127.846 Y105.985 E1.29912
G1 X127.956 Y106.501 E1.31667
G1 X128.048 Y107.015 E1.33404
G1 X128.14 Y107.645 E1.35522
G1 X128.203 Y108.186 E1.37333
G1 X128.257 Y108.85 E1.39549
G1 X128.282 Y109.396 E1.41367
G1 X128.293 Y110.117 E1.43765
G1 X128.267 Y110.964 E1.46584
G1 X128.199 Y111.832 E1.49479
G1 X128.13 Y112.431 E1.51485
G1 X128.003 Y113.232 E1.54182
G1 X127.821 Y114.132 E1.57236
G1 X127.645 Y114.825 E1.59614
G1 X127.482 Y115.385 E1.61554
G1 X127.163 Y116.329 E1.64868
G1 X126.967 Y116.833 E1.66667
G1 X126.759 Y117.327 E1.6845
G1 X126.502 Y117.894 E1.7052
G1 X126.119 Y118.646 E1.73327
G1 X125.859 Y119.112 E1.75102
G1 X125.505 Y119.704 E1.77396
G1 X125.151 Y120.249 E1.79558
G1 X124.808 Y120.733 E1.81531
G1 X124.298 Y121.405 E1.84337
G1 X124 Y121.773 E1.85912
G1 X123.715 Y122.105 E1.87367
G1 X123.208 Y122.654 E1.89852
G1 X122.636 Y123.225 E1.92541
G1 X122.257 Y123.577 E1.94261
G1 X121.528 Y124.203 E1.97457
G1 X120.888 Y124.694 E2.0014
G1 X120.13 Y125.231 E2.0323
G1 X119.421 Y125.677 E2.06015
G1 X118.87 Y125.994 E2.0813
G1 X118.306 Y126.296 E2.10258
G1 X117.749 Y126.57 E2.12322
G1 X117.249 Y126.794 E2.14144
G1 X116.64 Y127.043 E2.16333
G1 X116.274 Y127.181 E2.17634
G1 X115.616 Y127.407 E2.19948
G1 X115.074 Y127.573 E2.21833
G1 X114.304 Y127.779 E2.24484
G1 X113.866 Y127.877 E2.25977
G1 X113.248 Y127.999 E2.28072
G1 X112.777 Y128.079 E2.29661
G1 X111.772 Y128.205 E2.3303
G1 X111.37 Y128.24 E2.34372
G1 X110.753 Y128.276 E2.36428
G1 X110.274 Y128.29 E2.38022
G1 X109.544 Y128.287 E2.4045
G1 X109.08 Y128.267 E2.41994
G1 X108.439 Y128.224 E2.44131
G1 X107.511 Y128.123 E2.47236
G1 X107.022 Y128.05 E2.4888
G1 X106.526 Y127.959 E2.50557
G1 X105.768 Y127.796 E2.53136
G1 X105.268 Y127.669 E2.54852
G1 X104.674 Y127.499 E2.56907
G1 X104.133 Y127.326 E2.58796
G1 X103.624 Y127.143 E2.60595
G1 X102.985 Y126.893 E2.62877
G1 X102.302 Y126.59 E2.65363
G1 X101.908 Y126.404 E2.66812
G1 X101.29 Y126.085 E2.69125
G1 X100.43 Y125.587 E2.7243
G1 X99.844 Y125.214 E2.74741
G1 X99.43 Y124.929 E2.76412
G1 X98.992 Y124.61 E2.78214
G1 X98.633 Y124.33 E2.79729
G1 X97.796 Y123.623 E2.83373
G1 X97.449 Y123.305 E2.84938
G1 X97.028 Y122.896 E2.86891
G1 X96.63 Y122.483 E2.88798
G1 X96.241 Y122.052 E2.90729
G1 X95.828 Y121.565 E2.92853
G1 X95.465 Y121.106 E2.94799
G1 X95.13 Y120.652 E2.96676
G1 X94.851 Y120.253 E2.98295
G1 X94.553 Y119.797 E3.00107
G1 X94.3 Y119.384 E3.01718
G1 X93.832 Y118.558 E3.04876
G1 X93.367 Y117.613 E3.08379
G1 X93.007 Y116.773 E3.11418
G1 X92.8 Y116.223 E3.13373
G1 X92.633 Y115.738 E3.15079
G1 X92.442 Y115.135 E3.17183
G1 X92.297 Y114.602 E3.1902
G1 X92.107 Y113.793 E3.21784
G1 X92.004 Y113.274 E3.23544
G1 X91.92 Y112.782 E3.25204
G1 X91.822 Y112.026 E3.27739
G1 X91.766 Y111.442 E3.29691
G1 X91.727 Y110.843 E3.31687
G1 X91.707 Y109.864 E3.34944
G1 X91.733 Y109.089 E3.37523
G1 X91.801 Y108.15 E3.40654
G1 X91.87 Y107.562 E3.42624
G1 X91.976 Y106.858 E3.44991
G1 X92.108 Y106.192 E3.4725
G1 X92.323 Y105.294 E3.50321
G1 X92.589 Y104.392 E3.53449
G1 X92.794 Y103.798 E3.55539
G1 X93.011 Y103.231 E3.57558
G1 X93.37 Y102.381 E3.60627
G1 X93.677 Y101.74 E3.62991
G1 X94.158 Y100.854 E3.66344
G1 X94.464 Y100.342 E3.68328
G1 X94.976 Y99.565 E3.71423
G1 X95.32 Y99.084 E3.73389
G1 X95.704 Y98.587 E3.75478
G1 X96.23 Y97.957 E3.78208
G1 X96.774 Y97.361 E3.80892
G1 X97.059 Y97.069 E3.82249
M204 S2000
G0 F7500 X97.337 Y97.356
M204 S500
G1 F1500 X97.691 Y97.013 E3.83889
G1 X98.061 Y96.672 E3.85562
G1 X98.482 Y96.305 E3.8742
G1 X98.868 Y96 E3.89056
G1 X98.917 Y95.951 E3.89286
G1 X99.558 Y95.47 E3.91952
G1 X100.093 Y95.098 E3.94119
G1 X100.774 Y94.672 E3.96791
G1 X101.265 Y94.389 E3.98676
G1 X101.844 Y94.078 E4.00862
G1 X102.318 Y93.843 E4.02621
G1 X102.841 Y93.602 E4.04537
G1 X103.556 Y93.308 E4.07108
G1 X104.281 Y93.045 E4.09673
G1 X104.682 Y92.913 E4.11077
G1 X105.238 Y92.751 E4.13003
G1 X106.086 Y92.54 E4.1591
G1 X106.692 Y92.414 E4.17969
G1 X107.203 Y92.326 E4.19693
G1 X107.736 Y92.25 E4.21484
G1 X108.594 Y92.161 E4.24353
G1 X109.235 Y92.122 E4.26489
G1 X109.724 Y92.107 E4.28116
G1 X110.443 Y92.11 E4.30507
G1 X111.199 Y92.147 E4.33025
G1 X112.096 Y92.23 E4.36021
G1 X112.708 Y92.313 E4.38075
G1 X113.393 Y92.431 E4.40387
G1 X113.849 Y92.524 E4.41935
G1 X114.593 Y92.704 E4.44481
G1 X115.2 Y92.877 E4.4658
G1 X115.605 Y93.015 E4.48003
G1 X115.683 Y93.031 E4.48268
G1 X116.234 Y93.228 E4.50214
G1 X116.818 Y93.457 E4.52301
G1 X117.257 Y93.643 E4.53887
G1 X117.86 Y93.925 E4.56101
G1 X118.451 Y94.228 E4.5831
G1 X119.056 Y94.567 E4.60616
G1 X119.603 Y94.909 E4.62762
G1 X120.031 Y95.194 E4.64472
G1 X120.584 Y95.58 E4.66715
G1 X120.935 Y95.842 E4.68172
G1 X121.418 Y96.223 E4.70218
G1 X121.894 Y96.629 E4.72299
G1 X122.224 Y96.932 E4.73789
G1 X122.658 Y97.353 E4.758
G1 X123.07 Y97.778 E4.77769
G1 X123.617 Y98.393 E4.80506
G1 X123.987 Y98.84 E4.82436
G1 X124.331 Y99.287 E4.84312
G1 X124.678 Y99.768 E4.86285
G1 X124.964 Y100.191 E4.87983
G1 X125.243 Y100.627 E4.89705
G1 X125.475 Y101.017 E4.91214
G1 X125.751 Y101.51 E4.93093
G1 X126.067 Y102.126 E4.95396
G1 X126.362 Y102.759 E4.97719
G1 X126.588 Y103.292 E4.99644
G1 X126.789 Y103.813 E5.01502
G1 X126.993 Y104.398 E5.03562
G1 X127.163 Y104.939 E5.05448
G1 X127.314 Y105.485 E5.07333
G1 X127.455 Y106.068 E5.09328
G1 X127.562 Y106.572 E5.11041
G1 X127.652 Y107.073 E5.12734
G1 X127.743 Y107.691 E5.14812
G1 X127.804 Y108.218 E5.16576
G1 X127.857 Y108.869 E5.18749
G1 X127.882 Y109.402 E5.20523
G1 X127.893 Y110.105 E5.22862
G1 X127.868 Y110.933 E5.25617
G1 X127.802 Y111.786 E5.28463
G1 X127.735 Y112.369 E5.30415
G1 X127.611 Y113.153 E5.33055
G1 X127.433 Y114.034 E5.36044
G1 X127.261 Y114.713 E5.38374
G1 X127.103 Y115.257 E5.40258
G1 X126.79 Y116.184 E5.43512
G1 X126.598 Y116.678 E5.45275
G1 X126.395 Y117.162 E5.4702
G1 X126.145 Y117.713 E5.49033
G1 X125.77 Y118.451 E5.51786
G1 X125.516 Y118.907 E5.53522
G1 X125.17 Y119.486 E5.55766
G1 X124.824 Y120.018 E5.57876
G1 X124.49 Y120.491 E5.59802
G1 X123.987 Y121.153 E5.62568
G1 X123.696 Y121.512 E5.64105
G1 X123.411 Y121.844 E5.6556
G1 X122.925 Y122.371 E5.67944
G1 X122.364 Y122.932 E5.70583
G1 X121.996 Y123.274 E5.72254
G1 X121.284 Y123.886 E5.75377
G1 X120.657 Y124.368 E5.78007
G1 X119.917 Y124.892 E5.81023
G1 X119.221 Y125.33 E5.83758
G1 X118.681 Y125.641 E5.85831
G1 X118.129 Y125.937 E5.87914
G1 X117.585 Y126.205 E5.89931
G1 X117.098 Y126.424 E5.91707
G1 X116.499 Y126.669 E5.9386
G1 X116.144 Y126.803 E5.95122
G1 X115.499 Y127.025 E5.9739
G1 X114.971 Y127.187 E5.99227
G1 X114.216 Y127.389 E6.01827
G1 X113.788 Y127.485 E6.03286
G1 X113.181 Y127.605 E6.05344
G1 X112.727 Y127.682 E6.06875
G1 X111.737 Y127.807 E6.10194
G1 X111.347 Y127.841 E6.11496
G1 X110.741 Y127.876 E6.13515
G1 X110.276 Y127.89 E6.15062
G1 X109.561 Y127.887 E6.17441
G1 X109.107 Y127.868 E6.18952
G1 X108.482 Y127.826 E6.21035
G1 X107.57 Y127.727 E6.24086
G1 X107.081 Y127.654 E6.25731
G1 X106.61 Y127.568 E6.27323
G1 X105.866 Y127.408 E6.29854
G1 X105.378 Y127.285 E6.31528
G1 X104.796 Y127.118 E6.33542
G1 X104.268 Y126.949 E6.35386
G1 X103.77 Y126.771 E6.37145
G1 X103.147 Y126.527 E6.3937
G1 X102.473 Y126.228 E6.41823
G1 X102.079 Y126.042 E6.43272
G1 X101.486 Y125.736 E6.45491
G1 X101.067 Y125.501 E6.47089
G1 X100.645 Y125.249 E6.48724
G1 X100.071 Y124.884 E6.50986
G1 X99.665 Y124.605 E6.52625
G1 X99.238 Y124.295 E6.5438
G1 X98.891 Y124.024 E6.55844
G1 X98.066 Y123.328 E6.59434
G1 X97.728 Y123.018 E6.6096
G1 X97.316 Y122.618 E6.6287
G1 X96.927 Y122.215 E6.64733
G1 X96.546 Y121.793 E6.66624
G1 X96.142 Y121.317 E6.687
G1 X95.787 Y120.869 E6.70601
G1 X95.458 Y120.423 E6.72445
G1 X95.186 Y120.034 E6.74023
G1 X94.894 Y119.588 E6.75796
G1 X94.648 Y119.187 E6.77361
G1 X94.191 Y118.381 E6.80443
G1 X93.735 Y117.455 E6.83876
G1 X93.375 Y116.615 E6.86916
G1 X93.178 Y116.092 E6.88774
G1 X93.014 Y115.617 E6.90446
G1 X92.828 Y115.029 E6.92497
G1 X92.686 Y114.51 E6.94287
G1 X92.499 Y113.715 E6.97003
G1 X92.398 Y113.207 E6.98726
G1 X92.317 Y112.73 E7.00335
G1 X92.22 Y111.988 E7.02824
G1 X92.165 Y111.416 E7.04735
G1 X92.127 Y110.835 E7.06672
G1 X92.107 Y109.877 E7.09859
G1 X92.132 Y109.118 E7.12384
G1 X92.198 Y108.197 E7.15455
G1 X92.266 Y107.622 E7.17381
G1 X92.372 Y106.918 E7.19749
G1 X92.497 Y106.285 E7.21895
G1 X92.707 Y105.407 E7.24898
G1 X92.967 Y104.522 E7.27966
G1 X93.167 Y103.941 E7.30009
G1 X93.38 Y103.386 E7.31987
G1 X93.731 Y102.554 E7.3499
G1 X94.038 Y101.913 E7.37354
G1 X94.502 Y101.059 E7.40586
G1 X94.798 Y100.562 E7.4251
G1 X95.301 Y99.798 E7.45553
G1 X95.637 Y99.328 E7.47474
G1 X96.011 Y98.843 E7.49511
G1 X96.525 Y98.227 E7.5218
G1 X97.061 Y97.64 E7.54824
G1 X97.337 Y97.356 E7.56141
M204 S2000
G0 F7500 X97.616 Y97.643
M204 S500
G1 F1500 X97.962 Y97.307 E7.57745
G1 X98.324 Y96.973 E7.59383
G1 X98.73 Y96.619 E7.61175
G1 X99.162 Y96.277 E7.63007
G1 X99.157 Y96.271 E7.63033
G1 X99.786 Y95.798 E7.65651
G1 X100.305 Y95.437 E7.67754
G1 X100.974 Y95.018 E7.70379
G1 X101.454 Y94.741 E7.72222
G1 X102.022 Y94.436 E7.74367
G1 X102.486 Y94.206 E7.76089
G1 X102.993 Y93.972 E7.77946
G1 X103.692 Y93.684 E7.80461
G1 X104.406 Y93.425 E7.82987
G1 X104.794 Y93.297 E7.84346
G1 X105.334 Y93.139 E7.86217
G1 X106.168 Y92.932 E7.89075
G1 X106.76 Y92.808 E7.91087
G1 X107.26 Y92.722 E7.92775
G1 X107.778 Y92.648 E7.94515
G1 X108.618 Y92.56 E7.97324
G1 X109.248 Y92.522 E7.99423
G1 X109.722 Y92.507 E8.01001
G1 X110.423 Y92.51 E8.03332
G1 X111.179 Y92.547 E8.0585
G1 X112.042 Y92.626 E8.08732
G1 X112.64 Y92.707 E8.10739
G1 X113.313 Y92.823 E8.13011
G1 X113.755 Y92.913 E8.14511
G1 X114.484 Y93.089 E8.17005
G1 X115.071 Y93.256 E8.19035
G1 X115.546 Y93.418 E8.20704
G1 X115.549 Y93.408 E8.20739
G1 X116.088 Y93.6 E8.22642
G1 X116.662 Y93.825 E8.24693
G1 X117.088 Y94.005 E8.26231
G1 X117.678 Y94.281 E8.28397
G1 X118.256 Y94.577 E8.30557
G1 X118.844 Y94.906 E8.32798
G1 X119.381 Y95.242 E8.34905
G1 X119.802 Y95.522 E8.36587
G1 X120.345 Y95.901 E8.38789
G1 X120.687 Y96.156 E8.40208
G1 X121.158 Y96.527 E8.42202
G1 X121.623 Y96.924 E8.44236
G1 X121.953 Y97.227 E8.45726
G1 X122.371 Y97.632 E8.47662
G1 X122.771 Y98.044 E8.49571
G1 X123.309 Y98.648 E8.52262
G1 X123.67 Y99.084 E8.54144
G1 X124.007 Y99.521 E8.5598
G1 X124.347 Y99.992 E8.57912
G1 X124.627 Y100.406 E8.59574
G1 X124.899 Y100.832 E8.61255
G1 X125.126 Y101.213 E8.6273
G1 X125.395 Y101.693 E8.64561
G1 X125.711 Y102.309 E8.66863
G1 X125.994 Y102.915 E8.69088
G1 X126.215 Y103.435 E8.70967
G1 X126.411 Y103.945 E8.72784
G1 X126.611 Y104.518 E8.74803
G1 X126.781 Y105.059 E8.76689
G1 X126.925 Y105.579 E8.78483
G1 X127.064 Y106.151 E8.80441
G1 X127.168 Y106.643 E8.82114
G1 X127.256 Y107.132 E8.83766
G1 X127.346 Y107.737 E8.85801
G1 X127.405 Y108.25 E8.87518
G1 X127.457 Y108.888 E8.89647
G1 X127.482 Y109.408 E8.91379
G1 X127.493 Y110.093 E8.93657
G1 X127.469 Y110.903 E8.96353
G1 X127.405 Y111.74 E8.99145
G1 X127.34 Y112.307 E9.01043
G1 X127.219 Y113.074 E9.03626
G1 X127.045 Y113.936 E9.0655
G1 X126.877 Y114.601 E9.08832
G1 X126.722 Y115.135 E9.10681
G1 X126.591 Y115.543 E9.12106
G1 X126.417 Y116.039 E9.13855
G1 X126.229 Y116.524 E9.15585
G1 X126.031 Y116.997 E9.1729
G1 X125.789 Y117.532 E9.19243
G1 X125.42 Y118.257 E9.21949
G1 X125.173 Y118.702 E9.23642
G1 X124.835 Y119.268 E9.25834
G1 X124.498 Y119.787 E9.27892
G1 X124.171 Y120.249 E9.29775
G1 X123.676 Y120.901 E9.32498
G1 X123.392 Y121.251 E9.33997
G1 X123.107 Y121.583 E9.35452
G1 X122.642 Y122.088 E9.37735
G1 X122.091 Y122.639 E9.40327
G1 X121.735 Y122.971 E9.41946
G1 X121.04 Y123.569 E9.44996
G1 X120.426 Y124.042 E9.47574
G1 X119.704 Y124.553 E9.50516
G1 X119.021 Y124.983 E9.532
G1 X118.481 Y125.294 E9.55273
G1 X117.952 Y125.578 E9.5727
G1 X117.42 Y125.84 E9.59242
G1 X116.946 Y126.054 E9.60972
G1 X116.358 Y126.295 E9.63085
G1 X116.014 Y126.425 E9.64308
G1 X115.381 Y126.643 E9.66535
G1 X114.868 Y126.801 E9.6832
G1 X114.128 Y126.999 E9.70868
G1 X113.71 Y127.093 E9.72293
G1 X113.114 Y127.211 E9.74314
G1 X112.677 Y127.285 E9.75788
G1 X111.702 Y127.409 E9.79057
G1 X111.324 Y127.442 E9.80319
G1 X110.729 Y127.476 E9.82301
G1 X110.278 Y127.49 E9.83802
G1 X109.577 Y127.487 E9.86134
G1 X109.134 Y127.469 E9.87608
G1 X108.525 Y127.428 E9.89638
G1 X107.629 Y127.331 E9.92636
G1 X107.152 Y127.26 E9.9424
G1 X106.694 Y127.177 E9.95788
G1 X105.964 Y127.02 E9.98272
G1 X105.488 Y126.9 E9.99904
G1 X104.918 Y126.737 E10.01876
G1 X104.402 Y126.572 E10.03678
G1 X103.916 Y126.399 E10.05394
G1 X103.309 Y126.161 E10.07562
G1 X102.644 Y125.867 E10.09981
G1 X102.262 Y125.686 E10.11387
G1 X101.682 Y125.387 E10.13557
G1 X101.272 Y125.157 E10.1512
G1 X100.859 Y124.911 E10.16719
G1 X100.297 Y124.554 E10.18934
G1 X99.9 Y124.282 E10.20534
G1 X99.484 Y123.979 E10.22246
G1 X99.149 Y123.718 E10.23659
